;FLAVOR:Marlin
;TIME:267
;Filament used: 0.381077m
;Layer height: 0.3
;Generated with Cura_SteamEngine 1.2.2
M190 S35
M104 S220
M109 S220
G28
G1 Z50.00 F400
G92 E0
G1 F200 E3
G92 E0
M132 X Y Z A
M907 X100 Y100 Z50 A100
;LAYER_COUNT:25
;LAYER:0
M107
G0 F3000 X-1.024 Y-.426 Z0.3
;TYPE:WALL-INNER
G1 F1500 X-1.16 Y-0.024 E0.02117
G1 X-1.252 Y0.392 E0.04243
G1 X-1.298 Y0.817 E0.06376
G1 X-1.298 Y1.243 E0.08501
G1 X-1.252 Y1.666 E0.10624
G1 X-1.16 Y2.083 E0.12754
G1 X-1.024 Y2.486 E0.14876
G1 X-.845 Y2.873 E0.17003
G1 X-.626 Y3.237 E0.19123
G1 X-.368 Y3.578 E0.21256
G1 X-0.074 Y3.886 E0.2338
G1 X0.251 Y4.163 E0.25511
G1 X0.604 Y4.401 E0.27635
G1 X0.979 Y4.6 E0.29753
G1 X1.375 Y4.758 E0.3188
G1 X1.786 Y4.873 E0.34009
G1 X2.206 Y4.941 E0.36132
G1 X2.631 Y4.965 E0.38256
G1 X3.057 Y4.941 E0.40384
G1 X3.477 Y4.873 E0.42507
G1 X3.888 Y4.758 E0.44636
G1 X4.283 Y4.6 E0.46759
G1 X4.659 Y4.401 E0.48881
G1 X5.012 Y4.163 E0.51005
G1 X5.338 Y3.886 E0.53139
G1 X5.63 Y3.578 E0.55257
G1 X5.889 Y3.238 E0.57389
G1 X6.108 Y2.872 E0.59517
G1 X6.286 Y2.486 E0.61638
G1 X6.422 Y2.083 E0.6376
G1 X6.514 Y1.666 E0.6589
G1 X6.56 Y1.243 E0.68013
G1 X6.56 Y0.817 E0.70138
G1 X6.514 Y0.392 E0.72271
G1 X6.422 Y-0.024 E0.74396
G1 X6.286 Y-.426 E0.76514
G1 X6.108 Y-.813 E0.78639
G1 X5.888 Y-1.179 E0.80769
G1 X5.63 Y-1.518 E0.82895
G1 X5.337 Y-1.826 E0.85016
G1 X5.013 Y-2.102 E0.87139
G1 X4.66 Y-2.342 E0.89269
G1 X4.283 Y-2.542 E0.91398
G1 X3.888 Y-2.699 E0.93518
G1 X3.477 Y-2.813 E0.95646
G1 X3.057 Y-2.881 E0.97769
G1 X2.631 Y-2.905 E0.99898
G1 X2.206 Y-2.881 E1.02021
G1 X1.786 Y-2.813 E1.04144
G1 X1.375 Y-2.699 E1.06272
G1 X0.979 Y-2.542 E1.08397
G1 X0.603 Y-2.342 E1.10522
G1 X0.25 Y-2.102 E1.12652
G1 X-0.074 Y-1.826 E1.14775
G1 X-.368 Y-1.518 E1.16899
G1 X-.626 Y-1.178 E1.19029
G1 X-.845 Y-.814 E1.21148
G1 X-1.024 Y-.426 E1.2328
G0 F3000 X-1.116 Y-.463
G0 X-6.472 Y-2.599
G0 X-6.564 Y-2.635
G1 F1500 X-6.113 Y-3.611 E1.28644
G1 X-5.561 Y-4.526 E1.33975
G1 X-4.907 Y-5.387 E1.39369
G1 X-4.18 Y-6.155 E1.44645
G1 X-3.362 Y-6.849 E1.49997
G1 X-2.476 Y-7.45 E1.55339
G1 X-1.527 Y-7.954 E1.60699
G1 X-.524 Y-8.353 E1.66085
G1 X0.505 Y-8.638 E1.71412
G1 X1.561 Y-8.812 E1.76751
G1 X2.631 Y-8.869 E1.82097
G1 X3.701 Y-8.812 E1.87443
G1 X4.76 Y-8.638 E1.92797
G1 X5.785 Y-8.354 E1.98103
G1 X6.789 Y-7.954 E2.03495
G1 X7.734 Y-7.452 E2.08834
G1 X8.624 Y-6.848 E2.142
G1 X9.441 Y-6.155 E2.19545
G1 X10.174 Y-5.382 E2.2486
G1 X10.827 Y-4.522 E2.30247
G1 X11.373 Y-3.615 E2.35529
G1 X11.831 Y-2.625 E2.40971
G1 X12.169 Y-1.622 E2.46251
G1 X12.399 Y-.576 E2.51594
G1 X12.516 Y0.499 E2.56989
G1 X12.516 Y1.56 E2.62282
G1 X12.399 Y2.636 E2.67682
G1 X12.169 Y3.682 E2.73026
G1 X11.831 Y4.684 E2.78301
G1 X11.374 Y5.672 E2.83732
G1 X10.827 Y6.581 E2.89025
G1 X10.174 Y7.441 E2.94412
G1 X9.441 Y8.215 E2.99731
G1 X8.624 Y8.908 E3.05075
G1 X7.731 Y9.514 E3.1046
G1 X6.793 Y10.011 E3.15756
G1 X5.785 Y10.413 E3.2117
G1 X4.76 Y10.697 E3.26476
G1 X3.701 Y10.871 E3.3183
G1 X2.631 Y10.929 E3.37176
G1 X1.561 Y10.871 E3.42522
G1 X0.505 Y10.697 E3.47862
G1 X-.524 Y10.412 E3.53189
G1 X-1.531 Y10.011 E3.58597
G1 X-2.472 Y9.512 E3.6391
G1 X-3.362 Y8.909 E3.69274
G1 X-4.175 Y8.22 E3.74591
G1 X-4.911 Y7.441 E3.79937
G1 X-5.561 Y6.585 E3.853
G1 X-6.114 Y5.668 E3.90642
G1 X-6.564 Y4.694 E3.95995
G1 X-6.909 Y3.671 E4.01381
G1 X-7.136 Y2.636 E4.06667
G1 X-7.253 Y1.56 E4.12067
G1 X-7.253 Y0.499 E4.17361
G1 X-7.136 Y-.576 E4.22755
G1 X-6.909 Y-1.611 E4.28042
G1 X-6.564 Y-2.635 E4.33433
G0 F3000 X-6.936 Y-2.783
;TYPE:WALL-OUTER
G1 F1500 X-6.464 Y-3.804 E4.39045
G1 X-5.894 Y-4.749 E4.4455
G1 X-5.217 Y-5.641 E4.50137
G1 X-4.452 Y-6.449 E4.55688
G1 X-3.608 Y-7.165 E4.6121
G1 X-2.68 Y-7.794 E4.66803
G1 X-1.692 Y-8.319 E4.72385
G1 X-.659 Y-8.73 E4.77932
G1 X0.425 Y-9.031 E4.83545
G1 X1.511 Y-9.209 E4.89035
G1 X2.631 Y-9.269 E4.94631
G1 X3.751 Y-9.209 E5.00226
G1 X4.84 Y-9.031 E5.05731
G1 X5.92 Y-8.731 E5.11324
G1 X6.954 Y-8.319 E5.16877
G1 X7.943 Y-7.794 E5.22463
G1 X8.866 Y-7.168 E5.28027
G1 X9.713 Y-6.449 E5.3357
G1 X10.484 Y-5.636 E5.3916
G1 X11.157 Y-4.749 E5.44715
G1 X11.726 Y-3.804 E5.50218
G1 X12.203 Y-2.773 E5.55886
G1 X12.556 Y-1.727 E5.61393
G1 X12.795 Y-.641 E5.66941
G1 X12.916 Y0.474 E5.72536
G1 X12.916 Y1.585 E5.78079
G1 X12.795 Y2.701 E5.8368
G1 X12.556 Y3.787 E5.89227
G1 X12.203 Y4.832 E5.9473
G1 X11.727 Y5.861 E6.00387
G1 X11.157 Y6.808 E6.05901
G1 X10.484 Y7.695 E6.11456
G1 X9.713 Y8.509 E6.17049
G1 X8.866 Y9.228 E6.22592
G1 X7.943 Y9.854 E6.28156
G1 X6.954 Y10.378 E6.3374
G1 X5.92 Y10.79 E6.39293
G1 X4.84 Y11.09 E6.44886
G1 X3.751 Y11.268 E6.50391
G1 X2.631 Y11.329 E6.55987
G1 X1.511 Y11.268 E6.61583
G1 X0.425 Y11.09 E6.67073
G1 X-.659 Y10.789 E6.72686
G1 X-1.692 Y10.378 E6.78232
G1 X-2.68 Y9.854 E6.83812
G1 X-3.608 Y9.225 E6.89405
G1 X-4.452 Y8.509 E6.94927
G1 X-5.217 Y7.7 E7.00482
G1 X-5.894 Y6.808 E7.06068
G1 X-6.465 Y5.861 E7.11585
G1 X-6.936 Y4.842 E7.17186
G1 X-7.296 Y3.775 E7.22804
G1 X-7.532 Y2.701 E7.2829
G1 X-7.653 Y1.585 E7.33891
G1 X-7.653 Y0.474 E7.39433
G1 X-7.532 Y-.641 E7.45029
G1 X-7.296 Y-1.715 E7.50515
G1 X-6.936 Y-2.783 E7.56138
G0 F3000 X-6.853 Y-2.964
G0 X-6.4 Y-2.754
G0 X-1.124 Y-.439
G0 X-.652 Y-.278
G1 F1500 X-.774 Y0.084 E7.58043
G1 X-.857 Y0.457 E7.5995
G1 X-.898 Y0.838 E7.61862
G1 X-.898 Y1.221 E7.63772
G1 X-.857 Y1.601 E7.65679
G1 X-.774 Y1.976 E7.67595
G1 X-.652 Y2.338 E7.69501
G1 X-.491 Y2.685 E7.7141
G1 X-.294 Y3.013 E7.73319
G1 X-0.063 Y3.318 E7.75227
G1 X0.201 Y3.595 E7.77136
G1 X0.493 Y3.844 E7.79051
G1 X0.81 Y4.058 E7.80959
G1 X1.147 Y4.237 E7.82863
G1 X1.503 Y4.379 E7.84775
G1 X1.872 Y4.482 E7.86686
G1 X2.249 Y4.543 E7.88592
G1 X2.631 Y4.564 E7.905
G1 X3.014 Y4.543 E7.92414
G1 X3.391 Y4.482 E7.94319
G1 X3.76 Y4.379 E7.96231
G1 X4.115 Y4.237 E7.98138
G1 X4.453 Y4.058 E8.00046
G1 X4.77 Y3.844 E8.01955
G1 X5.062 Y3.595 E8.03869
G1 X5.325 Y3.318 E8.05775
G1 X5.557 Y3.013 E8.07687
G1 X5.754 Y2.685 E8.09595
G1 X5.914 Y2.338 E8.11502
G1 X6.036 Y1.976 E8.13408
G1 X6.119 Y1.601 E8.15324
G1 X6.16 Y1.221 E8.17231
G1 X6.16 Y0.838 E8.19141
G1 X6.119 Y0.457 E8.21053
G1 X6.036 Y0.084 E8.2296
G1 X5.914 Y-.278 E8.24866
G1 X5.754 Y-.626 E8.26776
G1 X5.557 Y-.954 E8.28685
G1 X5.325 Y-1.258 E8.30593
G1 X5.062 Y-1.535 E8.32499
G1 X4.77 Y-1.783 E8.3441
G1 X4.453 Y-1.999 E8.36324
G1 X4.115 Y-2.178 E8.38232
G1 X3.76 Y-2.319 E8.40138
G1 X3.391 Y-2.422 E8.42049
G1 X3.014 Y-2.483 E8.43954
G1 X2.631 Y-2.504 E8.45868
G1 X2.249 Y-2.483 E8.47777
G1 X1.872 Y-2.422 E8.49682
G1 X1.503 Y-2.319 E8.51593
G1 X1.147 Y-2.178 E8.53504
G1 X0.81 Y-1.999 E8.55407
G1 X0.493 Y-1.783 E8.57321
G1 X0.201 Y-1.535 E8.59232
G1 X-0.063 Y-1.258 E8.61142
G1 X-.294 Y-.953 E8.6305
G1 X-.491 Y-.626 E8.64955
G1 X-.652 Y-.278 E8.66868
G0 F3000 X-.715 Y-0.089
G0 X-1.188 Y-.25
G0 X-4.042 Y8.071
G0 X-2.749 Y9.129
;TYPE:SKIN
G1 F1500 X-5.494 Y6.385 E8.86232
G1 X-5.564 Y6.315
G0 F3000 X-6.185 Y5.127
G1 F1500 X-1.438 Y9.874 E9.19725
G1 X-1.368 Y9.944
G0 F3000 X-.499 Y10.248
G1 F1500 X-6.566 Y4.181 E9.62531
G1 X-6.636 Y4.111
G0 F3000 X-6.811 Y3.37
G1 F1500 X0.286 Y10.468 E10.12607
G1 X0.356 Y10.538
G0 F3000 X0.998 Y10.615
G1 F1500 X-6.971 Y2.645 E10.68836
G1 X-7.041 Y2.575
G0 F3000 X-7.043 Y2.007
G1 F1500 X1.663 Y10.714 E11.30265
G1 X1.733 Y10.784
G0 F3000 X2.261 Y10.746
G1 F1500 X-7.092 Y1.393 E11.96256
G1 X-7.162 Y1.323
G0 F3000 X-7.092 Y0.827
G1 F1500 X2.836 Y10.755 E12.66303
G1 X2.906 Y10.825
G0 F3000 X3.372 Y10.726
G1 F1500 X-7.068 Y0.285 E13.39967
G1 X-7.138 Y0.215
G0 F3000 X-7.013 Y-.224
G1 F1500 X3.889 Y10.677 E14.16883
G1 X3.959 Y10.747
G0 F3000 X4.375 Y10.598
G1 F1500 X-6.941 Y-.719 E14.96727
G1 X-7.011 Y-.789
G0 F3000 X-6.839 Y-1.182
G1 F1500 X4.848 Y10.505 E15.79185
G1 X4.918 Y10.575
G0 F3000 X5.291 Y10.383
G1 F1500 X-6.73 Y-1.639 E16.64003
G1 X-6.8 Y-1.709
G0 F3000 X-6.587 Y-2.061
G1 F1500 X5.734 Y10.26 E17.50934
G1 X5.804 Y10.33
G0 F3000 X6.138 Y10.098
G1 F1500 X0.643 Y4.603 E17.89704
G1 X0.573 Y4.533
G0 F3000 X1.589 Y4.983
G1 F1500 X6.542 Y9.936 E18.2465
G1 X6.612 Y10.006
G0 F3000 X6.928 Y9.756
G1 F1500 X2.276 Y5.104 E18.57473
G1 X2.206 Y5.034
G0 F3000 X2.849 Y5.112
G1 F1500 X7.298 Y9.56 E18.88859
G1 X7.368 Y9.63
G0 F3000 X7.667 Y9.364
G1 F1500 X3.358 Y5.055 E19.19262
G1 X3.288 Y4.985
G0 F3000 X3.812 Y4.944
G1 F1500 X8.003 Y9.135 E19.48832
G1 X8.073 Y9.205
G0 F3000 X8.34 Y8.906
G1 F1500 X4.228 Y4.794 E19.77844
G1 X4.158 Y4.724
G0 F3000 X4.608 Y4.608
G1 F1500 X8.663 Y8.663 E20.06454
G1 X8.733 Y8.733
G0 F3000 X8.969 Y8.403
G1 F1500 X4.958 Y4.392 E20.34754
G1 X4.888 Y4.322
G0 F3000 X5.278 Y4.147
G1 F1500 X9.275 Y8.144 E20.62955
G1 X9.345 Y8.214
G0 F3000 X9.556 Y7.859
G1 F1500 X5.569 Y3.872 E20.91085
G1 X5.499 Y3.802
G0 F3000 X5.834 Y3.571
G1 F1500 X9.831 Y7.568 E21.19286
G1 X9.901 Y7.638
G0 F3000 X10.101 Y7.272
G1 F1500 X6.071 Y3.242 E21.4772
G1 X6.001 Y3.172
G0 F3000 X6.277 Y2.883
G1 F1500 X10.344 Y6.95 E21.76415
G1 X10.414 Y7.02
G0 F3000 X10.588 Y6.628
G1 F1500 X6.451 Y2.491 E22.05604
G1 X6.381 Y2.421
G0 F3000 X6.588 Y2.063
G1 F1500 X10.815 Y6.289 E22.35424
G1 X10.885 Y6.359
G0 F3000 X11.028 Y5.936
G1 F1500 X6.682 Y1.59 E22.66087
G1 X6.612 Y1.52
G0 F3000 X6.718 Y1.062
G1 F1500 X11.238 Y5.581 E22.97975
G1 X11.308 Y5.651
G0 F3000 X11.417 Y5.195
G1 F1500 X6.681 Y0.458 E23.31393
G1 X6.611 Y0.388
G0 F3000 X6.5 Y-.287
G1 F1500 X11.596 Y4.808 E23.67345
G1 X11.666 Y4.878
G0 F3000 X11.756 Y4.402
G1 F1500 X5.811 Y-1.542 E24.09287
G1 X5.741 Y-1.612
G0 F3000 X5.214 Y-2.138
G1 F1500 X-.739 Y-8.093 E24.51295
G1 X-.809 Y-8.163
G0 F3000 X-1.144 Y-7.932
G1 F1500 X3.937 Y-2.85 E24.87148
G1 X4.007 Y-2.78
G0 F3000 X3.202 Y-3.02
G1 F1500 X-1.54 Y-7.763 E25.20609
G1 X-1.61 Y-7.833
G0 F3000 X-1.91 Y-7.567
G1 F1500 X2.594 Y-3.062 E25.52391
G1 X2.664 Y-2.992
G0 F3000 X2.07 Y-3.02
G1 F1500 X-2.279 Y-7.37 E25.83079
G1 X-2.349 Y-7.44
G0 F3000 X-2.626 Y-7.152
G1 F1500 X1.598 Y-2.926 E26.12888
G1 X1.668 Y-2.856
G0 F3000 X1.17 Y-2.789
G1 F1500 X-2.964 Y-6.923 E26.42056
G1 X-3.034 Y-6.993
G0 F3000 X-3.297 Y-6.692
G1 F1500 X0.777 Y-2.616 E26.70807
G1 X0.847 Y-2.546
G0 F3000 X0.418 Y-2.409
G1 F1500 X-3.604 Y-6.432 E26.99188
G1 X-3.674 Y-6.502
G0 F3000 X-3.91 Y-6.173
G1 F1500 X0.088 Y-2.174 E27.274
G1 X0.158 Y-2.104
G0 F3000 X-.213 Y-1.91
G1 F1500 X-4.202 Y-5.899 E27.55544
G1 X-4.272 Y-5.969
G0 F3000 X-4.478 Y-5.609
G1 F1500 X-.489 Y-1.62 E27.83689
G1 X-.419 Y-1.55
G0 F3000 X-.733 Y-1.298
G1 F1500 X-4.753 Y-5.318 E28.12052
G1 X-4.823 Y-5.388
G0 F3000 X-4.999 Y-4.999
G1 F1500 X-.948 Y-.948 E28.40634
G1 X-.878 Y-.878
G0 F3000 X-1.133 Y-.567
G1 F1500 X-5.243 Y-4.678 E28.69636
G1 X-5.313 Y-4.748
G0 F3000 X-5.48 Y-4.349
G1 F1500 X-1.284 Y-.152 E28.99245
G1 X-1.214 Y-0.082
G0 F3000 X-1.394 Y0.302
G1 F1500 X-5.693 Y-3.996 E29.29573
G1 X-5.763 Y-4.066
G0 F3000 X-5.906 Y-3.643
G1 F1500 X-1.456 Y0.806 E29.60966
G1 X-1.386 Y0.876
G0 F3000 X-1.443 Y1.385
G1 F1500 X-6.094 Y-3.266 E29.93782
G1 X-6.164 Y-3.336
G0 F3000 X-6.273 Y-2.879
G1 F1500 X-1.326 Y2.067 E30.28682
G1 X-1.256 Y2.137
G0 F3000 X-.946 Y3.012
G1 F1500 X-6.443 Y-2.484 E30.67463
G1 X-6.513 Y-2.554
G0 F3000 X-6.49 Y-2.547
G0 X-.321 Y-8.241
G1 F1500 X11.899 Y3.979 E31.53681
G1 X11.969 Y4.049
G0 F3000 X12.034 Y3.549
G1 F1500 X0.12 Y-8.364 E32.37738
G1 X0.05 Y-8.434
G0 F3000 X0.566 Y-8.484
G1 F1500 X12.137 Y3.086 E33.19374
G1 X12.207 Y3.156
G0 F3000 X12.239 Y2.622
G1 F1500 X1.052 Y-8.564 E33.98301
G1 X0.982 Y-8.634
G0 F3000 X1.537 Y-8.644
G1 F1500 X12.295 Y2.112 E34.74197
G1 X12.365 Y2.182
G0 F3000 X12.35 Y1.602
G1 F1500 X2.071 Y-8.676 E35.46717
G1 X2.001 Y-8.746
G0 F3000 X2.607 Y-8.705
G1 F1500 X12.355 Y1.041 E36.15488
G1 X12.425 Y1.111
G0 F3000 X12.351 Y0.472
G1 F1500 X3.202 Y-8.676 E36.80035
G1 X3.132 Y-8.746
G0 F3000 X3.814 Y-8.63
G1 F1500 X12.283 Y-.161 E37.39789
G1 X12.353 Y-0.091
G0 F3000 X12.179 Y-.831
G1 F1500 X4.49 Y-8.519 E37.94035
G1 X4.42 Y-8.589
G0 F3000 X5.237 Y-8.338
G1 F1500 X12.02 Y-1.556 E38.41889
G1 X12.09 Y-1.486
G0 F3000 X11.734 Y-2.407
G1 F1500 X6.077 Y-8.064 E38.81803
G1 X6.007 Y-8.134
G0 F3000 X7.102 Y-7.604
G1 F1500 X11.284 Y-3.423 E39.11305
G1 X11.354 Y-3.353
G0 F3000 X10.229 Y-5.043
G1 F1500 X8.698 Y-6.575 E39.22111
G1 X8.628 Y-6.645
G0 F3000 X8.467 Y-6.457
G0 X0.583 Y-2.376
G0 X-.101 Y-1.855
G0 X-.659 Y-1.2
G0 X-1.116 Y-.463
G0 X-1.024 Y-.426
;TIME_ELAPSED:34.196948
;LAYER:1
M140 S35
M106 S255
G0 F5100 X-1.024 Y-.426 Z0.6
;TYPE:WALL-INNER
G1 F2550 X-1.16 Y-0.024 E39.24228
G1 X-1.252 Y0.392 E39.26354
G1 X-1.298 Y0.817 E39.28486
G1 X-1.298 Y1.243 E39.30612
G1 X-1.252 Y1.666 E39.32735
G1 X-1.16 Y2.083 E39.34865
G1 X-1.024 Y2.486 E39.36987
G1 X-.845 Y2.873 E39.39114
G1 X-.626 Y3.237 E39.41234
G1 X-.368 Y3.578 E39.43367
G1 X-0.074 Y3.886 E39.45491
G1 X0.251 Y4.163 E39.47622
G1 X0.604 Y4.401 E39.49746
G1 X0.979 Y4.6 E39.51864
G1 X1.375 Y4.758 E39.53991
G1 X1.786 Y4.873 E39.5612
G1 X2.206 Y4.941 E39.58243
G1 X2.631 Y4.965 E39.60366
G1 X3.057 Y4.941 E39.62495
G1 X3.477 Y4.873 E39.64618
G1 X3.888 Y4.758 E39.66747
G1 X4.283 Y4.6 E39.68869
G1 X4.659 Y4.401 E39.70992
G1 X5.012 Y4.163 E39.73116
G1 X5.338 Y3.886 E39.7525
G1 X5.63 Y3.578 E39.77368
G1 X5.889 Y3.238 E39.795
G1 X6.108 Y2.872 E39.81628
G1 X6.286 Y2.486 E39.83748
G1 X6.422 Y2.083 E39.8587
G1 X6.514 Y1.666 E39.88001
G1 X6.56 Y1.243 E39.90124
G1 X6.56 Y0.817 E39.92249
G1 X6.514 Y0.392 E39.94382
G1 X6.422 Y-0.024 E39.96507
G1 X6.286 Y-.426 E39.98625
G1 X6.108 Y-.813 E40.0075
G1 X5.888 Y-1.179 E40.0288
G1 X5.63 Y-1.518 E40.05006
G1 X5.337 Y-1.826 E40.07126
G1 X5.013 Y-2.102 E40.0925
G1 X4.66 Y-2.342 E40.1138
G1 X4.283 Y-2.542 E40.13509
G1 X3.888 Y-2.699 E40.15629
G1 X3.477 Y-2.813 E40.17757
G1 X3.057 Y-2.881 E40.1988
G1 X2.631 Y-2.905 E40.22009
G1 X2.206 Y-2.881 E40.24132
G1 X1.786 Y-2.813 E40.26255
G1 X1.375 Y-2.699 E40.28383
G1 X0.979 Y-2.542 E40.30508
G1 X0.603 Y-2.342 E40.32633
G1 X0.25 Y-2.102 E40.34762
G1 X-0.074 Y-1.826 E40.36886
G1 X-.368 Y-1.518 E40.3901
G1 X-.626 Y-1.178 E40.41139
G1 X-.845 Y-.814 E40.43259
G1 X-1.024 Y-.426 E40.45391
G0 F5100 X-1.116 Y-.463
G0 X-6.472 Y-2.599
G0 X-6.564 Y-2.635
G1 F2550 X-6.113 Y-3.611 E40.50755
G1 X-5.561 Y-4.526 E40.56086
G1 X-4.907 Y-5.387 E40.6148
G1 X-4.18 Y-6.155 E40.66756
G1 X-3.362 Y-6.849 E40.72108
G1 X-2.476 Y-7.45 E40.77449
G1 X-1.527 Y-7.954 E40.8281
G1 X-.524 Y-8.353 E40.88196
G1 X0.505 Y-8.638 E40.93523
G1 X1.561 Y-8.812 E40.98862
G1 X2.631 Y-8.869 E41.04208
G1 X3.701 Y-8.812 E41.09554
G1 X4.76 Y-8.638 E41.14908
G1 X5.785 Y-8.354 E41.20214
G1 X6.789 Y-7.954 E41.25606
G1 X7.734 Y-7.452 E41.30945
G1 X8.624 Y-6.848 E41.36311
G1 X9.441 Y-6.155 E41.41656
G1 X10.174 Y-5.382 E41.4697
G1 X10.827 Y-4.522 E41.52358
G1 X11.373 Y-3.615 E41.57639
G1 X11.831 Y-2.625 E41.63081
G1 X12.169 Y-1.622 E41.68362
G1 X12.399 Y-.576 E41.73705
G1 X12.516 Y0.499 E41.791
G1 X12.516 Y1.56 E41.84393
G1 X12.399 Y2.636 E41.89793
G1 X12.169 Y3.682 E41.95136
G1 X11.831 Y4.684 E42.00412
G1 X11.374 Y5.672 E42.05843
G1 X10.827 Y6.581 E42.11136
G1 X10.174 Y7.441 E42.16523
G1 X9.441 Y8.215 E42.21841
G1 X8.624 Y8.908 E42.27186
G1 X7.731 Y9.514 E42.3257
G1 X6.793 Y10.011 E42.37866
G1 X5.785 Y10.413 E42.43281
G1 X4.76 Y10.697 E42.48587
G1 X3.701 Y10.871 E42.53941
G1 X2.631 Y10.929 E42.59287
G1 X1.561 Y10.871 E42.64633
G1 X0.505 Y10.697 E42.69973
G1 X-.524 Y10.412 E42.753
G1 X-1.531 Y10.011 E42.80707
G1 X-2.472 Y9.512 E42.86021
G1 X-3.362 Y8.909 E42.91385
G1 X-4.175 Y8.22 E42.96701
G1 X-4.911 Y7.441 E43.02048
G1 X-5.561 Y6.585 E43.0741
G1 X-6.114 Y5.668 E43.12753
G1 X-6.564 Y4.694 E43.18106
G1 X-6.909 Y3.671 E43.23492
G1 X-7.136 Y2.636 E43.28778
G1 X-7.253 Y1.56 E43.34178
G1 X-7.253 Y0.499 E43.39471
G1 X-7.136 Y-.576 E43.44866
G1 X-6.909 Y-1.611 E43.50153
G1 X-6.564 Y-2.635 E43.55544
G0 F5100 X-6.936 Y-2.783
;TYPE:WALL-OUTER
G1 F1650 X-6.464 Y-3.804 E43.61155
G1 X-5.894 Y-4.749 E43.66661
G1 X-5.217 Y-5.641 E43.72248
G1 X-4.452 Y-6.449 E43.77799
G1 X-3.608 Y-7.165 E43.83321
G1 X-2.68 Y-7.794 E43.88914
G1 X-1.692 Y-8.319 E43.94496
G1 X-.659 Y-8.73 E44.00043
G1 X0.425 Y-9.031 E44.05655
G1 X1.511 Y-9.209 E44.11146
G1 X2.631 Y-9.269 E44.16741
G1 X3.751 Y-9.209 E44.22337
G1 X4.84 Y-9.031 E44.27842
G1 X5.92 Y-8.731 E44.33434
G1 X6.954 Y-8.319 E44.38988
G1 X7.943 Y-7.794 E44.44574
