;FLAVOR:Marlin
;TIME:6475
;Filament used: 10.3004m
;Layer height: 0.3
;Generated with Cura_SteamEngine 1.2.2
M190 S35
M104 S220
M109 S220
G28
G1 Z50.00 F400
G92 E0
G1 F200 E3
G92 E0
M132 X Y Z A
M907 X100 Y100 Z50 A100
;LAYER_COUNT:37
;LAYER:-6
M107
G0 F3000 X34.581 Y47.002 Z0.36
G1 F1350 X-34.688 Y47.002 E8.29403
G1 X-35.75 Y46.964 E8.42127
G1 X-36.838 Y46.843 E8.55234
G1 X-37.86 Y46.655 E8.67677
G1 X-38.884 Y46.387 E8.80351
G1 X-39.923 Y46.033 E8.93494
G1 X-40.882 Y45.626 E9.05968
G1 X-41.84 Y45.134 E9.18863
G1 X-42.747 Y44.58 E9.31589
G1 X-43.617 Y43.958 E9.44394
G1 X-44.432 Y43.28 E9.57088
G1 X-45.19 Y42.549 E9.69697
G1 X-45.918 Y41.737 E9.82755
G1 X-46.741 Y40.671 E9.9888
G1 X-47 Y40.504 E10.0257
G1 X-47.844 Y39.867 E10.15231
G1 X-48.65 Y39.159 E10.28076
G1 X-49.391 Y38.405 E10.40735
G1 X-50.086 Y37.589 E10.53569
G1 X-50.718 Y36.724 E10.66396
G1 X-51.277 Y35.829 E10.79031
G1 X-51.777 Y34.884 E10.91832
G1 X-52.211 Y33.891 E11.04808
G1 X-52.555 Y32.913 E11.17221
G1 X-52.844 Y31.852 E11.30388
G1 X-53.043 Y30.828 E11.42879
G1 X-53.171 Y29.77 E11.55639
G1 X-53.224 Y28.53 E11.705
G1 X-53.224 Y-28.579 E18.54303
G1 X-53.186 Y-29.634 E18.66943
G1 X-53.065 Y-30.723 E18.80063
G1 X-52.877 Y-31.743 E18.92482
G1 X-52.609 Y-32.767 E19.05156
G1 X-52.253 Y-33.812 E19.18374
G1 X-51.848 Y-34.765 E19.30773
G1 X-51.356 Y-35.723 E19.43668
G1 X-50.802 Y-36.63 E19.56394
G1 X-50.18 Y-37.5 E19.69199
G1 X-49.502 Y-38.315 E19.81893
G1 X-48.771 Y-39.073 E19.94502
G1 X-47.962 Y-39.798 E20.07509
G1 X-47.12 Y-40.448 E20.20246
G1 X-46.627 Y-40.774 E20.27323
G1 X-46.444 Y-41.048 E20.31268
G1 X-45.79 Y-41.879 E20.4393
G1 X-45.075 Y-42.662 E20.56626
G1 X-44.298 Y-43.398 E20.69441
G1 X-43.469 Y-44.076 E20.82264
G1 X-42.591 Y-44.692 E20.95106
G1 X-41.69 Y-45.23 E21.07671
G1 X-40.737 Y-45.71 E21.20448
G1 X-39.743 Y-46.122 E21.33331
G1 X-38.744 Y-46.452 E21.45929
G1 X-37.691 Y-46.718 E21.58933
G1 X-36.653 Y-46.899 E21.71549
G1 X-35.585 Y-47.006 E21.84401
G1 X-34.655 Y-47.037 E21.95543
G1 X34.574 Y-47.037 E30.24467
G1 X35.636 Y-46.999 E30.37191
G1 X36.724 Y-46.878 E30.50298
G1 X37.746 Y-46.69 E30.62741
G1 X38.77 Y-46.422 E30.75415
G1 X39.809 Y-46.068 E30.88558
G1 X40.768 Y-45.661 E31.01032
G1 X41.726 Y-45.169 E31.13927
G1 X42.633 Y-44.615 E31.26652
G1 X43.503 Y-43.993 E31.39458
G1 X44.318 Y-43.315 E31.52152
G1 X45.076 Y-42.584 E31.64761
G1 X45.795 Y-41.781 E31.77667
G1 X46.454 Y-40.929 E31.90564
G1 X46.667 Y-40.606 E31.95196
G1 X47.167 Y-40.268 E32.02423
G1 X48.008 Y-39.603 E32.1526
G1 X48.797 Y-38.879 E32.28082
G1 X49.518 Y-38.113 E32.40678
G1 X50.187 Y-37.289 E32.53386
G1 X50.804 Y-36.405 E32.66294
G1 X51.351 Y-35.485 E32.7911
G1 X51.824 Y-34.54 E32.91764
G1 X52.232 Y-33.547 E33.04618
G1 X52.562 Y-32.538 E33.17329
G1 X52.822 Y-31.5 E33.30142
G1 X53.001 Y-30.46 E33.42777
G1 X53.106 Y-29.402 E33.55508
G1 X53.134 Y-28.479 E33.66564
G1 X53.134 Y28.465 E40.48392
G1 X53.096 Y29.52 E40.61032
G1 X52.975 Y30.607 E40.74128
G1 X52.787 Y31.629 E40.8657
G1 X52.519 Y32.653 E40.99244
G1 X52.165 Y33.692 E41.12387
G1 X51.758 Y34.651 E41.24861
G1 X51.267 Y35.606 E41.37719
G1 X50.712 Y36.516 E41.50482
G1 X50.09 Y37.386 E41.63287
G1 X49.412 Y38.201 E41.75981
G1 X48.681 Y38.959 E41.8859
G1 X47.878 Y39.678 E42.01496
G1 X47.018 Y40.343 E42.14512
G1 X46.672 Y40.571 E42.19474
G1 X46.44 Y40.924 E42.24532
G1 X45.789 Y41.764 E42.37257
G1 X45.08 Y42.551 E42.4994
G1 X44.306 Y43.293 E42.62778
G1 X43.484 Y43.976 E42.75575
G1 X42.612 Y44.596 E42.88386
G1 X41.696 Y45.154 E43.01228
G1 X40.767 Y45.629 E43.13722
G1 X39.782 Y46.044 E43.2652
G1 X38.754 Y46.394 E43.39523
G1 X37.736 Y46.658 E43.52115
G1 X36.688 Y46.849 E43.6487
G1 X35.62 Y46.965 E43.77733
G1 X34.581 Y47.002 E43.90182
G0 F3000 X35.2 Y46.98
G1 F1350 X35.2 Y-47.014 E55.15633
G0 F3000 X33.6 Y-47.037
G1 F1350 X33.6 Y47.002 E66.41623
G0 F3000 X32 Y47.002
G1 F1350 X32 Y-47.037 E77.67613
G0 F3000 X30.4 Y-47.037
G1 F1350 X30.4 Y47.002 E88.93603
G0 F3000 X28.8 Y47.002
G1 F1350 X28.8 Y-47.037 E100.19592
G0 F3000 X27.2 Y-47.037
G1 F1350 X27.2 Y47.002 E111.45582
G0 F3000 X25.6 Y47.002
G1 F1350 X25.6 Y-47.037 E122.71572
G0 F3000 X24 Y-47.037
G1 F1350 X24 Y47.002 E133.97562
G0 F3000 X22.4 Y47.002
G1 F1350 X22.4 Y-47.037 E145.23552
G0 F3000 X20.8 Y-47.037
G1 F1350 X20.8 Y47.002 E156.49542
G0 F3000 X19.2 Y47.002
G1 F1350 X19.2 Y-47.037 E167.75532
G0 F3000 X17.6 Y-47.037
G1 F1350 X17.6 Y47.002 E179.01522
G0 F3000 X16 Y47.002
G1 F1350 X16 Y-47.037 E190.27512
G0 F3000 X14.4 Y-47.037
G1 F1350 X14.4 Y47.002 E201.53502
G0 F3000 X12.8 Y47.002
G1 F1350 X12.8 Y-47.037 E212.79492
G0 F3000 X11.2 Y-47.037
G1 F1350 X11.2 Y47.002 E224.05482
G0 F3000 X9.6 Y47.002
G1 F1350 X9.6 Y-47.037 E235.31472
G0 F3000 X8 Y-47.037
G1 F1350 X8 Y47.002 E246.57462
G0 F3000 X6.4 Y47.002
G1 F1350 X6.4 Y-47.037 E257.83452
G0 F3000 X4.8 Y-47.037
G1 F1350 X4.8 Y47.002 E269.09442
G0 F3000 X3.2 Y47.002
G1 F1350 X3.2 Y-47.037 E280.35432
G0 F3000 X1.6 Y-47.037
G1 F1350 X1.6 Y47.002 E291.61421
G0 F3000 X0.00 Y47.002
G1 F1350 X0.00 Y-47.037 E302.87411
G0 F3000 X-1.6 Y-47.037
G1 F1350 X-1.6 Y47.002 E314.13401
G0 F3000 X-3.2 Y47.002
G1 F1350 X-3.2 Y-47.037 E325.39391
G0 F3000 X-4.8 Y-47.037
G1 F1350 X-4.8 Y47.002 E336.65381
G0 F3000 X-6.4 Y47.002
G1 F1350 X-6.4 Y-47.037 E347.91371
G0 F3000 X-8 Y-47.037
G1 F1350 X-8 Y47.002 E359.17361
G0 F3000 X-9.6 Y47.002
G1 F1350 X-9.6 Y-47.037 E370.43351
G0 F3000 X-11.2 Y-47.037
G1 F1350 X-11.2 Y47.002 E381.69341
G0 F3000 X-12.8 Y47.002
G1 F1350 X-12.8 Y-47.037 E392.95331
G0 F3000 X-14.4 Y-47.037
G1 F1350 X-14.4 Y47.002 E404.21321
G0 F3000 X-16 Y47.002
G1 F1350 X-16 Y-47.037 E415.47311
G0 F3000 X-17.6 Y-47.037
G1 F1350 X-17.6 Y47.002 E426.73301
G0 F3000 X-19.2 Y47.002
G1 F1350 X-19.2 Y-47.037 E437.99291
G0 F3000 X-20.8 Y-47.037
G1 F1350 X-20.8 Y47.002 E449.25281
G0 F3000 X-22.4 Y47.002
G1 F1350 X-22.4 Y-47.037 E460.51271
G0 F3000 X-24 Y-47.037
G1 F1350 X-24 Y47.002 E471.77261
G0 F3000 X-25.6 Y47.002
G1 F1350 X-25.6 Y-47.037 E483.03251
G0 F3000 X-27.2 Y-47.037
G1 F1350 X-27.2 Y47.002 E494.2924
G0 F3000 X-28.8 Y47.002
G1 F1350 X-28.8 Y-47.037 E505.5523
G0 F3000 X-30.4 Y-47.037
G1 F1350 X-30.4 Y47.002 E516.8122
G0 F3000 X-32 Y47.002
G1 F1350 X-32 Y-47.037 E528.0721
G0 F3000 X-33.6 Y-47.037
G1 F1350 X-33.6 Y47.002 E539.332
G0 F3000 X-35.2 Y46.983
G1 F1350 X-35.2 Y-47.019 E550.58747
G0 F3000 X-36.8 Y-46.874
G1 F1350 X-36.8 Y46.847 E561.80929
G0 F3000 X-38.4 Y46.513
G1 F1350 X-38.4 Y-46.539 E572.95101
G0 F3000 X-40 Y-46.016
G1 F1350 X-40 Y46 E583.96869
G0 F3000 X-41.6 Y45.257
G1 F1350 X-41.6 Y-45.276 E594.80879
G0 F3000 X-43.2 Y-44.265
G1 F1350 X-43.2 Y44.256 E605.40798
G0 F3000 X-44.8 Y42.925
G1 F1350 X-44.8 Y-42.923 E615.68712
G0 F3000 X-46.4 Y-41.104
G1 F1350 X-46.4 Y41.112 E625.53138
G0 F3000 X-48 Y39.729
G1 F1350 X-48 Y-39.764 E635.04959
G0 F3000 X-49.6 Y-38.198
G1 F1350 X-49.6 Y38.159 E644.19231
G0 F3000 X-51.2 Y35.952
G1 F1350 X-51.2 Y-35.979 E652.80507
G0 F3000 X-52.8 Y-32.038
G1 F1350 X-52.8 Y32.013 E660.47431
G0 F3000 X36.8 Y46.829
G1 F1350 X36.8 Y-46.864 E671.69279
G0 F3000 X38.4 Y-46.518
G1 F1350 X38.4 Y46.486 E682.82876
G0 F3000 X40 Y45.953
G1 F1350 X40 Y-45.986 E693.83721
G0 F3000 X41.6 Y-45.233
G1 F1350 X41.6 Y45.204 E704.66582
G0 F3000 X43.2 Y44.178
G1 F1350 X43.2 Y-44.209 E715.24897
G0 F3000 X44.8 Y-42.85
G1 F1350 X44.8 Y42.82 E725.50679
G0 F3000 X46.4 Y40.976
G1 F1350 X46.4 Y-40.998 E735.32207
G0 F3000 X48 Y-39.609
G1 F1350 X48 Y39.569 E744.80257
G0 F3000 X49.6 Y37.976
G1 F1350 X49.6 Y-38.012 E753.9011
G0 F3000 X51.2 Y-35.738
G1 F1350 X51.2 Y35.716 E762.45675
G0 F3000 X52.8 Y31.559
G1 F1350 X52.8 Y-31.587 E770.01763
G0 F3000 X0.331 Y47
;TIME_ELAPSED:293.624140
;LAYER:-5
M140 S35
M107
G0 X0.331 Y47 Z0.809
;TYPE:SUPPORT
G1 F1350 X1.745 Y47 E770.2288
G1 X-53.223 Y-7.968 E781.83781
G1 X-53.223 Y-9.382 E782.04897
G1 X3.16 Y47 E793.95672
G1 X4.574 Y47 E794.16789
G1 X-53.223 Y-10.796 E806.37427
G1 X-53.223 Y-12.211 E806.58558
G1 X5.988 Y47 E819.0907
G1 X7.402 Y47 E819.30186
G1 X-53.223 Y-13.625 E832.10561
G1 X-53.223 Y-15.039 E832.31677
G1 X8.816 Y47 E845.41915
G1 X10.231 Y47 E845.63046
G1 X-53.223 Y-16.453 E859.03158
G1 X-53.223 Y-17.867 E859.24274
G1 X11.645 Y47 E872.94249
G1 X13.059 Y47 E873.15365
G1 X-53.223 Y-19.282 E887.15213
G1 X-53.223 Y-20.696 E887.3633
G1 X14.473 Y47 E901.66041
G1 X15.887 Y47 E901.87158
G1 X-53.223 Y-22.11 E916.46732
G1 X-53.223 Y-23.524 E916.67848
G1 X17.302 Y47 E931.57296
G1 X18.716 Y47 E931.78413
G1 X-53.223 Y-24.938 E946.97724
G1 X-53.223 Y-26.353 E947.18855
G1 X20.13 Y47 E962.6804
G1 X21.544 Y47 E962.89157
G1 X-53.223 Y-27.767 E978.68204
G1 X-53.223 Y-28.579 E978.80331
G1 X-53.202 Y-29.161 E978.89028
G1 X22.959 Y47 E994.97516
G1 X24.373 Y47 E995.18633
G1 X-53.093 Y-30.466 E1011.54682
G1 X-53.064 Y-30.723 E1011.58545
G1 X-52.888 Y-31.675 E1011.73003
G1 X25.787 Y47 E1028.34586
G1 X27.201 Y47 E1028.55702
G1 X-52.597 Y-32.798 E1045.41003
G1 X-52.252 Y-33.812 E1045.56998
G1 X-52.236 Y-33.851 E1045.57628
G1 X28.615 Y47 E1062.65167
G1 X30.03 Y47 E1062.86298
G1 X-51.809 Y-34.839 E1080.14704
G1 X-51.355 Y-35.723 E1080.29545
G1 X-51.327 Y-35.771 E1080.30375
G1 X31.444 Y47 E1097.78464
G1 X32.858 Y47 E1097.9958
G1 X-50.789 Y-36.647 E1115.6617
G1 X-50.2 Y-37.472 E1115.81308
G1 X34.272 Y47 E1133.65321
G1 X34.581 Y47 E1133.69936
G1 X35.619 Y46.964 E1133.85446
G1 X35.647 Y46.961 E1133.85867
G1 X-49.558 Y-38.245 E1151.85372
G1 X-49.501 Y-38.314 E1151.86708
G1 X-48.87 Y-38.97 E1152.00301
G1 X36.908 Y46.807 E1170.11886
G1 X37.736 Y46.657 E1170.24453
G1 X38.081 Y46.567 E1170.29777
G1 X-48.13 Y-39.645 E1188.50528
G1 X-47.96 Y-39.798 E1188.53944
G1 X-47.344 Y-40.273 E1188.6556
G1 X39.177 Y46.248 E1206.92848
G1 X39.782 Y46.043 E1207.02387
G1 X40.206 Y45.863 E1207.09266
G1 X-46.548 Y-40.891 E1225.41475
G1 X-46.443 Y-41.048 E1225.44295
G1 X-45.936 Y-41.693 E1225.56547
G1 X41.176 Y45.418 E1243.96306
G1 X41.695 Y45.153 E1244.05008
G1 X42.086 Y44.914 E1244.11852
G1 X-45.273 Y-42.444 E1262.56827
G1 X-45.074 Y-42.661 E1262.61224
G1 X-44.561 Y-43.146 E1262.71767
G1 X42.944 Y44.358 E1281.19825
G1 X43.484 Y43.974 E1281.29721
G1 X43.751 Y43.751 E1281.34916
G1 X-43.802 Y-43.802 E1299.83999
G1 X-43.468 Y-44.075 E1299.90441
G1 X-42.993 Y-44.407 E1299.99095
G1 X44.51 Y43.096 E1318.47122
G1 X45.079 Y42.55 E1318.58899
G1 X45.221 Y42.393 E1318.6206
G1 X-42.134 Y-44.962 E1337.06961
G1 X-41.689 Y-45.229 E1337.14711
G1 X-41.222 Y-45.464 E1337.22519
G1 X45.884 Y41.641 E1355.62151
G1 X46.439 Y40.923 E1355.75703
G1 X46.495 Y40.838 E1355.77223
G1 X-40.252 Y-45.909 E1374.09283
G1 X-39.742 Y-46.121 E1374.17532
G1 X-39.221 Y-46.292 E1374.2572
G1 X47.24 Y40.169 E1392.51741
G1 X47.877 Y39.677 E1392.63761
G1 X48.028 Y39.542 E1392.66785
G1 X-38.122 Y-46.608 E1410.86238
G1 X-37.69 Y-46.717 E1410.92891
G1 X-36.947 Y-46.847 E1411.04156
G1 X48.767 Y38.868 E1429.1441
G1 X49.411 Y38.2 E1429.28267
G1 X49.458 Y38.144 E1429.29359
G1 X-35.681 Y-46.995 E1447.27459
G1 X-35.585 Y-47.004 E1447.28899
G1 X-34.654 Y-47.036 E1447.4281
G1 X-34.308 Y-47.036 E1447.47977
G1 X50.099 Y37.372 E1465.30629
G1 X50.689 Y36.547 E1465.45775
G1 X-32.893 Y-47.036 E1483.11003
G1 X-31.479 Y-47.036 E1483.32119
G1 X51.227 Y35.67 E1500.78836
G1 X51.265 Y35.606 E1500.79947
G1 X51.711 Y34.74 E1500.94494
G1 X-30.065 Y-47.036 E1518.21569
G1 X-28.651 Y-47.036 E1518.42686
G1 X52.139 Y33.754 E1535.48937
G1 X52.164 Y33.692 E1535.49935
G1 X52.501 Y32.702 E1535.65553
G1 X-27.237 Y-47.036 E1552.49586
G1 X-25.822 Y-47.036 E1552.70717
G1 X52.795 Y31.582 E1569.31086
G1 X52.974 Y30.607 E1569.4589
G1 X53 Y30.373 E1569.49406
G1 X-24.408 Y-47.036 E1585.84241
G1 X-22.994 Y-47.036 E1586.05358
G1 X53.112 Y29.07 E1602.12685
G1 X53.133 Y28.465 E1602.21725
G1 X53.133 Y27.677 E1602.33493
G1 X-21.58 Y-47.036 E1618.114
G1 X-20.165 Y-47.036 E1618.32532
G1 X53.133 Y26.263 E1633.80566
G1 X53.133 Y24.849 E1634.01682
G1 X-18.751 Y-47.036 E1649.19853
G1 X-17.337 Y-47.036 E1649.40969
G1 X53.133 Y23.434 E1664.29266
G1 X53.133 Y22.02 E1664.50382
G1 X-15.923 Y-47.036 E1679.08816
G1 X-14.509 Y-47.036 E1679.29933
G1 X53.133 Y20.606 E1693.58504
G1 X53.133 Y19.192 E1693.7962
G1 X-13.094 Y-47.036 E1707.78317
G1 X-11.68 Y-47.036 E1707.99434
G1 X53.133 Y17.778 E1721.68268
G1 X53.133 Y16.363 E1721.89399
G1 X-10.266 Y-47.036 E1735.2836
G1 X-8.852 Y-47.036 E1735.49476
G1 X53.133 Y14.949 E1748.58573
G1 X53.133 Y13.535 E1748.7969
G1 X-7.438 Y-47.036 E1761.58924
G1 X-6.023 Y-47.036 E1761.80055
G1 X53.133 Y12.121 E1774.29416
G1 X53.133 Y10.707 E1774.50532
G1 X-4.609 Y-47.036 E1786.7003
G1 X-3.195 Y-47.036 E1786.91146
G1 X53.133 Y9.292 E1798.8077
G1 X53.133 Y7.878 E1799.01887
G1 X-1.781 Y-47.036 E1810.61647
G1 X-.366 Y-47.036 E1810.82779
G1 X53.133 Y6.464 E1822.12666
G1 X53.133 Y5.05 E1822.33782
G1 X1.047 Y-47.036 E1833.33817
G1 X2.461 Y-47.036 E1833.54933
G1 X53.133 Y3.635 E1844.25094
G1 X53.133 Y2.221 E1844.46211
G1 X3.875 Y-47.036 E1854.86509
G1 X5.289 Y-47.036 E1855.07625
G1 X53.133 Y0.807 E1865.1806
G1 X53.133 Y-.606 E1865.39161
G1 X6.704 Y-47.036 E1875.19733
G1 X8.118 Y-47.036 E1875.40849
G1 X53.133 Y-2.02 E1884.91558
G1 X53.133 Y-3.435 E1885.12689
G1 X9.532 Y-47.036 E1894.33524
G1 X10.946 Y-47.036 E1894.54641
G1 X53.133 Y-4.849 E1903.45612
G1 X53.133 Y-6.263 E1903.66729
G1 X12.36 Y-47.036 E1912.27838
G1 X13.775 Y-47.036 E1912.48969
G1 X53.133 Y-7.677 E1920.80204
G1 X53.133 Y-9.091 E1921.0132
G1 X15.189 Y-47.036 E1929.02692
G1 X16.603 Y-47.036 E1929.23809
G1 X53.133 Y-10.506 E1936.95307
G1 X53.133 Y-11.92 E1937.16424
G1 X18.017 Y-47.036 E1944.58059
G1 X19.432 Y-47.036 E1944.7919
G1 X53.133 Y-13.334 E1951.90952
G1 X53.133 Y-14.748 E1952.12068
G1 X20.846 Y-47.036 E1958.93967
G1 X22.26 Y-47.036 E1959.15083
G1 X53.133 Y-16.163 E1965.67108
G1 X53.133 Y-17.577 E1965.88225
G1 X23.674 Y-47.036 E1972.10386
G1 X25.088 Y-47.036 E1972.31503
G1 X53.133 Y-18.991 E1978.23801
G1 X53.133 Y-20.405 E1978.44918
G1 X26.503 Y-47.036 E1984.07343
G1 X27.917 Y-47.036 E1984.28459
G1 X53.133 Y-21.819 E1989.61021
G1 X53.133 Y-23.234 E1989.82153
G1 X29.331 Y-47.036 E1994.84841
G1 X30.745 Y-47.036 E1995.05957
G1 X53.133 Y-24.648 E1999.78783
G1 X53.133 Y-26.062 E1999.99899
G1 X32.159 Y-47.036 E2004.42861
G1 X33.574 Y-47.036 E2004.63992
G1 X53.133 Y-27.476 E2008.77081
G1 X53.133 Y-28.479 E2008.9206
G1 X53.12 Y-28.903 E2008.98394
G1 X35.003 Y-47.02 E2012.81018
G1 X35.636 Y-46.997 E2012.90477
G1 X36.541 Y-46.896 E2013.04076
G1 X53.002 Y-30.435 E2016.51726
G1 X52.999 Y-30.46 E2016.52102
G1 X52.82 Y-31.5 E2016.67861
G1 X52.644 Y-32.208 E2016.78756
G1 X38.311 Y-46.541 E2019.81463
G1 X38.769 Y-46.42 E2019.88537
G1 X39.809 Y-46.067 E2020.04939
G1 X40.488 Y-45.778 E2020.15959
G1 X51.89 Y-34.376 E2022.56765
G0 F3000 X0.331 Y47
G1 F1350 X-53.223 Y-6.554 E2033.87803
G1 X-53.223 Y-5.139 E2034.08934
G1 X-1.082 Y47 E2045.10109
G1 X-2.496 Y47 E2045.31226
G1 X-53.223 Y-3.725 E2056.02538
G1 X-53.223 Y-2.311 E2056.23654
G1 X-3.911 Y47 E2066.65092
G1 X-5.325 Y47 E2066.86209
G1 X-53.223 Y-.897 E2076.97784
G1 X-53.223 Y0.516 E2077.18886
G1 X-6.739 Y47 E2087.00608
G1 X-8.153 Y47 E2087.21725
G1 X-53.223 Y1.931 E2096.73574
G1 X-53.223 Y3.345 E2096.9469
G1 X-9.567 Y47 E2106.16676
G1 X-10.982 Y47 E2106.37807
G1 X-53.223 Y4.759 E2115.2992
G1 X-53.223 Y6.173 E2115.51036
G1 X-12.396 Y47 E2124.13285
G1 X-13.81 Y47 E2124.34402
G1 X-53.223 Y7.587 E2132.66788
G1 X-53.223 Y9.002 E2132.87919
G1 X-15.224 Y47 E2140.90432
G1 X-16.638 Y47 E2141.11548
G1 X-53.223 Y10.416 E2148.84197
G1 X-53.223 Y11.83 E2149.05314
G1 X-18.053 Y47 E2156.4809
G1 X-19.467 Y47 E2156.69206
G1 X-53.223 Y13.244 E2163.82119
G1 X-53.223 Y14.659 E2164.0325
G1 X-20.881 Y47 E2170.86289
G1 X-22.295 Y47 E2171.07405
G1 X-53.223 Y16.073 E2177.60581
G1 X-53.223 Y17.487 E2177.81698
G1 X-23.709 Y47 E2184.05011
G1 X-25.124 Y47 E2184.26142
G1 X-53.223 Y18.901 E2190.19581
G1 X-53.223 Y20.315 E2190.40697
G1 X-26.538 Y47 E2196.04274
G1 X-27.952 Y47 E2196.2539
G1 X-53.223 Y21.73 E2201.59092
G1 X-53.223 Y23.144 E2201.80209
G1 X-29.366 Y47 E2206.84048
G1 X-30.781 Y47 E2207.05179
G1 X-53.223 Y24.558 E2211.79145
G1 X-53.223 Y25.972 E2212.00261
G1 X-32.195 Y47 E2216.44364
G1 X-33.609 Y47 E2216.6548
G1 X-53.223 Y27.386 E2220.7972
