;FLAVOR:Marlin
;TIME:670
;Filament used: 1.0874m
;Layer height: 0.3
;Generated with Cura_SteamEngine 1.2.2
M190 S35
M104 S220
M109 S220
G28
G1 Z50.00 F400
G92 E0
G1 F200 E3
G92 E0
M132 X Y Z A
M907 X100 Y100 Z50 A100
;LAYER_COUNT:33
;LAYER:0
M107
G0 F3000 X17.995 Y8.5 Z0.3
;TYPE:SKIRT
G1 F1500 X-18.417 Y8.456 E1.8166
G1 X-18.822 Y8.37 E1.83726
G1 X-19.582 Y8.032 E1.87876
G1 X-19.919 Y7.787 E1.89954
G1 X-20.475 Y7.169 E1.94102
G1 X-20.665 Y6.86 E1.95911
G1 X-20.889 Y6.279 E1.99018
G1 X-20.956 Y5.919 E2.00845
G1 X-20.958 Y-5.91 E2.5986
G1 X-20.872 Y-6.315 E2.61926
G1 X-20.533 Y-7.08 E2.661
G1 X-20.288 Y-7.418 E2.68183
G1 X-19.67 Y-7.974 E2.7233
G1 X-19.311 Y-8.182 E2.744
G1 X-18.523 Y-8.439 E2.78535
G1 X-18.213 Y-8.488 E2.80101
G1 X18.203 Y-8.489 E4.61781
G1 X18.508 Y-8.441 E4.63322
G1 X19.297 Y-8.188 E4.67455
G1 X19.657 Y-7.983 E4.69522
G1 X20.277 Y-7.431 E4.73664
G1 X20.504 Y-7.137 E4.75517
G1 X20.8 Y-6.554 E4.78779
G1 X20.887 Y-6.303 E4.80104
G1 X20.967 Y-5.915 E4.82081
G1 X20.988 Y-5.713 E4.83094
G1 X20.988 Y5.712 E5.40093
G1 X20.966 Y5.919 E5.41132
G1 X20.882 Y6.317 E5.43161
G1 X20.771 Y6.608 E5.44715
G1 X20.354 Y7.335 E5.48897
G1 X20.077 Y7.644 E5.50967
G1 X19.414 Y8.129 E5.55065
G1 X19.034 Y8.3 E5.57144
G1 X18.206 Y8.478 E5.61369
G1 X17.995 Y8.5 E5.62428
G0 F3000 X17.995 Y8.1
G1 F1500 X-18.417 Y8.056 E7.44088
G1 X-18.66 Y8.004 E7.45328
G1 X-19.42 Y7.666 E7.49478
G1 X-19.622 Y7.519 E7.50724
G1 X-20.178 Y6.901 E7.54871
G1 X-20.292 Y6.716 E7.55956
G1 X-20.516 Y6.135 E7.59062
G1 X-20.556 Y5.919 E7.60158
G1 X-20.558 Y-5.91 E8.19173
G1 X-20.507 Y-6.153 E8.20412
G1 X-20.168 Y-6.918 E8.24586
G1 X-20.02 Y-7.121 E8.2584
G1 X-19.402 Y-7.677 E8.29987
G1 X-19.187 Y-7.801 E8.31225
G1 X-18.399 Y-8.058 E8.35361
G1 X-18.213 Y-8.088 E8.36301
G1 X18.203 Y-8.089 E10.17981
G1 X18.386 Y-8.06 E10.18905
G1 X19.175 Y-7.807 E10.23039
G1 X19.391 Y-7.684 E10.24279
G1 X20.011 Y-7.132 E10.2842
G1 X20.147 Y-6.956 E10.2953
G1 X20.443 Y-6.373 E10.32792
G1 X20.496 Y-6.222 E10.33591
G1 X20.576 Y-5.834 E10.35567
G1 X20.588 Y-5.713 E10.36174
G1 X20.588 Y5.712 E10.93173
G1 X20.575 Y5.836 E10.93795
G1 X20.491 Y6.234 E10.95825
G1 X20.424 Y6.409 E10.96759
G1 X20.007 Y7.136 E11.00941
G1 X19.841 Y7.321 E11.02181
G1 X19.178 Y7.806 E11.06279
G1 X18.95 Y7.909 E11.07527
G1 X18.122 Y8.087 E11.11753
G1 X17.995 Y8.1 E11.1239
G0 F3000 X17.996 Y7.7
G1 F1500 X-18.416 Y7.656 E12.9405
G1 X-18.497 Y7.639 E12.94463
G1 X-19.257 Y7.301 E12.98612
G1 X-19.325 Y7.252 E12.99031
G1 X-19.881 Y6.634 E13.03178
G1 X-19.919 Y6.572 E13.03541
G1 X-20.143 Y5.991 E13.06647
G1 X-20.156 Y5.919 E13.07012
G1 X-20.158 Y-5.91 E13.66028
G1 X-20.141 Y-5.991 E13.6644
G1 X-19.802 Y-6.756 E13.70615
G1 X-19.753 Y-6.824 E13.71033
G1 X-19.135 Y-7.38 E13.75181
G1 X-19.063 Y-7.421 E13.75594
G1 X-18.275 Y-7.678 E13.79729
G1 X-18.213 Y-7.688 E13.80042
G1 X18.203 Y-7.689 E15.61723
G1 X18.264 Y-7.679 E15.62031
G1 X19.053 Y-7.426 E15.66165
G1 X19.125 Y-7.385 E15.66578
G1 X19.745 Y-6.833 E15.7072
G1 X19.79 Y-6.775 E15.71086
G1 X20.086 Y-6.192 E15.74348
G1 X20.104 Y-6.141 E15.74618
G1 X20.184 Y-5.753 E15.76594
G1 X20.188 Y-5.713 E15.76795
G1 X20.188 Y5.712 E16.33794
G1 X20.184 Y5.753 E16.34
G1 X20.1 Y6.151 E16.36029
G1 X20.077 Y6.21 E16.36345
G1 X19.66 Y6.937 E16.40526
G1 X19.605 Y6.998 E16.40936
G1 X18.942 Y7.483 E16.45034
G1 X18.866 Y7.518 E16.45452
G1 X18.038 Y7.696 E16.49677
G1 X17.996 Y7.7 E16.49888
G0 F3000 X17.989 Y7.3
;TYPE:WALL-OUTER
G1 F1500 X-17.989 Y7.3 E18.29383
G1 X-18.187 Y7.29 E18.30372
G1 X-18.379 Y7.259 E18.31342
G1 X-18.552 Y7.213 E18.32235
G1 X-18.736 Y7.142 E18.33219
G1 X-18.897 Y7.06 E18.3412
G1 X-19.062 Y6.953 E18.35102
G1 X-19.207 Y6.835 E18.36034
G1 X-19.335 Y6.707 E18.36937
G1 X-19.453 Y6.562 E18.3787
G1 X-19.56 Y6.397 E18.38851
G1 X-19.642 Y6.236 E18.39753
G1 X-19.716 Y6.044 E18.40779
G1 X-19.758 Y5.882 E18.41614
G1 X-19.789 Y5.687 E18.42599
G1 X-19.8 Y5.383 E18.44117
G1 X-19.8 Y-5.49 E18.98362
G1 X-19.789 Y-5.696 E18.99392
G1 X-19.761 Y-5.872 E19.00281
G1 X-19.709 Y-6.065 E19.01278
G1 X-19.642 Y-6.236 E19.02194
G1 X-19.56 Y-6.397 E19.03096
G1 X-19.453 Y-6.562 E19.04077
G1 X-19.335 Y-6.707 E19.05009
G1 X-19.207 Y-6.835 E19.05913
G1 X-19.062 Y-6.953 E19.06845
G1 X-18.897 Y-7.06 E19.07826
G1 X-18.736 Y-7.142 E19.08728
G1 X-18.552 Y-7.213 E19.09712
G1 X-18.379 Y-7.259 E19.10605
G1 X-18.187 Y-7.29 E19.11575
G1 X-17.989 Y-7.3 E19.12564
G1 X17.989 Y-7.3 E20.92059
G1 X18.187 Y-7.29 E20.93048
G1 X18.379 Y-7.259 E20.94019
G1 X18.552 Y-7.213 E20.94912
G1 X18.736 Y-7.142 E20.95896
G1 X18.897 Y-7.06 E20.96797
G1 X19.062 Y-6.953 E20.97778
G1 X19.207 Y-6.835 E20.98711
G1 X19.335 Y-6.707 E20.99614
G1 X19.453 Y-6.562 E21.00547
G1 X19.56 Y-6.397 E21.01528
G1 X19.642 Y-6.236 E21.02429
G1 X19.716 Y-6.044 E21.03456
G1 X19.758 Y-5.885 E21.04276
G1 X19.789 Y-5.687 E21.05276
G1 X19.8 Y-5.383 E21.06794
G1 X19.8 Y5.49 E21.61039
G1 X19.789 Y5.696 E21.62068
G1 X19.76 Y5.874 E21.62968
G1 X19.712 Y6.053 E21.63893
G1 X19.639 Y6.241 E21.64899
G1 X19.564 Y6.391 E21.65736
G1 X19.453 Y6.562 E21.66753
G1 X19.335 Y6.707 E21.67685
G1 X19.207 Y6.835 E21.68589
G1 X19.062 Y6.953 E21.69521
G1 X18.897 Y7.06 E21.70502
G1 X18.736 Y7.142 E21.71404
G1 X18.552 Y7.213 E21.72388
G1 X18.379 Y7.259 E21.73281
G1 X18.187 Y7.29 E21.74251
G1 X17.989 Y7.3 E21.7524
G0 F3000 X17.789 Y7.3
G0 X17.989 Y6.9
;TYPE:WALL-INNER
G1 F1500 X-17.989 Y6.9 E23.54735
G1 X-18.139 Y6.892 E23.55485
G1 X-18.292 Y6.868 E23.56257
G1 X-18.434 Y6.83 E23.56991
G1 X-18.573 Y6.776 E23.57735
G1 X-18.691 Y6.716 E23.58395
G1 X-18.834 Y6.624 E23.59243
G1 X-18.934 Y6.542 E23.59889
G1 X-19.042 Y6.434 E23.60651
G1 X-19.124 Y6.334 E23.61296
G1 X-19.216 Y6.191 E23.62144
G1 X-19.276 Y6.073 E23.62804
G1 X-19.335 Y5.921 E23.63618
G1 X-19.366 Y5.803 E23.64227
G1 X-19.39 Y5.65 E23.64999
G1 X-19.4 Y5.369 E23.66402
G1 X-19.4 Y-5.49 E24.20578
G1 X-19.391 Y-5.65 E24.21377
G1 X-19.369 Y-5.79 E24.22084
G1 X-19.328 Y-5.942 E24.2287
G1 X-19.278 Y-6.07 E24.23555
G1 X-19.216 Y-6.191 E24.24234
G1 X-19.124 Y-6.334 E24.25082
G1 X-19.042 Y-6.434 E24.25727
G1 X-18.934 Y-6.542 E24.26489
G1 X-18.834 Y-6.624 E24.27134
G1 X-18.691 Y-6.716 E24.27983
G1 X-18.573 Y-6.776 E24.28643
G1 X-18.434 Y-6.83 E24.29387
G1 X-18.292 Y-6.868 E24.3012
G1 X-18.139 Y-6.892 E24.30893
G1 X-17.989 Y-6.9 E24.31643
G1 X17.989 Y-6.9 E26.11138
G1 X18.139 Y-6.892 E26.11887
G1 X18.292 Y-6.868 E26.1266
G1 X18.434 Y-6.83 E26.13393
G1 X18.573 Y-6.776 E26.14137
G1 X18.691 Y-6.716 E26.14797
G1 X18.834 Y-6.624 E26.15646
G1 X18.934 Y-6.542 E26.16291
G1 X19.042 Y-6.434 E26.17053
G1 X19.124 Y-6.334 E26.17698
G1 X19.216 Y-6.191 E26.18546
G1 X19.276 Y-6.073 E26.19207
G1 X19.334 Y-5.924 E26.20005
G1 X19.367 Y-5.799 E26.2065
G1 X19.39 Y-5.652 E26.21392
G1 X19.4 Y-5.369 E26.22805
G1 X19.4 Y5.49 E26.7698
G1 X19.391 Y5.648 E26.7777
G1 X19.368 Y5.794 E26.78507
G1 X19.333 Y5.925 E26.79184
G1 X19.273 Y6.078 E26.80004
G1 X19.217 Y6.19 E26.80628
G1 X19.124 Y6.334 E26.81484
G1 X19.042 Y6.434 E26.82129
G1 X18.934 Y6.542 E26.82891
G1 X18.834 Y6.624 E26.83536
G1 X18.691 Y6.716 E26.84384
G1 X18.573 Y6.776 E26.85045
G1 X18.434 Y6.83 E26.85789
G1 X18.292 Y6.868 E26.86522
G1 X18.139 Y6.892 E26.87295
G1 X17.989 Y6.9 E26.88044
G0 F3000 X17.987 Y6.801
G0 X18.807 Y-6.387
G0 X18.164 Y-6.725
;TYPE:SKIN
G1 F1500 X19.225 Y-5.664 E26.9553
G1 X19.295 Y-5.594
G0 F3000 X19.238 Y-5.085
G1 F1500 X17.585 Y-6.739 E27.07196
G1 X17.515 Y-6.809
G0 F3000 X17.019 Y-6.739
G1 F1500 X19.238 Y-4.519 E27.22856
G1 X19.308 Y-4.449
G0 F3000 X19.238 Y-3.954
G1 F1500 X16.453 Y-6.739 E27.42506
G1 X16.383 Y-6.809
G0 F3000 X15.887 Y-6.739
G1 F1500 X19.238 Y-3.388 E27.66149
G1 X19.308 Y-3.318
G0 F3000 X19.238 Y-2.822
G1 F1500 X15.322 Y-6.739 E27.93782
G1 X15.252 Y-6.809
G0 F3000 X14.756 Y-6.739
G1 F1500 X19.238 Y-2.257 E28.25405
G1 X19.308 Y-2.187
G0 F3000 X19.238 Y-1.691
G1 F1500 X14.19 Y-6.739 E28.61021
G1 X14.12 Y-6.809
G0 F3000 X13.625 Y-6.739
G1 F1500 X19.238 Y-1.125 E29.00628
G1 X19.308 Y-1.055
G0 F3000 X19.238 Y-.56
G1 F1500 X13.059 Y-6.739 E29.44224
G1 X12.989 Y-6.809
G0 F3000 X12.493 Y-6.739
G1 F1500 X19.238 Y0.005 E29.9181
G1 X19.308 Y0.075
G0 F3000 X19.238 Y0.571
G1 F1500 X11.928 Y-6.739 E30.43386
G1 X11.858 Y-6.809
G0 F3000 X11.362 Y-6.739
G1 F1500 X19.238 Y1.137 E30.98955
G1 X19.308 Y1.207
G0 F3000 X19.238 Y1.702
G1 F1500 X10.796 Y-6.739 E31.58515
G1 X10.726 Y-6.809
G0 F3000 X10.231 Y-6.739
G1 F1500 X19.238 Y2.268 E32.22064
G1 X19.308 Y2.338
G0 F3000 X19.238 Y2.834
G1 F1500 X9.665 Y-6.739 E32.89607
G1 X9.595 Y-6.809
G0 F3000 X9.099 Y-6.739
G1 F1500 X19.238 Y3.399 E33.61139
G1 X19.308 Y3.469
G0 F3000 X19.238 Y3.965
G1 F1500 X8.534 Y-6.739 E34.36662
G1 X8.464 Y-6.809
G0 F3000 X7.968 Y-6.739
G1 F1500 X19.238 Y4.531 E35.16178
G1 X19.308 Y4.601
G0 F3000 X19.238 Y5.096
G1 F1500 X7.402 Y-6.739 E35.99683
G1 X7.332 Y-6.809
G0 F3000 X6.837 Y-6.739
G1 F1500 X19.228 Y5.651 E36.87105
G1 X19.298 Y5.721
G0 F3000 X19.092 Y6.081
G1 F1500 X6.271 Y-6.739 E37.77561
G1 X6.201 Y-6.809
G0 F3000 X5.705 Y-6.739
G1 F1500 X18.847 Y6.402 E38.70281
G1 X18.917 Y6.472
G0 F3000 X18.508 Y6.629
G1 F1500 X5.139 Y-6.739 E39.64603
G1 X5.069 Y-6.809
G0 F3000 X4.574 Y-6.739
G1 F1500 X18.049 Y6.735 E40.59673
G1 X18.119 Y6.805
G0 F3000 X17.487 Y6.739
G1 F1500 X4.008 Y-6.739 E41.54771
G1 X3.938 Y-6.809
G0 F3000 X3.442 Y-6.739
G1 F1500 X16.921 Y6.739 E42.49869
G1 X16.991 Y6.809
G0 F3000 X16.356 Y6.739
G1 F1500 X2.877 Y-6.739 E43.44967
G1 X2.807 Y-6.809
G0 F3000 X2.311 Y-6.739
G1 F1500 X15.79 Y6.739 E44.40065
G1 X15.86 Y6.809
G0 F3000 X15.224 Y6.739
G1 F1500 X1.745 Y-6.739 E45.35163
G1 X1.675 Y-6.809
G0 F3000 X1.18 Y-6.739
G1 F1500 X14.659 Y6.739 E46.30262
G1 X14.729 Y6.809
G0 F3000 X14.093 Y6.739
G1 F1500 X0.614 Y-6.739 E47.2536
G1 X0.544 Y-6.809
G0 F3000 X0.048 Y-6.739
G1 F1500 X13.527 Y6.739 E48.20458
G1 X13.597 Y6.809
G0 F3000 X12.961 Y6.739
G1 F1500 X-.516 Y-6.739 E49.15549
G1 X-.586 Y-6.809
G0 F3000 X-1.082 Y-6.739
G1 F1500 X12.396 Y6.739 E50.10643
G1 X12.466 Y6.809
G0 F3000 X11.83 Y6.739
G1 F1500 X-1.648 Y-6.739 E51.05738
G1 X-1.718 Y-6.809
G0 F3000 X-2.213 Y-6.739
G1 F1500 X11.264 Y6.739 E52.00829
G1 X11.334 Y6.809
G0 F3000 X10.699 Y6.739
G1 F1500 X-2.779 Y-6.739 E52.95923
G1 X-2.849 Y-6.809
G0 F3000 X-3.345 Y-6.739
G1 F1500 X10.133 Y6.739 E53.91018
G1 X10.203 Y6.809
G0 F3000 X9.567 Y6.739
G1 F1500 X-3.911 Y-6.739 E54.86113
G1 X-3.981 Y-6.809
G0 F3000 X-4.476 Y-6.739
G1 F1500 X9.002 Y6.739 E55.81207
G1 X9.072 Y6.809
G0 F3000 X8.436 Y6.739
G1 F1500 X-5.042 Y-6.739 E56.76302
G1 X-5.112 Y-6.809
G0 F3000 X-5.608 Y-6.739
G1 F1500 X7.87 Y6.739 E57.71396
G1 X7.94 Y6.809
G0 F3000 X7.305 Y6.739
G1 F1500 X-6.173 Y-6.739 E58.66491
G1 X-6.243 Y-6.809
G0 F3000 X-6.739 Y-6.739
G1 F1500 X6.739 Y6.739 E59.61585
G1 X6.809 Y6.809
G0 F3000 X6.173 Y6.739
G1 F1500 X-7.305 Y-6.739 E60.5668
G1 X-7.375 Y-6.809
G0 F3000 X-7.87 Y-6.739
G1 F1500 X5.608 Y6.739 E61.51775
G1 X5.678 Y6.809
G0 F3000 X5.042 Y6.739
G1 F1500 X-8.436 Y-6.739 E62.46869
G1 X-8.506 Y-6.809
G0 F3000 X-9.002 Y-6.739
G1 F1500 X4.476 Y6.739 E63.41964
G1 X4.546 Y6.809
G0 F3000 X3.911 Y6.739
G1 F1500 X-9.567 Y-6.739 E64.37058
G1 X-9.637 Y-6.809
G0 F3000 X-10.133 Y-6.739
G1 F1500 X3.345 Y6.739 E65.32153
G1 X3.415 Y6.809
G0 F3000 X2.779 Y6.739
G1 F1500 X-10.699 Y-6.739 E66.27247
G1 X-10.769 Y-6.809
G0 F3000 X-11.264 Y-6.739
G1 F1500 X2.213 Y6.739 E67.22339
G1 X2.283 Y6.809
G0 F3000 X1.648 Y6.739
G1 F1500 X-11.83 Y-6.739 E68.17433
G1 X-11.9 Y-6.809
G0 F3000 X-12.396 Y-6.739
G1 F1500 X1.082 Y6.739 E69.12528
G1 X1.152 Y6.809
G0 F3000 X0.516 Y6.739
G1 F1500 X-12.961 Y-6.739 E70.07619
G1 X-13.031 Y-6.809
G0 F3000 X-13.527 Y-6.739
G1 F1500 X-0.048 Y6.739 E71.02717
G1 X0.022 Y6.809
G0 F3000 X-.614 Y6.739
G1 F1500 X-14.093 Y-6.739 E71.97815
G1 X-14.163 Y-6.809
G0 F3000 X-14.659 Y-6.739
G1 F1500 X-1.18 Y6.739 E72.92913
G1 X-1.11 Y6.809
G0 F3000 X-1.745 Y6.739
G1 F1500 X-15.224 Y-6.739 E73.88011
G1 X-15.294 Y-6.809
G0 F3000 X-15.79 Y-6.739
G1 F1500 X-2.311 Y6.739 E74.83109
G1 X-2.241 Y6.809
G0 F3000 X-2.877 Y6.739
G1 F1500 X-16.356 Y-6.739 E75.78207
G1 X-16.426 Y-6.809
G0 F3000 X-16.921 Y-6.739
G1 F1500 X-3.442 Y6.739 E76.73305
G1 X-3.372 Y6.809
G0 F3000 X-4.008 Y6.739
G1 F1500 X-17.487 Y-6.739 E77.68403
G1 X-17.557 Y-6.809
G0 F3000 X-18.049 Y-6.735
G1 F1500 X-4.574 Y6.739 E78.63473
G1 X-4.504 Y6.809
G0 F3000 X-5.139 Y6.739
G1 F1500 X-18.508 Y-6.629 E79.57795
G1 X-18.578 Y-6.699
G0 F3000 X-18.847 Y-6.402
G1 F1500 X-5.705 Y6.739 E80.50516
G1 X-5.635 Y6.809
G0 F3000 X-6.271 Y6.739
G1 F1500 X-19.092 Y-6.081 E81.40971
G1 X-19.162 Y-6.151
G0 F3000 X-19.228 Y-5.651
G1 F1500 X-6.837 Y6.739 E82.28393
G1 X-6.767 Y6.809
G0 F3000 X-7.402 Y6.739
G1 F1500 X-19.238 Y-5.096 E83.11899
G1 X-19.308 Y-5.166
G0 F3000 X-19.238 Y-4.531
G1 F1500 X-7.968 Y6.739 E83.91415
G1 X-7.898 Y6.809
G0 F3000 X-8.534 Y6.739
G1 F1500 X-19.238 Y-3.965 E84.66937
G1 X-19.308 Y-4.035
G0 F3000 X-19.238 Y-3.399
G1 F1500 X-9.099 Y6.739 E85.3847
G1 X-9.029 Y6.809
G0 F3000 X-9.665 Y6.739
G1 F1500 X-19.238 Y-2.834 E86.06013
G1 X-19.308 Y-2.904
G0 F3000 X-19.238 Y-2.268
G1 F1500 X-10.231 Y6.739 E86.69562
G1 X-10.161 Y6.809
G0 F3000 X-10.796 Y6.739
G1 F1500 X-19.238 Y-1.702 E87.29121
G1 X-19.308 Y-1.772
G0 F3000 X-19.238 Y-1.137
G1 F1500 X-11.362 Y6.739 E87.84691
G1 X-11.292 Y6.809
G0 F3000 X-11.928 Y6.739
G1 F1500 X-19.238 Y-.571 E88.36267
G1 X-19.308 Y-.641
G0 F3000 X-19.238 Y-0.005
G1 F1500 X-12.493 Y6.739 E88.83853
G1 X-12.423 Y6.809
G0 F3000 X-13.059 Y6.739
G1 F1500 X-19.238 Y0.56 E89.27449
G1 X-19.308 Y0.49
G0 F3000 X-19.238 Y1.125
G1 F1500 X-13.625 Y6.739 E89.67055
G1 X-13.555 Y6.809
G0 F3000 X-14.19 Y6.739
G1 F1500 X-19.238 Y1.691 E90.02671
G1 X-19.308 Y1.621
G0 F3000 X-19.238 Y2.257
G1 F1500 X-14.756 Y6.739 E90.34294
G1 X-14.686 Y6.809
G0 F3000 X-15.322 Y6.739
G1 F1500 X-19.238 Y2.822 E90.61927
G1 X-19.308 Y2.752
G0 F3000 X-19.238 Y3.388
G1 F1500 X-15.887 Y6.739 E90.85571
G1 X-15.817 Y6.809
G0 F3000 X-16.453 Y6.739
G1 F1500 X-19.238 Y3.954 E91.0522
G1 X-19.308 Y3.884
G0 F3000 X-19.238 Y4.519
G1 F1500 X-17.019 Y6.739 E91.2088
G1 X-16.949 Y6.809
G0 F3000 X-17.585 Y6.739
G1 F1500 X-19.238 Y5.085 E91.32546
G1 X-19.308 Y5.015
G0 F3000 X-19.224 Y5.665
G1 F1500 X-18.164 Y6.725 E91.40025
G1 X-18.094 Y6.795
G0 F3000 X-18.078 Y6.495
G0 X17.987 Y6.801
G0 X17.989 Y6.9
;TIME_ELAPSED:76.824382
;LAYER:1
M140 S35
M106 S255
G0 F5100 X17.989 Y6.9 Z0.6
;TYPE:WALL-INNER
G1 F2550 X-17.989 Y6.9 E93.1952
G1 X-18.139 Y6.892 E93.2027
G1 X-18.292 Y6.868 E93.21042
G1 X-18.434 Y6.83 E93.21776
G1 X-18.573 Y6.776 E93.2252
G1 X-18.691 Y6.716 E93.2318
G1 X-18.834 Y6.624 E93.24028
G1 X-18.934 Y6.542 E93.24673
G1 X-19.042 Y6.434 E93.25435
G1 X-19.124 Y6.334 E93.26081
G1 X-19.214 Y6.194 E93.26911
G1 X-19.28 Y6.066 E93.2763
G1 X-19.335 Y5.92 E93.28408
G1 X-19.366 Y5.8 E93.29026
G1 X-19.392 Y5.636 E93.29855
G1 X-19.4 Y5.493 E93.30569
G1 X-19.399 Y-5.499 E93.85408
G1 X-19.391 Y-5.654 E93.86183
G1 X-19.367 Y-5.795 E93.86896
G1 X-19.33 Y-5.931 E93.876
G1 X-19.264 Y-6.097 E93.88491
G1 X-19.22 Y-6.186 E93.88986
G1 X-19.124 Y-6.334 E93.89866
G1 X-19.042 Y-6.434 E93.90511
G1 X-18.934 Y-6.542 E93.91273
G1 X-18.834 Y-6.624 E93.91919
G1 X-18.691 Y-6.716 E93.92767
G1 X-18.573 Y-6.776 E93.93427
G1 X-18.434 Y-6.83 E93.94171
G1 X-18.292 Y-6.868 E93.94905
G1 X-18.139 Y-6.892 E93.95677
G1 X-17.989 Y-6.9 E93.96427
G1 X17.989 Y-6.9 E95.75922
G1 X18.139 Y-6.892 E95.76671
G1 X18.292 Y-6.868 E95.77444
G1 X18.434 Y-6.83 E95.78177
G1 X18.573 Y-6.776 E95.78921
G1 X18.691 Y-6.716 E95.79582
G1 X18.834 Y-6.624 E95.8043
G1 X18.934 Y-6.542 E95.81075
G1 X19.042 Y-6.434 E95.81837
G1 X19.124 Y-6.334 E95.82482
G1 X19.214 Y-6.194 E95.83313
G1 X19.279 Y-6.069 E95.84016
G1 X19.332 Y-5.928 E95.84767
G1 X19.367 Y-5.797 E95.85443
G1 X19.392 Y-5.639 E95.86242
G1 X19.4 Y-5.493 E95.86971
G1 X19.399 Y5.499 E96.4181
G1 X19.39 Y5.65 E96.42565
G1 X19.367 Y5.795 E96.43298
G1 X19.327 Y5.946 E96.44077
G1 X19.286 Y6.051 E96.44639
G1 X19.214 Y6.195 E96.45442
G1 X19.124 Y6.334 E96.46269
G1 X19.042 Y6.434 E96.46914
G1 X18.934 Y6.542 E96.47676
G1 X18.834 Y6.624 E96.48321
G1 X18.691 Y6.716 E96.49169
G1 X18.573 Y6.776 E96.4983
G1 X18.434 Y6.83 E96.50574
G1 X18.292 Y6.868 E96.51307
