;FLAVOR:Marlin
;TIME:13410
;Filament used: 14.5178m
;Layer height: 0.2
;Generated with Cura_SteamEngine 1.2.2
M190 S35
M104 S220
M109 S220
G28
G1 Z50.00 F400
G92 E0
G1 F200 E3
G92 E0
M132 X Y Z A
M907 X100 Y100 Z50 A100
;LAYER_COUNT:103
;LAYER:0
M107
G0 F3000 X66.696 Y-40.75 Z0.3
;TYPE:SKIRT
G1 F1500 X66.975 Y-40.71 E0.01406
G1 X67.232 Y-40.594 E0.02813
G1 X67.403 Y-40.457 E0.03906
G1 X67.52 Y-40.34 E0.04732
G1 X67.689 Y-40.114 E0.06139
G1 X67.789 Y-39.85 E0.07548
G1 X67.813 Y-39.633 E0.08637
G1 X67.813 Y39.693 E4.04396
G1 X67.773 Y39.972 E4.05802
G1 X67.657 Y40.229 E4.07209
G1 X67.52 Y40.4 E4.08302
G1 X67.403 Y40.517 E4.09128
G1 X67.177 Y40.686 E4.10536
G1 X66.913 Y40.786 E4.11944
G1 X66.696 Y40.81 E4.13033
G1 X-66.721 Y40.81 E10.78653
G1 X-67 Y40.77 E10.8006
G1 X-67.257 Y40.654 E10.81466
G1 X-67.428 Y40.517 E10.82559
G1 X-67.545 Y40.4 E10.83385
G1 X-67.714 Y40.174 E10.84793
G1 X-67.814 Y39.91 E10.86201
G1 X-67.838 Y39.693 E10.8729
G1 X-67.838 Y-39.633 E14.83049
G1 X-67.798 Y-39.912 E14.84456
G1 X-67.682 Y-40.169 E14.85862
G1 X-67.545 Y-40.34 E14.86956
G1 X-67.428 Y-40.457 E14.87781
G1 X-67.202 Y-40.626 E14.89189
G1 X-66.938 Y-40.726 E14.90597
G1 X-66.721 Y-40.75 E14.91687
G1 X66.696 Y-40.75 E21.57307
G0 F3000 X66.696 Y-40.35
G1 F1500 X66.911 Y-40.31 E21.58398
G1 X67.12 Y-40.174 E21.59642
G1 X67.237 Y-40.057 E21.60467
G1 X67.361 Y-39.878 E21.61554
G1 X67.413 Y-39.633 E21.62803
G1 X67.413 Y39.693 E25.58562
G1 X67.373 Y39.908 E25.59653
G1 X67.237 Y40.117 E25.60897
G1 X67.12 Y40.234 E25.61723
G1 X66.941 Y40.358 E25.62809
G1 X66.696 Y40.41 E25.64059
G1 X-66.721 Y40.41 E32.29679
G1 X-66.936 Y40.37 E32.3077
G1 X-67.145 Y40.234 E32.32014
G1 X-67.262 Y40.117 E32.32839
G1 X-67.386 Y39.938 E32.33926
G1 X-67.438 Y39.693 E32.35175
G1 X-67.438 Y-39.633 E36.30934
G1 X-67.398 Y-39.848 E36.32025
G1 X-67.262 Y-40.057 E36.33269
G1 X-67.145 Y-40.174 E36.34095
G1 X-66.966 Y-40.298 E36.35181
G1 X-66.721 Y-40.35 E36.36431
G1 X66.696 Y-40.35 E43.02051
G0 F3000 X66.696 Y-39.95
G1 F1500 X66.837 Y-39.891 E43.02813
G1 X66.954 Y-39.774 E43.03639
G1 X67.013 Y-39.633 E43.04402
G1 X67.013 Y39.693 E47.00161
G1 X66.954 Y39.834 E47.00923
G1 X66.837 Y39.951 E47.01749
G1 X66.696 Y40.01 E47.02511
G1 X-66.721 Y40.01 E53.68131
G1 X-66.862 Y39.951 E53.68894
G1 X-66.979 Y39.834 E53.69719
G1 X-67.038 Y39.693 E53.70482
G1 X-67.038 Y-39.633 E57.66241
G1 X-66.979 Y-39.774 E57.67003
G1 X-66.862 Y-39.891 E57.67829
G1 X-66.721 Y-39.95 E57.68591
G1 X66.696 Y-39.95 E64.34212
G0 F3000 X66.613 Y-39.55
;TYPE:WALL-OUTER
G1 F1500 X66.613 Y39.61 E68.29142
G1 X-66.638 Y39.61 E74.93934
G1 X-66.638 Y-39.55 E78.88865
G1 X66.613 Y-39.55 E85.53657
G0 F3000 X66.613 Y-39.35
G0 X66.213 Y-39.15
;TYPE:WALL-INNER
G1 F1500 X66.213 Y39.21 E89.44597
G1 X-66.238 Y39.21 E96.05398
G1 X-66.238 Y-39.15 E99.96337
G1 X66.213 Y-39.15 E106.57138
G0 F3000 X66.013 Y-38.95
G0 X65.661 Y-38.989
;TYPE:SKIN
G1 F1500 X66.052 Y-38.598 E106.59897
G0 F3000 X66.052 Y-38.033
G1 F1500 X65.096 Y-38.989 E106.66642
G1 X65.026 Y-39.059
G0 F3000 X64.53 Y-38.989
G1 F1500 X66.052 Y-37.467 E106.7738
G1 X66.122 Y-37.397
G0 F3000 X66.052 Y-36.901
G1 F1500 X63.964 Y-38.989 E106.92112
G1 X63.894 Y-39.059
G0 F3000 X63.399 Y-38.989
G1 F1500 X66.052 Y-36.336 E107.10831
G1 X66.122 Y-36.266
G0 F3000 X66.052 Y-35.77
G1 F1500 X62.833 Y-38.989 E107.33542
G1 X62.763 Y-39.059
G0 F3000 X62.267 Y-38.989
G1 F1500 X66.052 Y-35.204 E107.60248
G1 X66.122 Y-35.134
G0 F3000 X66.052 Y-34.639
G1 F1500 X61.702 Y-38.989 E107.90939
G1 X61.632 Y-39.059
G0 F3000 X61.136 Y-38.989
G1 F1500 X66.052 Y-34.073 E108.25624
G1 X66.122 Y-34.003
G0 F3000 X66.052 Y-33.507
G1 F1500 X60.57 Y-38.989 E108.64303
G1 X60.5 Y-39.059
G0 F3000 X60.005 Y-38.989
G1 F1500 X66.052 Y-32.941 E109.06971
G1 X66.122 Y-32.871
G0 F3000 X66.052 Y-32.376
G1 F1500 X59.439 Y-38.989 E109.53629
G1 X59.369 Y-39.059
G0 F3000 X58.873 Y-38.989
G1 F1500 X66.052 Y-31.81 E110.04281
G1 X66.122 Y-31.74
G0 F3000 X66.052 Y-31.244
G1 F1500 X58.308 Y-38.989 E110.58923
G1 X58.238 Y-39.059
G0 F3000 X57.742 Y-38.989
G1 F1500 X66.052 Y-30.679 E111.17554
G1 X66.122 Y-30.609
G0 F3000 X66.052 Y-30.113
G1 F1500 X57.176 Y-38.989 E111.80179
G1 X57.106 Y-39.059
G0 F3000 X56.61 Y-38.989
G1 F1500 X66.052 Y-29.547 E112.46798
G1 X66.122 Y-29.477
G0 F3000 X66.052 Y-28.982
G1 F1500 X56.045 Y-38.989 E113.17402
G1 X55.975 Y-39.059
G0 F3000 X55.479 Y-38.989
G1 F1500 X66.052 Y-28.416 E113.92001
G1 X66.122 Y-28.346
G0 F3000 X66.052 Y-27.85
G1 F1500 X54.913 Y-38.989 E114.70592
G1 X54.843 Y-39.059
G0 F3000 X54.348 Y-38.989
G1 F1500 X66.052 Y-27.285 E115.5317
G1 X66.122 Y-27.215
G0 F3000 X66.052 Y-26.719
G1 F1500 X53.782 Y-38.989 E116.39742
G1 X53.712 Y-39.059
G0 F3000 X53.216 Y-38.989
G1 F1500 X66.052 Y-26.153 E117.30307
G1 X66.122 Y-26.083
G0 F3000 X66.052 Y-25.588
G1 F1500 X52.651 Y-38.989 E118.24858
G1 X52.581 Y-39.059
G0 F3000 X52.085 Y-38.989
G1 F1500 X66.052 Y-25.022 E119.23403
G1 X66.122 Y-24.952
G0 F3000 X66.052 Y-24.456
G1 F1500 X51.519 Y-38.989 E120.25941
G1 X51.449 Y-39.059
G0 F3000 X50.954 Y-38.989
G1 F1500 X66.052 Y-23.891 E121.32465
G1 X66.122 Y-23.821
G0 F3000 X66.052 Y-23.325
G1 F1500 X50.388 Y-38.989 E122.42983
G1 X50.318 Y-39.059
G0 F3000 X49.822 Y-38.989
G1 F1500 X66.052 Y-22.759 E123.57495
G1 X66.122 Y-22.689
G0 F3000 X66.052 Y-22.193
G1 F1500 X49.257 Y-38.989 E124.75996
G1 X49.187 Y-39.059
G0 F3000 X48.691 Y-38.989
G1 F1500 X66.052 Y-21.628 E125.98487
G1 X66.122 Y-21.558
G0 F3000 X66.052 Y-21.062
G1 F1500 X48.125 Y-38.989 E127.24972
G1 X48.055 Y-39.059
G0 F3000 X47.56 Y-38.989
G1 F1500 X66.052 Y-20.496 E128.55447
G1 X66.122 Y-20.426
G0 F3000 X66.052 Y-19.931
G1 F1500 X46.994 Y-38.989 E129.89911
G1 X46.924 Y-39.059
G0 F3000 X46.428 Y-38.989
G1 F1500 X66.052 Y-19.365 E131.28369
G1 X66.122 Y-19.295
G0 F3000 X66.052 Y-18.799
G1 F1500 X45.862 Y-38.989 E132.7082
G1 X45.792 Y-39.059
G0 F3000 X45.297 Y-38.989
G1 F1500 X66.052 Y-18.234 E134.17258
G1 X66.122 Y-18.164
G0 F3000 X66.052 Y-17.668
G1 F1500 X44.731 Y-38.989 E135.67689
G1 X44.661 Y-39.059
G0 F3000 X44.165 Y-38.989
G1 F1500 X66.052 Y-17.102 E137.22114
G1 X66.122 Y-17.032
G0 F3000 X66.052 Y-16.537
G1 F1500 X43.6 Y-38.989 E138.80525
G1 X43.53 Y-39.059
G0 F3000 X43.034 Y-38.989
G1 F1500 X66.052 Y-15.971 E140.42929
G1 X66.122 Y-15.901
G0 F3000 X66.052 Y-15.405
G1 F1500 X42.468 Y-38.989 E142.09327
G1 X42.398 Y-39.059
G0 F3000 X41.903 Y-38.989
G1 F1500 X66.052 Y-14.84 E143.79711
G1 X66.122 Y-14.77
G0 F3000 X66.052 Y-14.274
G1 F1500 X41.337 Y-38.989 E145.54089
G1 X41.267 Y-39.059
G0 F3000 X40.771 Y-38.989
G1 F1500 X66.052 Y-13.708 E147.3246
G1 X66.122 Y-13.638
G0 F3000 X66.052 Y-13.142
G1 F1500 X40.206 Y-38.989 E149.14821
G1 X40.136 Y-39.059
G0 F3000 X39.64 Y-38.989
G1 F1500 X66.052 Y-12.577 E151.01172
G1 X66.122 Y-12.507
G0 F3000 X66.052 Y-12.011
G1 F1500 X39.074 Y-38.989 E152.91516
G1 X39.004 Y-39.059
G0 F3000 X38.509 Y-38.989
G1 F1500 X66.052 Y-11.445 E154.85851
G1 X66.122 Y-11.375
G0 F3000 X66.052 Y-10.88
G1 F1500 X37.943 Y-38.989 E156.84175
G1 X37.873 Y-39.059
G0 F3000 X37.377 Y-38.989
G1 F1500 X66.052 Y-10.314 E158.86493
G1 X66.122 Y-10.244
G0 F3000 X66.052 Y-9.748
G1 F1500 X36.811 Y-38.989 E160.92804
G1 X36.741 Y-39.059
G0 F3000 X36.246 Y-38.989
G1 F1500 X66.052 Y-9.183 E163.03101
G1 X66.122 Y-9.113
G0 F3000 X66.052 Y-8.617
G1 F1500 X35.68 Y-38.989 E165.17392
G1 X35.61 Y-39.059
G0 F3000 X35.114 Y-38.989
G1 F1500 X66.052 Y-8.051 E167.35676
G1 X66.122 Y-7.981
G0 F3000 X66.052 Y-7.486
G1 F1500 X34.549 Y-38.989 E169.57947
G1 X34.479 Y-39.059
G0 F3000 X33.983 Y-38.989
G1 F1500 X66.052 Y-6.92 E171.84211
G1 X66.122 Y-6.85
G0 F3000 X66.052 Y-6.354
G1 F1500 X33.417 Y-38.989 E174.14469
G1 X33.347 Y-39.059
G0 F3000 X32.852 Y-38.989
G1 F1500 X66.052 Y-5.789 E176.48712
G1 X66.122 Y-5.719
G0 F3000 X66.052 Y-5.223
G1 F1500 X32.286 Y-38.989 E178.8695
G1 X32.216 Y-39.059
G0 F3000 X31.72 Y-38.989
G1 F1500 X66.052 Y-4.657 E181.29181
G1 X66.122 Y-4.587
G0 F3000 X66.052 Y-4.092
G1 F1500 X31.155 Y-38.989 E183.75398
G1 X31.085 Y-39.059
G0 F3000 X30.589 Y-38.989
G1 F1500 X66.052 Y-3.526 E186.25608
G1 X66.122 Y-3.456
G0 F3000 X66.052 Y-2.96
G1 F1500 X30.023 Y-38.989 E188.79812
G1 X29.953 Y-39.059
G0 F3000 X29.458 Y-38.989
G1 F1500 X66.052 Y-2.394 E191.38006
G1 X66.122 Y-2.324
G0 F3000 X66.052 Y-1.829
G1 F1500 X28.892 Y-38.989 E194.0019
G1 X28.822 Y-39.059
G0 F3000 X28.326 Y-38.989
G1 F1500 X66.052 Y-1.263 E196.66368
G1 X66.122 Y-1.193
G0 F3000 X66.052 Y-.697
G1 F1500 X27.761 Y-38.989 E199.36535
G1 X27.691 Y-39.059
G0 F3000 X27.195 Y-38.989
G1 F1500 X66.052 Y-.132 E202.10692
G1 X66.122 Y-0.062
G0 F3000 X66.052 Y0.433
G1 F1500 X26.629 Y-38.989 E204.88839
G1 X26.559 Y-39.059
G0 F3000 X26.063 Y-38.989
G1 F1500 X66.052 Y0.999 E207.70979
G1 X66.122 Y1.069
G0 F3000 X66.052 Y1.564
G1 F1500 X25.498 Y-38.989 E210.57106
G1 X25.428 Y-39.059
G0 F3000 X24.932 Y-38.989
G1 F1500 X66.052 Y2.13 E213.47227
G1 X66.122 Y2.2
G0 F3000 X66.052 Y2.696
G1 F1500 X24.366 Y-38.989 E216.4134
G1 X24.296 Y-39.059
G0 F3000 X23.801 Y-38.989
G1 F1500 X66.052 Y3.261 E219.3944
G1 X66.122 Y3.331
G0 F3000 X66.052 Y3.827
G1 F1500 X23.235 Y-38.989 E222.41534
G1 X23.165 Y-39.059
G0 F3000 X22.669 Y-38.989
G1 F1500 X66.052 Y4.393 E225.47621
G1 X66.122 Y4.463
G0 F3000 X66.052 Y4.958
G1 F1500 X22.104 Y-38.989 E228.57694
G1 X22.034 Y-39.059
G0 F3000 X21.538 Y-38.989
G1 F1500 X66.052 Y5.524 E231.71761
G1 X66.122 Y5.594
G0 F3000 X66.052 Y6.09
G1 F1500 X20.972 Y-38.989 E234.89821
G1 X20.902 Y-39.059
G0 F3000 X20.407 Y-38.989
G1 F1500 X66.052 Y6.655 E238.11868
G1 X66.122 Y6.725
G0 F3000 X66.052 Y7.221
G1 F1500 X19.841 Y-38.989 E241.37908
G1 X19.771 Y-39.059
G0 F3000 X19.275 Y-38.989
G1 F1500 X66.052 Y7.787 E244.67941
G1 X66.122 Y7.857
G0 F3000 X66.052 Y8.353
G1 F1500 X18.71 Y-38.989 E248.01965
G1 X18.64 Y-39.059
G0 F3000 X18.144 Y-38.989
G1 F1500 X66.052 Y8.918 E251.39978
G1 X66.122 Y8.988
G0 F3000 X66.052 Y9.484
G1 F1500 X17.578 Y-38.989 E254.81985
G1 X17.508 Y-39.059
G0 F3000 X17.012 Y-38.989
G1 F1500 X66.052 Y10.05 E258.27985
G1 X66.122 Y10.12
G0 F3000 X66.052 Y10.615
G1 F1500 X16.447 Y-38.989 E261.77971
G1 X16.377 Y-39.059
G0 F3000 X15.881 Y-38.989
G1 F1500 X66.052 Y11.181 E265.31951
G1 X66.122 Y11.251
G0 F3000 X66.052 Y11.747
G1 F1500 X15.315 Y-38.989 E268.89925
G1 X15.245 Y-39.059
G0 F3000 X14.75 Y-38.989
G1 F1500 X66.052 Y12.312 E272.51885
G1 X66.122 Y12.382
G0 F3000 X66.052 Y12.878
G1 F1500 X14.184 Y-38.989 E276.17838
G1 X14.114 Y-39.059
G0 F3000 X13.618 Y-38.989
G1 F1500 X66.052 Y13.444 E279.87785
G1 X66.122 Y13.514
G0 F3000 X66.052 Y14.009
G1 F1500 X13.053 Y-38.989 E283.61718
G1 X12.983 Y-39.059
G0 F3000 X12.487 Y-38.989
G1 F1500 X66.052 Y14.575 E287.39644
G1 X66.122 Y14.645
G0 F3000 X66.052 Y15.141
G1 F1500 X11.921 Y-38.989 E291.21564
G1 X11.851 Y-39.059
G0 F3000 X11.356 Y-38.989
G1 F1500 X66.052 Y15.706 E295.0747
G1 X66.122 Y15.776
G0 F3000 X66.052 Y16.272
G1 F1500 X10.79 Y-38.989 E298.9737
G1 X10.72 Y-39.059
G0 F3000 X10.224 Y-38.989
G1 F1500 X66.052 Y16.838 E302.91263
G1 X66.122 Y16.908
G0 F3000 X66.052 Y17.404
G1 F1500 X9.659 Y-38.989 E306.89146
G1 X9.589 Y-39.059
G0 F3000 X9.093 Y-38.989
G1 F1500 X66.052 Y17.969 E310.91019
G1 X66.122 Y18.039
G0 F3000 X66.052 Y18.535
G1 F1500 X8.527 Y-38.989 E314.96886
G1 X8.457 Y-39.059
G0 F3000 X7.962 Y-38.989
G1 F1500 X66.052 Y19.101 E319.06742
G1 X66.122 Y19.171
G0 F3000 X66.052 Y19.666
G1 F1500 X7.396 Y-38.989 E323.20588
G1 X7.326 Y-39.059
G0 F3000 X6.83 Y-38.989
G1 F1500 X66.052 Y20.232 E327.38428
G1 X66.122 Y20.302
G0 F3000 X66.052 Y20.798
G1 F1500 X6.264 Y-38.989 E331.60261
G1 X6.194 Y-39.059
G0 F3000 X5.699 Y-38.989
G1 F1500 X66.052 Y21.363 E335.8608
G1 X66.122 Y21.433
G0 F3000 X66.052 Y21.929
G1 F1500 X5.133 Y-38.989 E340.15893
G1 X5.063 Y-39.059
G0 F3000 X4.567 Y-38.989
G1 F1500 X66.052 Y22.495 E344.497
G1 X66.122 Y22.565
G0 F3000 X66.052 Y23.06
G1 F1500 X4.002 Y-38.989 E348.87492
G1 X3.932 Y-39.059
G0 F3000 X3.436 Y-38.989
G1 F1500 X66.052 Y23.626 E353.29279
G1 X66.122 Y23.696
G0 F3000 X66.052 Y24.192
G1 F1500 X2.87 Y-38.989 E357.75058
G1 X2.8 Y-39.059
G0 F3000 X2.305 Y-38.989
G1 F1500 X66.052 Y24.757 E362.24824
G1 X66.122 Y24.827
G0 F3000 X66.052 Y25.323
G1 F1500 X1.739 Y-38.989 E366.78584
G1 X1.669 Y-39.059
G0 F3000 X1.173 Y-38.989
G1 F1500 X66.052 Y25.889 E371.36336
G1 X66.122 Y25.959
G0 F3000 X66.052 Y26.454
G1 F1500 X0.608 Y-38.989 E375.98076
G1 X0.538 Y-39.059
G0 F3000 X0.042 Y-38.989
G1 F1500 X66.052 Y27.02 E380.63808
G1 X66.122 Y27.09
G0 F3000 X66.052 Y27.586
G1 F1500 X-.523 Y-38.989 E385.33531
G1 X-.593 Y-39.059
G0 F3000 X-1.088 Y-38.989
G1 F1500 X66.052 Y28.152 E390.07243
G1 X66.122 Y28.222
G0 F3000 X66.052 Y28.717
G1 F1500 X-1.654 Y-38.989 E394.84946
G1 X-1.724 Y-39.059
G0 F3000 X-2.22 Y-38.989
G1 F1500 X66.052 Y29.283 E399.66642
G1 X66.122 Y29.353
G0 F3000 X66.052 Y29.849
G1 F1500 X-2.786 Y-38.989 E404.52331
G1 X-2.856 Y-39.059
G0 F3000 X-3.351 Y-38.989
G1 F1500 X66.052 Y30.414 E409.42007
G1 X66.122 Y30.484
G0 F3000 X66.052 Y30.98
G1 F1500 X-3.917 Y-38.989 E414.35676
G1 X-3.987 Y-39.059
G0 F3000 X-4.483 Y-38.989
G1 F1500 X66.052 Y31.546 E419.33338
G1 X66.122 Y31.616
G0 F3000 X66.052 Y32.111
G1 F1500 X-5.048 Y-38.989 E424.34987
G1 X-5.118 Y-39.059
G0 F3000 X-5.614 Y-38.989
G1 F1500 X66.052 Y32.677 E429.40629
G1 X66.122 Y32.747
G0 F3000 X66.052 Y33.243
G1 F1500 X-6.18 Y-38.989 E434.50265
G1 X-6.25 Y-39.059
G0 F3000 X-6.745 Y-38.989
G1 F1500 X66.052 Y33.808 E439.63887
G1 X66.122 Y33.878
G0 F3000 X66.052 Y34.374
G1 F1500 X-7.311 Y-38.989 E444.81503
G1 X-7.381 Y-39.059
G0 F3000 X-7.877 Y-38.989
G1 F1500 X66.052 Y34.94 E450.03112
G1 X66.122 Y35.01
G0 F3000 X66.052 Y35.505
G1 F1500 X-8.442 Y-38.989 E455.28707
G1 X-8.512 Y-39.059
G0 F3000 X-9.008 Y-38.989
G1 F1500 X66.052 Y36.071 E460.58296
G1 X66.122 Y36.141
G0 F3000 X66.052 Y36.637
G1 F1500 X-9.574 Y-38.989 E465.91879
G1 X-9.644 Y-39.059
G0 F3000 X-10.139 Y-38.989
G1 F1500 X66.052 Y37.203 E471.29451
G1 X66.122 Y37.273
G0 F3000 X66.052 Y37.768
G1 F1500 X-10.705 Y-38.989 E476.71013
G1 X-10.775 Y-39.059
G0 F3000 X-11.271 Y-38.989
G1 F1500 X66.052 Y38.334 E482.16568
G1 X66.122 Y38.404
G0 F3000 X66.052 Y38.9
G1 F1500 X-11.836 Y-38.989 E487.66114
G1 X-11.906 Y-39.059
G0 F3000 X-12.402 Y-38.989
G1 F1500 X65.637 Y39.049 E493.16718
G1 X65.707 Y39.119
G0 F3000 X65.071 Y39.049
G1 F1500 X-12.968 Y-38.989 E498.67321
G1 X-13.038 Y-39.059
G0 F3000 X-13.534 Y-38.989
G1 F1500 X64.505 Y39.049 E504.17925
G1 X64.575 Y39.119
G0 F3000 X63.94 Y39.049
G1 F1500 X-14.099 Y-38.989 E509.68529
G1 X-14.169 Y-39.059
G0 F3000 X-14.665 Y-38.989
G1 F1500 X63.374 Y39.049 E515.19133
G1 X63.444 Y39.119
G0 F3000 X62.808 Y39.049
G1 F1500 X-15.231 Y-38.989 E520.69736
G1 X-15.301 Y-39.059
G0 F3000 X-15.796 Y-38.989
G1 F1500 X62.243 Y39.049 E526.2034
G1 X62.313 Y39.119
G0 F3000 X61.677 Y39.049
G1 F1500 X-16.362 Y-38.989 E531.70944
G1 X-16.432 Y-39.059
G0 F3000 X-16.928 Y-38.989
G1 F1500 X61.111 Y39.049 E537.21548
G1 X61.181 Y39.119
G0 F3000 X60.546 Y39.049
G1 F1500 X-17.493 Y-38.989 E542.72151
G1 X-17.563 Y-39.059
G0 F3000 X-18.059 Y-38.989
G1 F1500 X59.98 Y39.049 E548.22755
G1 X60.05 Y39.119
G0 F3000 X59.414 Y39.049
G1 F1500 X-18.625 Y-38.989 E553.73359
G1 X-18.695 Y-39.059
G0 F3000 X-19.19 Y-38.989
G1 F1500 X58.848 Y39.049 E559.23959
G1 X58.918 Y39.119
G0 F3000 X58.283 Y39.049
G1 F1500 X-19.756 Y-38.989 E564.74563
G1 X-19.826 Y-39.059
G0 F3000 X-20.322 Y-38.989
G1 F1500 X57.717 Y39.049 E570.25167
G1 X57.787 Y39.119
G0 F3000 X57.151 Y39.049
G1 F1500 X-20.887 Y-38.989 E575.75767
G1 X-20.957 Y-39.059
G0 F3000 X-21.453 Y-38.989
G1 F1500 X56.586 Y39.049 E581.26371
G1 X56.656 Y39.119
G0 F3000 X56.02 Y39.049
G1 F1500 X-22.019 Y-38.989 E586.76975
G1 X-22.089 Y-39.059
G0 F3000 X-22.584 Y-38.989
G1 F1500 X55.454 Y39.049 E592.27575
G1 X55.524 Y39.119
G0 F3000 X54.889 Y39.049
G1 F1500 X-23.15 Y-38.989 E597.78179
G1 X-23.22 Y-39.059
G0 F3000 X-23.716 Y-38.989
G1 F1500 X54.323 Y39.049 E603.28782
G1 X54.393 Y39.119
G0 F3000 X53.757 Y39.049
G1 F1500 X-24.282 Y-38.989 E608.79386
G1 X-24.352 Y-39.059
G0 F3000 X-24.847 Y-38.989
G1 F1500 X53.192 Y39.049 E614.2999
G1 X53.262 Y39.119
G0 F3000 X52.626 Y39.049
