(SATURNV-16TH)
(T1  D=1.587 CR=0.794 - ZMIN=17.197 - BALL END MILL)
G0 G90 G94 G17
G21
G53 G0 Z0.

(MORPHED SPIRAL1)
M5
M9
T1
S16500 M3
G4 P4.
G55
G0 X41.431 Y40.82
Z49.657
Z19.197
G1 Z17.856 F356.
X41.438 Z17.807
X41.461 Z17.762
X41.496 Z17.727
X41.54 Z17.705
X41.589 Z17.697
X95.127 Y40.689
X95.216 Y40.696
X95.245 Y40.705
X95.253 Y40.736
X95.26 Y40.822
X95.254 Y40.903
X95.244 Y40.934
X95.213 Y40.945
X95.133 Y40.95
X41.033 Y41.082
X40.9 Y41.066
X40.833 Y41.067
X40.797 Y41.039
X40.788 Y40.993
X40.784 Y40.912
X40.775 Y40.825
X40.789 Y40.687
Y40.618
X40.807 Y40.589
X40.836 Y40.572
X40.904
X41.04 Y40.558
X41.071 Y40.554 Z17.703
X41.096 Y40.552 Z17.72
X41.113 Y40.55 Z17.746
X41.119 Y40.549 Z17.776
X41.125 Y40.553 Z17.833
X41.142 Y40.565 Z17.887
X41.168 Y40.583 Z17.934
X41.204 Y40.608 Z17.972
X41.245 Y40.637 Z17.998
X41.291 Y40.668 Z18.012
X41.338 Y40.701
X41.384 Y40.733 Z17.998
X41.426 Y40.761 Z17.972
X41.461 Y40.786 Z17.934
X41.488 Y40.804 Z17.887
X41.504 Y40.816 Z17.833
X41.51 Y40.82 Z17.776
Z17.276
X41.516 Z17.246
X41.533 Z17.22
X41.559 Z17.203
X41.589 Z17.197
X95.127 Y40.689
X95.216 Y40.696
X95.245 Y40.705
X95.253 Y40.736
X95.26 Y40.822
X95.254 Y40.903
X95.244 Y40.934
X95.213 Y40.945
X95.133 Y40.95
X41.033 Y41.082
X40.9 Y41.066
X40.833 Y41.067
X40.797 Y41.039
X40.788 Y40.993
X40.784 Y40.912
X40.775 Y40.825
X40.789 Y40.687
Y40.618
X40.807 Y40.589
X40.836 Y40.572
X40.904
X41.04 Y40.558
Z17.697
X95.12 Y40.301
X95.257 Y40.309
X95.407 Y40.33
X95.511 Y40.324
X95.544 Y40.332
X95.574 Y40.348
X95.614 Y40.395
X95.627 Y40.447
X95.619 Y40.542
X95.643 Y40.691
X95.651 Y40.829
X95.643 Y40.951
X95.627 Y41.072
X95.639 Y41.233
X95.634 Y41.284
X95.605 Y41.319
X95.559 Y41.33
X95.422 Y41.32
X95.299 Y41.33
X95.146 Y41.344
X41.025 Y41.602
X40.819 Y41.587
X40.634 Y41.556
X40.519 Y41.565
X40.45
X40.386 Y41.541
X40.334 Y41.497
X40.3 Y41.437
X40.288 Y41.363
X40.298 Y41.27
X40.296 Y41.201
X40.262 Y40.995
X40.252 Y40.835
X40.263 Y40.634
X40.293 Y40.44
X40.285 Y40.318
Y40.249
X40.306 Y40.184
X40.347 Y40.128
X40.402 Y40.088
X40.467 Y40.067
X40.554 Y40.07
X40.623 Y40.075
X40.722 Y40.065
X40.927 Y40.037
X41.322 Y40.031
X95.161 Y39.783
X95.368 Y39.797
X95.628 Y39.839
X95.752 Y39.84
X95.907 Y39.819
X95.975 Y39.829
X96.037 Y39.859
X96.086 Y39.907
X96.119 Y39.967
X96.132 Y40.035
X96.117 Y40.172
Y40.31
X96.156 Y40.562
X96.173 Y40.769
X96.168 Y40.975
X96.141 Y41.187
X96.126 Y41.324
X96.13 Y41.462
X96.152 Y41.691
X96.137 Y41.757
X96.094 Y41.811
X96.047 Y41.835
X95.99 Y41.843
X95.716 Y41.822
X95.525 Y41.833
X95.263 Y41.866
X94.817 Y41.872
X57.407 Y42.045
X47.125 Y42.092
X41.018 Y42.12
X40.743 Y42.103
X40.48 Y42.059
X40.344 Y42.043
X40.197 Y42.055
X40.013 Y42.082
X39.944 Y42.078
X39.88 Y42.052
X39.827 Y42.009
X39.791 Y41.951
X39.773 Y41.874
X39.793 Y41.678
X39.796 Y41.471
X39.773 Y41.28
X39.743 Y41.075
X39.73 Y40.869
X39.734 Y40.662
X39.755 Y40.456
X39.793 Y40.232
X39.797 Y40.095
X39.773 Y39.897
X39.785 Y39.795
X39.828 Y39.702
X39.898 Y39.626
X39.988 Y39.575
X40.088 Y39.554
X40.153 Y39.557
X40.3 Y39.576
X40.438 Y39.573
X40.715 Y39.527
X40.988 Y39.506
X46.433 Y39.481
X95.105 Y39.265
X95.381 Y39.276
X95.654 Y39.31
X95.844 Y39.344
X95.981 Y39.353
X96.05 Y39.351
X96.309 Y39.315
X96.462 Y39.305
X96.528 Y39.323
X96.584 Y39.362
X96.625 Y39.417
X96.645 Y39.484
X96.639 Y39.63
X96.609 Y39.882
Y40.02
X96.623 Y40.157
X96.67 Y40.433
X96.693 Y40.708
X96.692 Y40.984
X96.666 Y41.258
X96.63 Y41.508
X96.626 Y41.714
X96.654 Y41.974
X96.663 Y42.125
X96.654 Y42.193
X96.624 Y42.255
X96.577 Y42.305
X96.518 Y42.34
X96.473 Y42.352
X96.395 Y42.355
X96.147 Y42.332
X95.94 Y42.325
X95.734 Y42.339
X95.433 Y42.382
X95.178 Y42.398
X58.989 Y42.559
X49.112 Y42.602
X41.01 Y42.638
X40.735 Y42.626
X40.461 Y42.592
X40.191 Y42.541
X40.053 Y42.531
X39.902 Y42.542
X39.63 Y42.582
X39.423 Y42.599
X39.356 Y42.586
X39.299 Y42.547
X39.262 Y42.49
X39.249 Y42.427
X39.27 Y42.249
X39.299 Y41.979
X39.302 Y41.772
X39.285 Y41.566
X39.236 Y41.259
X39.212 Y40.985
X39.209 Y40.709
X39.227 Y40.434
X39.267 Y40.157
X39.299 Y39.956
X39.302 Y39.818
X39.289 Y39.688
X39.257 Y39.458
X39.247 Y39.287
X39.24 Y39.153
X39.246 Y39.119
X39.26 Y39.088
X39.304 Y39.042
X39.36 Y39.022
X39.516 Y39.028
X39.715 Y39.041
X39.977 Y39.076
X40.115 Y39.079
X40.242 Y39.067
X40.572 Y39.011
X40.847 Y38.985
X41.271 Y38.977
X95.098 Y38.746
X95.443 Y38.759
X95.785 Y38.799
X96.059 Y38.848
X96.196 Y38.862
X96.334
X96.485 Y38.845
X96.703 Y38.812
X96.878 Y38.796
X96.958 Y38.785
X97.026 Y38.796
X97.086 Y38.83
X97.131 Y38.881
X97.155 Y38.936
X97.16 Y39.013
X97.141 Y39.245
X97.106 Y39.524
X97.102 Y39.73
X97.121 Y39.936
X97.184 Y40.304
X97.214 Y40.648
X97.216 Y40.992
X97.188 Y41.336
X97.135 Y41.692
X97.123 Y41.898
X97.131 Y42.105
X97.163 Y42.359
X97.175 Y42.557
X97.18 Y42.67
Y42.738
X97.153 Y42.802
X97.105 Y42.85
X97.042 Y42.877
X96.95 Y42.876
X96.709 Y42.861
X96.441 Y42.833
X96.165 Y42.828
X95.891 Y42.853
X95.535 Y42.903
X95.195 Y42.925
X59.089 Y43.08
X45.544 Y43.138
X41.002 Y43.157
X40.658 Y43.142
X40.316 Y43.101
X39.969 Y43.036
X39.832 Y43.021
X39.694 Y43.022
X39.526 Y43.042
X39.228 Y43.086
X39.006 Y43.103
X38.937 Y43.106
X38.871 Y43.088
X38.813 Y43.05
X38.77 Y42.997
X38.744 Y42.934
X38.742 Y42.849
X38.766 Y42.657
X38.8 Y42.349
X38.808 Y42.074
X38.787 Y41.799
X38.72 Y41.375
X38.69 Y41.032
X38.686 Y40.687
X38.708 Y40.343
X38.755 Y40.002
X38.799 Y39.749
X38.806 Y39.542
X38.789 Y39.364
X38.748 Y39.069
X38.735 Y38.849
X38.729 Y38.721
Y38.652
X38.754 Y38.589
X38.802 Y38.539
X38.864 Y38.511
X38.919 Y38.507
X39.185 Y38.519
X39.337 Y38.532
X39.654 Y38.575
X39.792 Y38.582
X39.929 Y38.576
X40.09 Y38.553
X40.43 Y38.495
X40.773 Y38.461
X41.142 Y38.45
X95.091 Y38.227
X95.436 Y38.237
X95.779 Y38.268
X96.119 Y38.322
X96.343 Y38.362
X96.549 Y38.374
X96.756 Y38.361
X97.097 Y38.31
X97.315 Y38.289
X97.491 Y38.262
X97.559 Y38.275
X97.617 Y38.311
X97.659 Y38.365
X97.68 Y38.436
X97.669 Y38.56
X97.637 Y38.916
X97.604 Y39.165
X97.594 Y39.371
X97.604 Y39.578
X97.62 Y39.715
X97.689 Y40.107
X97.727 Y40.45
X97.742 Y40.794
X97.733 Y41.138
X97.701 Y41.482
X97.65 Y41.807
X97.628 Y42.013
X97.622 Y42.22
X97.639 Y42.489
X97.678 Y42.814
X97.688 Y43.074
X97.706 Y43.215
X97.694 Y43.283
X97.657 Y43.341
X97.603 Y43.382
X97.53 Y43.401
X97.338 Y43.384
X97.036 Y43.365
X96.735 Y43.335
X96.459 Y43.33
X96.184 Y43.349
X95.705 Y43.417
X95.362 Y43.446
X94.866 Y43.453
X59.779 Y43.599
X43.172 Y43.667
X40.995 Y43.676
X40.65 Y43.663
X40.307 Y43.63
X40.035 Y43.588
X39.746 Y43.531
X39.541 Y43.509
X39.334 Y43.516
X39.117 Y43.548
X38.826 Y43.589
X38.613 Y43.604
X38.486 Y43.616
X38.418 Y43.603
X38.356 Y43.574
X38.303 Y43.53
X38.262 Y43.475
X38.237 Y43.411
X38.228 Y43.356
X38.231 Y43.3
X38.255 Y43.142
X38.3 Y42.72
X38.313 Y42.445
X38.302 Y42.169
X38.269 Y41.896
X38.204 Y41.491
X38.172 Y41.148
X38.161 Y40.803
X38.172 Y40.459
X38.203 Y40.116
X38.233 Y39.911
X38.288 Y39.609
X38.309 Y39.403
X38.307 Y39.197
X38.278 Y38.972
X38.239 Y38.679
X38.223 Y38.411
X38.221 Y38.286
X38.202 Y38.168
X38.215 Y38.101
X38.252 Y38.043
X38.308 Y38.004
X38.368 Y37.989
X38.501 Y37.997
X38.789 Y38.008
X39.093 Y38.04
X39.4 Y38.08
X39.607 Y38.083
X39.812 Y38.061
X40.218 Y37.988
X40.629 Y37.942
X40.974 Y37.925
X44.392 Y37.91
X95.084 Y37.707
X95.497 Y37.719
X95.909 Y37.757
X96.318 Y37.821
X96.559 Y37.865
X96.765 Y37.883
X96.972 Y37.879
X97.164 Y37.856
X97.449 Y37.812
X97.702 Y37.788
X97.979 Y37.743
X98.048 Y37.744
X98.112 Y37.769
X98.162 Y37.815
X98.193 Y37.876
X98.201 Y37.922
X98.189 Y38.012
X98.163 Y38.281
X98.131 Y38.593
X98.096 Y38.874
X98.089 Y39.15
X98.11 Y39.425
X98.182 Y39.841
X98.236 Y40.252
X98.262 Y40.664
X98.261 Y41.078
X98.231 Y41.49
X98.185 Y41.832
X98.139 Y42.128
X98.121 Y42.403
X98.128 Y42.679
X98.17 Y43.032
X98.198 Y43.356
X98.202 Y43.561
X98.222 Y43.688
X98.214 Y43.756
X98.185 Y43.819
X98.139 Y43.869
X98.079 Y43.904
X98.012 Y43.918
X97.862 Y43.905
X97.5 Y43.883
X97.098 Y43.842
X96.822 Y43.832
X96.547 Y43.841
X96.272 Y43.87
X95.807 Y43.939
X95.394 Y43.973
X94.951 Y43.979
X61.361 Y44.115
X46.987 Y44.172
X40.987 Y44.196
X40.574 Y44.18
X40.162 Y44.139
X39.754 Y44.073
X39.456 Y44.016
X39.25 Y43.998
X39.043 Y44.004
X38.854 Y44.03
X38.502 Y44.084
X38.147 Y44.112
X37.896 Y44.119
X37.828 Y44.109
X37.768 Y44.076
X37.723 Y44.024
X37.699 Y43.96
X37.698 Y43.895
X37.748 Y43.569
X37.772 Y43.319
X37.806 Y43.022
X37.817 Y42.747
X37.809 Y42.471
X37.781 Y42.197
X37.716 Y41.812
X37.666 Y41.402
X37.641 Y40.989
X37.642 Y40.575
X37.669 Y40.162
X37.721 Y39.752
X37.785 Y39.401
X37.81 Y39.196
X37.814 Y38.989
X37.798 Y38.783
X37.734 Y38.333
X37.713 Y38.043
X37.709 Y37.825
X37.679 Y37.669
Y37.6
X37.706 Y37.537
X37.755 Y37.49
X37.819 Y37.466
X37.885 Y37.468
X37.923 Y37.474
X38.167 Y37.489
X38.448 Y37.501
X38.808 Y37.544
X39.077 Y37.58
X39.284 Y37.586
X39.49 Y37.573
X39.804 Y37.517
X40.212 Y37.454
X40.624 Y37.413
X41.037 Y37.397
X95.077 Y37.187
X95.49 Y37.197
X95.903 Y37.229
X96.313 Y37.284
X96.775 Y37.369
X96.981 Y37.389
X97.187 Y37.392
X97.394 Y37.377
X97.704 Y37.328
X98.046 Y37.288
X98.55 Y37.26
X98.624 Y37.241
X98.675 Y37.243
X98.718 Y37.272
X98.739 Y37.318
Y37.353
X98.701 Y37.542
X98.674 Y37.791
X98.644 Y38.13
X98.594 Y38.515
X98.582 Y38.79
X98.594 Y39.066
X98.63 Y39.339
X98.708 Y39.78
X98.758 Y40.191
X98.784 Y40.604
X98.786 Y41.017
X98.765 Y41.43
X98.719 Y41.841
X98.646 Y42.312
X98.623 Y42.587
X98.622 Y42.863
X98.642 Y43.138
X98.697 Y43.585
X98.712 Y43.862
X98.715 Y44.019
X98.738 Y44.161
X98.732 Y44.23
X98.709 Y44.294
X98.67 Y44.351
X98.617 Y44.395
X98.555 Y44.424
X98.478 Y44.436
X98.25 Y44.414
X97.895 Y44.394
X97.46 Y44.348
X97.116 Y44.334
X96.772 Y44.346
X96.429 Y44.384
X95.977 Y44.453
X95.565 Y44.491
X95.243 Y44.505
X61.361 Y44.638
X48.708 Y44.687
X41.723 Y44.713
X40.91 Y44.715
X40.497 Y44.698
X40.085 Y44.658
X39.676 Y44.597
X39.301 Y44.522
X39.096 Y44.495
X38.889 Y44.488
X38.683 Y44.5
X38.269 Y44.566
X37.927 Y44.605
X37.609 Y44.622
X37.286 Y44.631
X37.252 Y44.627
X37.22 Y44.614
X37.194 Y44.592
X37.174 Y44.563
X37.164 Y44.529
Y44.494
X37.241 Y43.992
X37.269 Y43.704
X37.305 Y43.393
X37.321 Y43.049
X37.31 Y42.705
X37.273 Y42.362
X37.189 Y41.86
X37.143 Y41.449
X37.118 Y41.036
X37.116 Y40.622
X37.137 Y40.209
X37.18 Y39.798
X37.256 Y39.331
X37.302 Y39.057
X37.317 Y38.85
X37.315 Y38.644
X37.288 Y38.393
X37.221 Y37.909
X37.201 Y37.616
X37.198 Y37.408
X37.189 Y37.32
X37.158 Y37.149
X37.168 Y37.082
X37.201 Y37.021
X37.252 Y36.976
X37.311 Y36.952
X37.37 Y36.948
X37.444 Y36.959
X37.647 Y36.974
X38.039 Y36.989
X38.386 Y37.028
X38.754 Y37.079
X38.96 Y37.089
X39.167 Y37.081
X39.372 Y37.056
X39.865 Y36.966
X40.343 Y36.907
X40.825 Y36.875
X41.721 Y36.867
X95.07 Y36.666
X95.552 Y36.678
X96.033 Y36.717
X96.511 Y36.782
X96.991 Y36.871
X97.265 Y36.899
X97.541
X97.815 Y36.87
X98.268 Y36.802
X98.57 Y36.774
X99.04 Y36.75
X99.106 Y36.735
X99.139 Y36.726
X99.174 Y36.728
X99.206 Y36.741
X99.246 Y36.784
X99.258 Y36.832
X99.228 Y36.991
X99.212 Y37.072
X99.183 Y37.338
X99.157 Y37.667
X99.093 Y38.155
X99.077 Y38.431
X99.082 Y38.706
X99.108 Y38.981
X99.179 Y39.379
X99.252 Y39.856
X99.296 Y40.336
X99.312 Y40.818
X99.3 Y41.301
X99.259 Y41.782
X99.19 Y42.259
X99.144 Y42.565
X99.121 Y42.909
X99.127 Y43.253
X99.161 Y43.591
X99.207 Y43.97
X99.225 Y44.297
X99.228 Y44.476
X99.254 Y44.634
X99.251 Y44.703
X99.232 Y44.769
X99.198 Y44.829
X99.152 Y44.88
X99.095 Y44.919
X99.031 Y44.943
X98.963 Y44.953
X98.88 Y44.945
X98.574 Y44.92
X98.222 Y44.899
X97.755 Y44.85
X97.41 Y44.837
X97.066 Y44.847
X96.723 Y44.879
X96.147 Y44.966
X95.667 Y45.014
X95.26 Y45.032
X61.361 Y45.161
X45.884 Y45.219
X41.102 Y45.236
X40.765 Y45.233
X40.283 Y45.205
X39.803 Y45.151
X39.302 Y45.065
X39.01 Y45.007
X38.805 Y44.983
X38.598 Y44.978
X38.391 Y44.99
X38.182 Y45.019
X37.831 Y45.076
X37.419 Y45.118
X36.785 Y45.141
X36.749 Y45.147
X36.703 Y45.173
X36.67 Y45.175
X36.641 Y45.158
X36.627 Y45.128
X36.648 Y44.975
X36.728 Y44.465
X36.75 Y44.223
X36.798 Y43.833
X36.822 Y43.489
Y43.145
X36.799 Y42.801
X36.752 Y42.459
X36.672 Y41.976
X36.62 Y41.497
X36.594 Y41.015
X36.595 Y40.532
X36.622 Y40.05
X36.677 Y39.571
X36.763 Y39.073
X36.8 Y38.849
X36.821 Y38.574
X36.814 Y38.298
X36.777 Y38.001
X36.721 Y37.61
X36.699 Y37.373
X36.686 Y37.095
X36.683 Y36.902
X36.629 Y36.624
Y36.556
X36.655 Y36.493
X36.704 Y36.444
X36.767 Y36.418
X36.84 Y36.419
X36.964 Y36.444
X37.283 Y36.464
X37.63 Y36.478
X37.961 Y36.512
X38.362 Y36.57
X38.637 Y36.59
X38.913 Y36.583
X39.183 Y36.548
X39.722 Y36.45
X40.2 Y36.389
X40.682 Y36.353
X41.178 Y36.342
X95.132 Y36.145
X95.614 Y36.159
X96.095 Y36.197
X96.574 Y36.258
X96.981 Y36.33
X97.276 Y36.383
X97.55 Y36.408
X97.826
X98.1 Y36.382
X98.627 Y36.302
X99.061 Y36.264
X99.531 Y36.24
X99.605 Y36.222
X99.638 Y36.213
X99.672 Y36.214
X99.705 Y36.224
X99.734 Y36.243
X99.755 Y36.267
X99.769 Y36.296
X99.775 Y36.327
X99.759 Y36.427
X99.724 Y36.603
X99.692 Y36.884
X99.665 Y37.243
X99.6 Y37.727
X99.573 Y38.071
X99.576 Y38.415
X99.608 Y38.759
X99.683 Y39.181
X99.758 Y39.658
X99.808 Y40.138
X99.833 Y40.62
Y41.102
X99.807 Y41.584
X99.756 Y42.064
X99.659 Y42.681
X99.627 Y43.024
X99.62 Y43.369
X99.639 Y43.713
X99.698 Y44.175
X99.722 Y44.425
X99.735 Y44.626
X99.738 Y44.881
X99.749 Y44.987
X99.77 Y45.107
X99.762 Y45.21
X99.724 Y45.306
X99.659 Y45.385
X99.572 Y45.441
X99.473 Y45.468
X99.381 Y45.466
X99.093 Y45.438
X98.686 Y45.416
X98.255 Y45.369
X97.842 Y45.342
X97.429 Y45.344
X97.016 Y45.376
X96.59 Y45.438
X96.111 Y45.504
X95.631 Y45.545
X95.207 Y45.559
X61.361 Y45.684
X48.086 Y45.732
X42.274 Y45.753
X40.826 Y45.756
X40.344 Y45.734
X39.863 Y45.688
X39.386 Y45.619
X38.855 Y45.515
X38.582 Y45.478
X38.306 Y45.468
X38.031 Y45.487
X37.845 Y45.514
X37.461 Y45.576
X37.05 Y45.62
X36.711 Y45.637
X36.282 Y45.65
X36.225 Y45.666
X36.177 Y45.689
X36.144 Y45.681
X36.12 Y45.656
X36.116 Y45.618
X36.215 Y45.14
X36.23 Y44.805
X36.265 Y44.453
X36.303 Y44.136
X36.325 Y43.792
X36.326 Y43.447
X36.306 Y43.103
X36.265 Y42.761
X36.185 Y42.297
X36.122 Y41.819
X36.083 Y41.338
X36.067 Y40.855
X36.076 Y40.373
X36.108 Y39.892
X36.165 Y39.412
X36.243 Y38.951
X36.298 Y38.641
X36.322 Y38.366
Y38.09
X36.298 Y37.816
X36.215 Y37.248
X36.184 Y36.914
X36.174 Y36.657
X36.171 Y36.441
X36.079 Y35.976
X36.082 Y35.943
X36.104 Y35.918
X36.135 Y35.91
X36.184 Y35.932
X36.225 Y35.944
X36.456 Y35.928
X36.8 Y35.95
X37.151 Y35.961
X37.514 Y35.994
X38.108 Y36.077
X38.383 Y36.093
X38.659 Y36.084
X38.932 Y36.05
X39.443 Y35.955
X39.989 Y35.88
X40.538 Y35.833
X41.09 Y35.815
X95.125 Y35.624
X95.676 Y35.64
X96.226 Y35.684
X96.773 Y35.756
X97.356 Y35.863
X97.629 Y35.902
X97.904 Y35.919
X98.18 Y35.913
X98.454 Y35.885
X98.986 Y35.803
X99.26 Y35.773
X99.637 Y35.749
X100.025 Y35.729
X100.1 Y35.712
X100.152 Y35.691
X100.203 Y35.697
X100.24 Y35.732
X100.248 Y35.778
X100.226 Y35.844
X100.217 Y35.952
X100.192 Y36.573
X100.153 Y36.985
X100.092 Y37.436
X100.068 Y37.78
X100.07 Y38.124
X100.099 Y38.468
X100.155 Y38.818
X100.245 Y39.324
X100.306 Y39.802
X100.344 Y40.283
X100.36 Y40.766
X100.353 Y41.248
X100.323 Y41.73
X100.27 Y42.209
X100.199 Y42.661
X100.15 Y43.002
X100.123 Y43.346
X100.12 Y43.69
X100.141 Y44.034
X100.17 Y44.285
X100.218 Y44.658
X100.247 Y45.049
X100.254 Y45.392
X100.293 Y45.621
X100.286 Y45.724
X100.249 Y45.82
X100.186 Y45.901
X100.101 Y45.959
X100.002 Y45.99
X99.949 Y45.994
X99.819 Y45.978
X99.549 Y45.953
X99.117 Y45.93
X98.549 Y45.87
X98.136 Y45.845
X97.723 Y45.846
X97.31 Y45.873
X96.968 Y45.916
X96.487 Y45.992
X96.007 Y46.046
X95.526 Y46.078
X94.948 Y46.087
X61.361 Y46.207
X55.167 Y46.229
X46.573 Y46.26
X40.956 Y46.279
X40.405 Y46.261
X39.855 Y46.215
X39.309 Y46.142
X38.892 Y46.067
X38.496 Y45.989
X38.221 Y45.962
X37.946 Y45.961
X37.74 Y45.976
X37.508 Y46.01
X37.022 Y46.087
X36.611 Y46.128
X36.055 Y46.152
X35.781 Y46.16
X35.717 Y46.177
X35.668 Y46.202
X35.634 Y46.197
X35.607 Y46.176
X35.595 Y46.144
X35.611 Y46.057
X35.706 Y45.596
X35.722 Y45.225
X35.762 Y44.836
X35.802 Y44.507
X35.829 Y44.095
X35.828 Y43.681
X35.8 Y43.268
X35.744 Y42.859
X35.647 Y42.277
X35.585 Y41.729
X35.55 Y41.179
X35.544 Y40.627
X35.566 Y40.076
X35.617 Y39.527
X35.696 Y38.981
X35.795 Y38.433
X35.823 Y38.158
X35.828 Y37.883
X35.811 Y37.607
X35.766 Y37.285
X35.708 Y36.886
X35.67 Y36.456
X35.661 Y36.218
X35.658 Y35.979
X35.568 Y35.523
X35.555 Y35.448
X35.567 Y35.417
X35.595 Y35.396
X35.629 Y35.394
X35.695 Y35.426
X35.742 Y35.431
X35.973 Y35.413
X36.339 Y35.436
X36.713 Y35.447
X37.135 Y35.485
X37.716 Y35.567
X37.991 Y35.592
X38.267 Y35.593
X38.542 Y35.572
X38.825 Y35.526
X39.368 Y35.428
X39.914 Y35.356
X40.464 Y35.309
X41.015 Y35.289
X51.056 Y35.254
X95.118 Y35.102
X95.669 Y35.117
X96.219 Y35.156
X96.767 Y35.222
X97.311 Y35.312
X97.641 Y35.376
X97.914 Y35.412
X98.189 Y35.427
X98.465 Y35.422
X98.739 Y35.396
X99.345 Y35.303
X99.808 Y35.256
X100.516 Y35.218
X100.598 Y35.199
X100.655 Y35.177
X100.705 Y35.181
X100.746 Y35.212
X100.76 Y35.246
X100.759 Y35.285
X100.737 Y35.345
X100.728 Y35.457
X100.7 Y36.141
X100.662 Y36.553
X100.591 Y37.076
X100.565 Y37.42
X100.563 Y37.764
X100.584 Y38.108
X100.628 Y38.45
X100.728 Y38.99
X100.806 Y39.536
X100.858 Y40.085
X100.882 Y40.636
X100.88 Y41.187
X100.85 Y41.738
X100.793 Y42.287
X100.722 Y42.764
X100.665 Y43.118
X100.631 Y43.461
X100.619 Y43.805
X100.627 Y44.15
X100.657 Y44.493
X100.719 Y44.96
X100.755 Y45.381
X100.764 Y45.672
X100.768 Y45.85
X100.829 Y46.193
X100.834 Y46.262
X100.822 Y46.329
X100.794 Y46.392
X100.752 Y46.447
X100.698 Y46.49
X100.636 Y46.518
X100.569 Y46.531
X100.501 Y46.528
X100.22 Y46.487
X99.868 Y46.459
X99.64 Y46.45
X99.34 Y46.426
X98.775 Y46.366
X98.362 Y46.346
X97.948 Y46.35
X97.535 Y46.378
X97.125 Y46.43
X96.52 Y46.523
X95.972 Y46.58
X95.421 Y46.61
X93.93 Y46.617
X61.361 Y46.731
X58.781 Y46.74
X53.452 Y46.758
X43.171 Y46.794
X40.879 Y46.8
X40.328 Y46.78
X39.778 Y46.735
X39.231 Y46.664
X38.687 Y46.568
X38.273 Y46.486
X37.998 Y46.456
X37.723 Y46.45
X37.448 Y46.466
X37.103 Y46.517
X36.652 Y46.588
X36.172 Y46.636
X35.813 Y46.654
X35.279 Y46.67
X35.231 Y46.678
X35.175 Y46.71
X35.141 Y46.716
X35.109 Y46.706
X35.085 Y46.681
X35.075 Y46.648
X35.106 Y46.496
X35.188 Y46.106
X35.201 Y45.998
X35.215 Y45.646
X35.251 Y45.273
X35.3 Y44.879
X35.329 Y44.467
X35.333 Y44.053
X35.313 Y43.64
X35.267 Y43.229
X35.16 Y42.598
X35.087 Y42.052
X35.041 Y41.502
X35.02 Y40.951
X35.025 Y40.399
X35.056 Y39.849
X35.113 Y39.3
X35.195 Y38.755
X35.293 Y38.224
X35.322 Y37.95
X35.332 Y37.675
X35.321 Y37.399
X35.3 Y37.194
X35.202 Y36.523
X35.16 Y36.066
X35.148 Y35.779
X35.145 Y35.518
X35.068 Y35.124
X35.034 Y34.955
X35.036 Y34.921
X35.054 Y34.892
X35.084 Y34.877
X35.119 Y34.878
X35.185 Y34.912
X35.237 Y34.917
X35.49 Y34.897
X35.878 Y34.923
X36.333 Y34.937
X36.757 Y34.976
X37.462 Y35.074
X37.737 Y35.095
X38.012 Y35.094
X38.287 Y35.074
X38.56 Y35.032
X39.157 Y34.922
X39.703 Y34.847
X40.252 Y34.795
X40.803 Y34.766
X41.964 Y34.758
X95.042 Y34.58
X95.593 Y34.59
X96.144 Y34.624
X96.692 Y34.681
X97.238 Y34.761
X97.857 Y34.878
X98.131 Y34.915
X98.406 Y34.934
X98.681
X98.956 Y34.915
X99.207 Y34.881
X99.705 Y34.803
X100.116 Y34.758
X100.514 Y34.732
X101.008 Y34.707
X101.053 Y34.701
X101.157 Y34.662
X101.208 Y34.664
X101.251 Y34.692
X101.272 Y34.728
X101.274 Y34.778
X101.248 Y34.846
X101.239 Y34.962
X101.208 Y35.708
X101.164 Y36.188
X101.1 Y36.647
X101.067 Y36.99
X101.056 Y37.335
X101.066 Y37.679
X101.099 Y38.023
X101.14 Y38.295
X101.233 Y38.792
X101.314 Y39.338
X101.37 Y39.886
X101.402 Y40.437
X101.408 Y40.988
X101.39 Y41.54
X101.347 Y42.089
X101.279 Y42.637
X101.172 Y43.302
X101.132 Y43.714
X101.118 Y44.127
X101.133 Y44.541
X101.176 Y44.952
X101.226 Y45.318
X101.262 Y45.72
X101.276 Y46.039
X101.281 Y46.308
X101.353 Y46.71
X101.378 Y46.861
X101.362 Y46.928
X101.32 Y46.982
X101.259 Y47.014
X101.189 Y47.018
X101.105 Y46.993
X100.986 Y46.986
X100.167 Y46.967
X99.686 Y46.931
X99.138 Y46.873
X98.725 Y46.851
X98.311 Y46.85
X97.898 Y46.872
X97.487 Y46.915
X96.827 Y47.018
X96.279 Y47.083
X95.729 Y47.125
X95.256 Y47.139
X61.361 Y47.255
X56.616 Y47.271
X51.871 Y47.287
X48.708 Y47.298
X45.336 Y47.309
X40.94 Y47.322
X40.389 Y47.307
X39.839 Y47.268
X39.291 Y47.205
X38.746 Y47.12
X38.185 Y47.007
X37.913 Y46.964
X37.638 Y46.943
X37.362
X37.087 Y46.964
X36.53 Y47.053
X36.145 Y47.107
X35.664 Y47.149
X34.88 Y47.177
X34.751 Y47.182
X34.701 Y47.2
X34.648 Y47.229
X34.614 Y47.228
X34.584 Y47.213
X34.563 Y47.186
X34.557 Y47.138
X34.678 Y46.566
X34.692 Y46.449
X34.707 Y46.067
X34.744 Y45.685
X34.805 Y45.182
X34.832 Y44.77
X34.837 Y44.356
X34.818 Y43.943
X34.776 Y43.531
X34.699 Y43.055
X34.612 Y42.51
X34.549 Y41.962
X34.51 Y41.412
X34.494 Y40.861
X34.503 Y40.309
X34.535 Y39.759
X34.591 Y39.21
X34.671 Y38.664
X34.767 Y38.152
X34.815 Y37.811
X34.835 Y37.467
X34.825 Y37.122
X34.796 Y36.848
X34.695 Y36.161
X34.654 Y35.745
X34.637 Y35.408
X34.635 Y35.117
X34.623 Y34.995
X34.511 Y34.444
X34.512 Y34.41
X34.529 Y34.381
X34.558 Y34.362
X34.592 Y34.358
X34.65 Y34.387
X34.704 Y34.403
X34.869 Y34.391
X35.007 Y34.381
X35.417 Y34.409
X35.888 Y34.423
X36.31 Y34.459
X36.889 Y34.538
X37.207 Y34.58
X37.482 Y34.598
X37.758 Y34.596
X38.033 Y34.575
X38.306 Y34.536
X38.946 Y34.417
X39.56 Y34.33
X40.178 Y34.271
X40.797 Y34.239
X41.973 Y34.231
X95.035 Y34.058
X95.655 Y34.07
X96.275 Y34.109
X96.892 Y34.176
X97.505 Y34.269
X98.142 Y34.39
X98.484 Y34.43
X98.829 Y34.444
X99.173 Y34.43
X99.447 Y34.399
X100.065 Y34.303
X100.545 Y34.25
X101.159 Y34.214
X101.499 Y34.196
X101.549 Y34.189
X101.643 Y34.153
X101.676 Y34.145
X101.711 Y34.148
X101.742 Y34.162
X101.767 Y34.185
X101.782 Y34.211
X101.789 Y34.24
X101.788 Y34.27
X101.76 Y34.346
X101.75 Y34.466
X101.721 Y35.206
X101.681 Y35.687
X101.6 Y36.287
X101.562 Y36.699
X101.552 Y37.112
X101.57 Y37.525
X101.618 Y37.936
X101.738 Y38.594
X101.83 Y39.208
X101.893 Y39.825
X101.927 Y40.445
X101.932 Y41.065
X101.908 Y41.685
X101.855 Y42.303
X101.773 Y42.918
X101.68 Y43.487
X101.637 Y43.898
X101.619 Y44.311
X101.627 Y44.725
X101.661 Y45.137
X101.747 Y45.811
X101.779 Y46.212
X101.789 Y46.474
X101.794 Y46.765
X101.867 Y47.173
X101.897 Y47.328
X101.896 Y47.397
X101.869 Y47.46
X101.82 Y47.508
X101.757 Y47.534
X101.681 Y47.532
X101.604 Y47.508
X101.48 Y47.5
X100.668 Y47.483
X100.186 Y47.453
X99.501 Y47.38
X99.019 Y47.353
X98.536 Y47.354
X98.055 Y47.382
X97.575 Y47.438
X96.86 Y47.549
X96.244 Y47.618
X95.624 Y47.658
X95.065 Y47.667
X61.361 Y47.779
X48.836 Y47.82
X43.171 Y47.838
X40.864 Y47.844
X40.244 Y47.823
X39.625 Y47.774
X39.009 Y47.698
X38.397 Y47.595
X37.894 Y47.492
X37.621 Y47.453
X37.346 Y47.434
X37.07
X36.795 Y47.454
X36.36 Y47.521
X35.979 Y47.582
X35.5 Y47.637
X35.102 Y47.664
X34.274 Y47.69
X34.219 Y47.7
X34.139 Y47.743
X34.088 Y47.739
X34.049 Y47.707
X34.035 Y47.661
X34.109 Y47.308
X34.179 Y46.965
X34.19 Y46.665
X34.209 Y46.372
X34.25 Y45.987
X34.309 Y45.486
X34.337 Y45.004
Y44.521
X34.307 Y44.04
X34.247 Y43.561
X34.124 Y42.831
X34.045 Y42.216
X33.994 Y41.598
X33.971 Y40.978
X33.976 Y40.357
X34.009 Y39.738
X34.07 Y39.12
X34.158 Y38.506
X34.263 Y37.944
X34.313 Y37.603
X34.336 Y37.259
X34.332 Y36.914
X34.302 Y36.571
X34.188 Y35.799
X34.144 Y35.354
X34.124 Y34.98
X34.122 Y34.661
X34.109 Y34.529
X33.988 Y33.934
X33.995 Y33.883
X34.031 Y33.848
X34.064 Y33.84
X34.09 Y33.844
X34.167 Y33.883
X34.227 Y33.889
X34.525 Y33.866
X34.887 Y33.892
X35.299 Y33.902
X35.788 Y33.934
X36.205 Y33.983
X36.884 Y34.079
X37.228 Y34.1
X37.573 Y34.094
X37.916 Y34.06
X38.328 Y33.985
X38.939 Y33.879
X39.554 Y33.798
X40.172 Y33.742
X40.792 Y33.712
X41.844 Y33.704
X95.097 Y33.536
X95.718 Y33.549
X96.337 Y33.589
X96.954 Y33.653
X97.568 Y33.743
X98.043 Y33.83
X98.359 Y33.891
X98.701 Y33.933
X99.045 Y33.951
X99.39 Y33.943
X99.733 Y33.91
X100.288 Y33.822
X100.836 Y33.754
X101.254 Y33.722
X101.991 Y33.685
X102.044 Y33.678
X102.146 Y33.639
X102.179 Y33.63
X102.213 Y33.632
X102.246 Y33.644
X102.273 Y33.665
X102.292 Y33.693
X102.303 Y33.726
Y33.76
X102.271 Y33.846
X102.263 Y33.902
X102.226 Y34.841
X102.184 Y35.322
X102.149 Y35.596
X102.092 Y35.995
X102.056 Y36.407
X102.047 Y36.821
X102.064 Y37.234
X102.108 Y37.645
X102.18 Y38.058
X102.288 Y38.669
X102.37 Y39.284
X102.425 Y39.902
X102.454 Y40.521
X102.455 Y41.142
X102.43 Y41.762
X102.377 Y42.38
X102.298 Y42.995
X102.208 Y43.535
X102.155 Y43.945
X102.125 Y44.358
X102.119 Y44.771
X102.137 Y45.184
X102.179 Y45.596
X102.247 Y46.103
X102.287 Y46.56
X102.302 Y46.91
X102.307 Y47.218
X102.356 Y47.501
X102.418 Y47.83
Y47.898
X102.394 Y47.962
X102.349 Y48.014
X102.288 Y48.046
X102.223 Y48.054
X102.159 Y48.04
X102.103 Y48.023
X101.975 Y48.015
X101.031 Y47.994
X100.549 Y47.961
X99.864 Y47.888
X99.382 Y47.858
X98.899 Y47.855
X98.417 Y47.877
X97.937 Y47.924
X97.371 Y48.011
X96.757 Y48.097
X96.139 Y48.156
X95.519 Y48.189
X94.737 Y48.195
X61.361 Y48.303
X52.662 Y48.331
X50.215 Y48.339
X44.026 Y48.358
X40.856 Y48.366
X40.236 Y48.346
X39.617 Y48.301
X39.001 Y48.23
X38.388 Y48.133
X37.833 Y48.023
X37.534 Y47.968
X37.191 Y47.931
X36.847 Y47.924
X36.503 Y47.945
X36.189 Y47.989
X35.54 Y48.093
X35.06 Y48.146
X34.532 Y48.178
X33.772 Y48.2
X33.712 Y48.212
X33.628 Y48.256
X33.577 Y48.255
X33.535 Y48.227
X33.518 Y48.191
X33.517 Y48.152
X33.658 Y47.489
X33.674 Y47.353
X33.688 Y46.962
X33.721 Y46.578
X33.8 Y45.926
X33.835 Y45.445
X33.843 Y44.962
X33.823 Y44.48
X33.776 Y44.
X33.715 Y43.591
X33.616 Y43.016
X33.535 Y42.401
X33.479 Y41.783
X33.45 Y41.163
X33.447 Y40.543
X33.469 Y39.923
X33.518 Y39.304
X33.593 Y38.688
X33.695 Y38.069
X33.772 Y37.668
X33.818 Y37.326
X33.839 Y36.982
X33.836 Y36.637
X33.807 Y36.294
X33.681 Y35.437
X33.639 Y35.033
X33.614 Y34.62
X33.61 Y34.324
X33.606 Y34.135
X33.554 Y33.859
X33.466 Y33.423
X33.471 Y33.373
X33.505 Y33.334
X33.553 Y33.322
X33.599 Y33.339
X33.657 Y33.369
X33.722 Y33.375
X33.97 Y33.353
X34.113
X34.495 Y33.381
X34.932 Y33.392
X35.447 Y33.429
X35.976 Y33.495
X36.561 Y33.578
X36.905 Y33.601
X37.249 Y33.599
X37.593 Y33.571
X37.866 Y33.53
X38.456 Y33.418
X39.069 Y33.323
X39.685 Y33.252
X40.304 Y33.205
X40.924 Y33.182
X45.094 Y33.167
X95.091 Y33.013
X95.78 Y33.029
X96.468 Y33.074
X97.153 Y33.148
X97.835 Y33.251
X98.576 Y33.391
X98.918 Y33.436
X99.262 Y33.457
X99.607 Y33.455
X99.95 Y33.429
X100.366 Y33.367
X100.922 Y33.284
X101.47 Y33.228
X102.244 Y33.186
X102.483 Y33.174
X102.54 Y33.166
X102.649 Y33.124
X102.682 Y33.115
X102.716 Y33.116
X102.749 Y33.126
X102.778 Y33.145
X102.8 Y33.171
X102.814 Y33.203
X102.818 Y33.237
X102.805 Y33.291
X102.777 Y33.376
X102.755 Y33.957
X102.73 Y34.477
X102.678 Y35.026
X102.585 Y35.703
X102.551 Y36.115
X102.543 Y36.529
X102.559 Y36.942
X102.6 Y37.354
X102.665 Y37.762
X102.783 Y38.403
X102.871 Y39.017
X102.933 Y39.634
X102.97 Y40.254
X102.983 Y40.874
X102.97 Y41.494
X102.932 Y42.114
X102.869 Y42.731
X102.781 Y43.345
X102.696 Y43.856
X102.648 Y44.267
X102.623 Y44.68
X102.62 Y45.093
X102.64 Y45.506
X102.681 Y45.918
X102.754 Y46.462
X102.793 Y46.879
X102.813 Y47.237
X102.817 Y47.602
X102.832 Y47.761
X102.939 Y48.331
X102.94 Y48.4
X102.919 Y48.465
X102.876 Y48.519
X102.819 Y48.556
X102.752 Y48.572
X102.684 Y48.564
X102.601 Y48.538
X102.469 Y48.53
X101.462 Y48.507
X100.912 Y48.47
X100.227 Y48.395
X99.745 Y48.364
X99.263 Y48.356
X98.78 Y48.373
X98.3 Y48.413
X97.821 Y48.477
X97.268 Y48.566
X96.653 Y48.642
X96.034 Y48.693
X95.483 Y48.717
X94.477 Y48.723
X61.361 Y48.828
X55.035 Y48.847
X53.452 Y48.852
X51.732 Y48.858
X45.544 Y48.877
X41.24 Y48.889
X40.572 Y48.884
X39.953 Y48.854
X39.334 Y48.8
X38.719 Y48.723
X38.107 Y48.622
X37.581 Y48.516
X37.242 Y48.455
X36.899 Y48.422
X36.554 Y48.415
X36.21 Y48.436
X35.863 Y48.484
X35.169 Y48.595
X34.621 Y48.655
X34.22 Y48.682
X33.393 Y48.708
X33.269 Y48.711
X33.205 Y48.723
X33.118 Y48.77
X33.067 Y48.772
X33.023 Y48.746
X32.999 Y48.706
X32.997 Y48.659
X33.148 Y47.95
X33.165 Y47.805
X33.179 Y47.396
X33.213 Y46.991
X33.298 Y46.298
X33.335 Y45.817
X33.346 Y45.335
X33.331 Y44.852
X33.292 Y44.371
X33.227 Y43.893
X33.097 Y43.133
X33.017 Y42.518
X32.96 Y41.9
X32.928 Y41.28
X32.92 Y40.66
X32.937 Y40.039
X32.978 Y39.42
X33.043 Y38.803
X33.133 Y38.189
X33.268 Y37.459
X33.316 Y37.118
X33.34 Y36.774
X33.341 Y36.429
X33.319 Y36.086
X33.251 Y35.595
X33.158 Y34.937
X33.114 Y34.437
X33.098 Y34.123
X33.096 Y33.747
X33.084 Y33.61
X32.943 Y32.912
X32.947 Y32.862
X32.978 Y32.821
X33.029 Y32.805
X33.068 Y32.813
X33.147 Y32.854
X33.216 Y32.861
X33.482 Y32.838
X33.635 Y32.837
X34.034 Y32.867
X34.496 Y32.878
X34.969 Y32.91
X35.448 Y32.964
X36.169 Y33.068
X36.513 Y33.098
X36.857 Y33.104
X37.201 Y33.086
X37.544 Y33.045
X38.177 Y32.925
X38.858 Y32.816
X39.542 Y32.735
X40.23 Y32.681
X40.919 Y32.655
X42.828 Y32.647
X95.084 Y32.49
X95.773 Y32.505
X96.461 Y32.547
X97.147 Y32.616
X97.83 Y32.713
X98.508 Y32.837
X98.861 Y32.903
X99.203 Y32.945
X99.547 Y32.964
X99.892 Y32.962
X100.236 Y32.938
X100.64 Y32.881
X101.282 Y32.783
X101.83 Y32.725
X102.338 Y32.694
X102.975 Y32.662
X103.036 Y32.653
X103.152 Y32.609
X103.185 Y32.6
X103.219 Y32.599
X103.253 Y32.608
X103.282 Y32.625
X103.306 Y32.65
X103.323 Y32.68
X103.332 Y32.713
X103.326 Y32.768
X103.295 Y32.847
X103.286 Y32.91
X103.247 Y33.906
X103.203 Y34.455
X103.153 Y34.866
X103.094 Y35.274
X103.054 Y35.686
X103.038 Y36.099
X103.046 Y36.513
X103.076 Y36.925
X103.13 Y37.335
X103.266 Y38.069
X103.37 Y38.75
X103.445 Y39.436
X103.491 Y40.124
X103.507 Y40.813
X103.495 Y41.502
X103.454 Y42.19
X103.384 Y42.876
X103.285 Y43.558
X103.194 Y44.109
X103.143 Y44.589
X103.12 Y45.071
X103.126 Y45.553
X103.16 Y46.034
X103.201 Y46.369
X103.277 Y46.965
X103.316 Y47.458
X103.328 Y47.73
X103.33 Y48.055
X103.341 Y48.192
X103.461 Y48.832
X103.462 Y48.901
X103.443 Y48.967
X103.403 Y49.023
X103.349 Y49.064
X103.284 Y49.086
X103.215 Y49.087
X103.1 Y49.053
X102.964 Y49.044
X101.894 Y49.021
X101.344 Y48.984
X100.59 Y48.903
X100.04 Y48.867
X99.488 Y48.86
X98.937 Y48.882
X98.388 Y48.934
X97.847 Y49.013
X97.165 Y49.116
X96.48 Y49.189
X95.792 Y49.234
X95.39 Y49.247
X58.198 Y49.362
X54.344 Y49.373
X52.662 Y49.378
X50.767 Y49.384
X48.707 Y49.39
X45.545 Y49.4
X42.688 Y49.408
X40.771 Y49.411
X40.082 Y49.387
X39.395 Y49.335
X38.71 Y49.255
X38.029 Y49.147
X37.358 Y49.014
X37.018 Y48.953
X36.676 Y48.917
X36.331 Y48.906
X35.987 Y48.921
X35.673 Y48.957
X34.866 Y49.088
X34.318 Y49.153
X33.778 Y49.191
X32.766 Y49.222
X32.699 Y49.235
X32.638 Y49.268
X32.608 Y49.284
X32.574 Y49.289
X32.54 Y49.283
X32.51 Y49.265
X32.48 Y49.221
X32.476 Y49.167
X32.637 Y48.412
X32.655 Y48.257
X32.669 Y47.831
X32.721 Y47.266
X32.802 Y46.602
X32.837 Y46.121
X32.848 Y45.638
X32.835 Y45.156
X32.799 Y44.675
X32.738 Y44.196
X32.6 Y43.386
X32.507 Y42.703
X32.441 Y42.016
X32.404 Y41.328
X32.396 Y40.639
X32.415 Y39.95
X32.463 Y39.262
X32.539 Y38.577
X32.643 Y37.895
X32.764 Y37.251
X32.814 Y36.91
X32.841 Y36.566
X32.846 Y36.221
X32.829 Y35.877
X32.79 Y35.539
X32.667 Y34.712
X32.613 Y34.184
X32.586 Y33.695
X32.58 Y33.221
X32.54 Y32.993
X32.42 Y32.402
X32.423 Y32.351
X32.453 Y32.309
X32.482 Y32.292
X32.529 Y32.288
X32.572 Y32.306
X32.633 Y32.338
X32.711 Y32.347
X33.063 Y32.319
X33.363 Y32.338
X33.73 Y32.358
X34.129 Y32.368
X34.56 Y32.397
X35.069 Y32.454
X35.846 Y32.567
X36.189 Y32.598
X36.534 Y32.607
X36.878 Y32.593
X37.221 Y32.557
X37.627 Y32.485
X38.306 Y32.362
X38.988 Y32.264
X39.674 Y32.192
X40.362 Y32.146
X41.051 Y32.126
X72.208 Y32.034
X95.146 Y31.967
X95.835 Y31.983
X96.523 Y32.026
X97.209 Y32.093
X97.893 Y32.187
X98.572 Y32.306
X99.01 Y32.392
X99.352 Y32.44
X99.695 Y32.467
X100.04 Y32.473
X100.384 Y32.458
X100.727 Y32.423
X101.574 Y32.291
X102.122 Y32.229
X102.571 Y32.195
X103.467 Y32.15
X103.532 Y32.141
X103.655 Y32.094
X103.688 Y32.084
X103.722 Y32.083
X103.756 Y32.091
X103.787 Y32.106
X103.812 Y32.129
X103.832 Y32.157
X103.844 Y32.19
X103.843 Y32.254
X103.807 Y32.346
X103.798 Y32.414
X103.757 Y33.472
X103.713 Y34.022
X103.645 Y34.569
X103.579 Y35.051
X103.545 Y35.463
X103.534 Y35.876
X103.544 Y36.29
X103.577 Y36.702
X103.631 Y37.112
X103.747 Y37.735
X103.858 Y38.416
X103.942 Y39.1
X103.999 Y39.787
X104.028 Y40.476
X104.03 Y41.165
X104.005 Y41.854
X103.952 Y42.541
X103.872 Y43.226
X103.765 Y43.907
X103.693 Y44.362
X103.644 Y44.842
X103.621 Y45.324
X103.625 Y45.806
X103.656 Y46.288
X103.716 Y46.785
X103.79 Y47.377
X103.829 Y47.874
X103.842 Y48.286
X103.846 Y48.577
X103.873 Y48.756
X103.982 Y49.334
X103.984 Y49.402
X103.967 Y49.469
X103.93 Y49.527
X103.878 Y49.572
X103.815 Y49.599
X103.747 Y49.607
X103.668 Y49.59
X103.568 Y49.564
X103.045 Y49.551
X102.257 Y49.531
X101.707 Y49.493
X100.953 Y49.41
X100.403 Y49.372
X99.851 Y49.362
X99.3 Y49.379
X98.75 Y49.423
X98.204 Y49.495
X97.472 Y49.611
X96.787 Y49.692
X96.1 Y49.746
X95.406 Y49.773
X53.453 Y49.9
X51.871 Y49.905
X47.19 Y49.919
X44.647 Y49.926
X40.901 Y49.936
X40.212 Y49.918
X39.524 Y49.873
X38.838 Y49.803
X38.156 Y49.707
X37.613 Y49.611
X37.066 Y49.498
X36.726 Y49.441
X36.383 Y49.408
X36.039 Y49.398
X35.694 Y49.413
X35.347 Y49.452
X34.563 Y49.58
X34.016 Y49.649
X33.466 Y49.693
X33.043 Y49.71
X32.263 Y49.733
X32.196 Y49.745
X32.127 Y49.782
X32.097 Y49.798
X32.063 Y49.804
X32.029 Y49.799
X31.998 Y49.784
X31.976 Y49.763
X31.961 Y49.736
X31.954 Y49.705
X31.97 Y49.607
X32.126 Y48.873
X32.145 Y48.737
X32.16 Y48.265
X32.205 Y47.748
X32.293 Y47.043
X32.336 Y46.493
X32.35 Y45.942
X32.335 Y45.39
X32.291 Y44.841
X32.217 Y44.294
X32.092 Y43.571
X31.997 Y42.888
X31.928 Y42.202
X31.886 Y41.514
X31.87 Y40.825
X31.881 Y40.135
X31.919 Y39.447
X31.984 Y38.761
X32.074 Y38.077
X32.198 Y37.364
X32.283 Y36.906
X32.325 Y36.564
X32.347 Y36.22
Y35.875
X32.326 Y35.531
X32.295 Y35.257
X32.169 Y34.418
X32.108 Y33.862
X32.076 Y33.336
X32.07 Y32.833
X32.059 Y32.696
X31.897 Y31.891
X31.896 Y31.857
X31.906 Y31.824
X31.927 Y31.796
X31.956 Y31.778
X32.009 Y31.77
X32.058 Y31.79
X32.119 Y31.822
X32.186 Y31.834
X32.574 Y31.803
X32.817 Y31.817
X33.18 Y31.842
X33.625 Y31.851
X34.15 Y31.885
X34.69 Y31.945
X35.455 Y32.056
X35.797 Y32.093
X36.142 Y32.108
X36.486 Y32.102
X36.83 Y32.076
X37.171 Y32.028
X37.959 Y31.879
X38.64 Y31.774
X39.325 Y31.694
X40.012 Y31.638
X40.701 Y31.606
X41.743 Y31.597
X95.07 Y31.443
X95.76 Y31.456
X96.448 Y31.494
X97.135 Y31.555
X97.819 Y31.641
X98.499 Y31.751
X99.228 Y31.892
X99.637 Y31.948
X100.05 Y31.977
X100.464
X100.876 Y31.948
X101.255 Y31.897
X102.003 Y31.781
X102.62 Y31.714
X103.079 Y31.682
X103.959 Y31.638
X104.061 Y31.619
X104.158 Y31.579
X104.226 Y31.567
X104.291 Y31.588
X104.34 Y31.635
X104.361 Y31.7
X104.359 Y31.741
X104.321 Y31.843
X104.309 Y31.917
X104.271 Y32.944
X104.23 Y33.519
X104.166 Y34.067
X104.096 Y34.553
X104.049 Y35.033
X104.03 Y35.515
X104.039 Y35.998
X104.077 Y36.479
X104.143 Y36.957
X104.253 Y37.537
X104.365 Y38.217
X104.452 Y38.901
X104.513 Y39.588
X104.548 Y40.277
X104.557 Y40.966
X104.541 Y41.655
X104.499 Y42.343
X104.431 Y43.029
X104.337 Y43.712
X104.211 Y44.478
X104.155 Y44.957
X104.125 Y45.439
X104.121 Y45.922
X104.142 Y46.404
X104.188 Y46.884
X104.291 Y47.674
X104.334 Y48.175
X104.354 Y48.577
X104.359 Y49.03
X104.388 Y49.22
X104.503 Y49.835
X104.506 Y49.904
X104.49 Y49.971
X104.456 Y50.03
X104.407 Y50.078
X104.346 Y50.11
X104.279 Y50.124
X104.197 Y50.115
X104.105 Y50.086
X104.022 Y50.076
X102.758 Y50.048
X102.139 Y50.008
X101.316 Y49.918
X100.766 Y49.878
X100.215 Y49.865
X99.663 Y49.877
X99.113 Y49.915
X98.565 Y49.979
X97.642 Y50.123
X96.958 Y50.207
X96.271 Y50.264
X95.582 Y50.296
X94.388 Y50.303
X48.708 Y50.438
X43.172 Y50.454
X40.825 Y50.458
X40.135 Y50.438
X39.447 Y50.394
X38.762 Y50.325
X38.079 Y50.231
X37.399 Y50.112
X36.707 Y49.971
X36.366 Y49.922
X36.022 Y49.896
X35.677 Y49.892
X35.333 Y49.91
X35.02 Y49.947
X34.286 Y50.069
X33.713 Y50.145
X33.164 Y50.194
X32.662 Y50.218
X31.76 Y50.244
X31.692 Y50.256
X31.616 Y50.296
X31.586 Y50.312
X31.553 Y50.319
X31.518 Y50.316
X31.487 Y50.303
X31.461 Y50.28
X31.442 Y50.251
X31.433 Y50.218
X31.435 Y50.182
X31.615 Y49.335
X31.634 Y49.198
X31.651 Y48.7
X31.697 Y48.16
X31.782 Y47.484
X31.831 Y46.934
X31.852 Y46.383
X31.845 Y45.832
X31.81 Y45.281
X31.748 Y44.733
X31.654 Y44.163
X31.542 Y43.483
X31.455 Y42.799
X31.393 Y42.113
X31.357 Y41.424
X31.345 Y40.735
X31.359 Y40.046
X31.398 Y39.357
X31.462 Y38.671
X31.551 Y37.987
X31.665 Y37.309
X31.78 Y36.698
X31.829 Y36.287
X31.851 Y35.874
X31.844 Y35.461
X31.809 Y35.049
X31.662 Y34.055
X31.604 Y33.541
X31.578 Y33.197
X31.561 Y32.816
X31.554 Y32.269
X31.522 Y31.773
X31.5 Y31.661
X31.403 Y31.358
X31.411 Y31.307
X31.446 Y31.27
X31.483 Y31.257
X31.527 Y31.264
X31.607 Y31.308
X31.675 Y31.32
X32.086 Y31.287
X32.338 Y31.302
X32.719 Y31.328
X33.327 Y31.344
X33.878 Y31.385
X34.38 Y31.444
X35.268 Y31.572
X35.68 Y31.605
X36.094 Y31.609
X36.507 Y31.584
X36.917 Y31.53
X37.748 Y31.374
X38.497 Y31.258
X39.25 Y31.17
X40.006 Y31.109
X40.764 Y31.077
X41.89 Y31.069
X95.064 Y30.92
X95.822 Y30.935
X96.579 Y30.977
X97.334 Y31.048
X98.086 Y31.146
X98.834 Y31.272
X99.513 Y31.403
X99.923 Y31.457
X100.336 Y31.484
X100.749
X101.162 Y31.457
X101.572 Y31.404
X102.295 Y31.289
X102.911 Y31.217
X103.323 Y31.184
X104.452 Y31.126
X104.52 Y31.117
X104.593 Y31.093
X104.695 Y31.054
X104.763 Y31.056
X104.823 Y31.088
X104.864 Y31.143
X104.876 Y31.202
X104.869 Y31.252
X104.834 Y31.339
X104.821 Y31.421
X104.781 Y32.505
X104.739 Y33.086
X104.668 Y33.702
X104.589 Y34.261
X104.544 Y34.741
X104.526 Y35.223
X104.535 Y35.706
X104.57 Y36.187
X104.633 Y36.666
X104.771 Y37.407
X104.882 Y38.088
X104.968 Y38.772
X105.031 Y39.458
X105.069 Y40.146
X105.083 Y40.836
X105.072 Y41.525
X105.036 Y42.214
X104.977 Y42.9
X104.893 Y43.585
X104.796 Y44.198
X104.729 Y44.594
X104.669 Y45.073
X104.632 Y45.554
X104.62 Y46.037
X104.632 Y46.519
X104.667 Y47.001
X104.736 Y47.548
X104.808 Y48.119
X104.85 Y48.631
X104.869 Y49.089
X104.873 Y49.482
X104.902 Y49.683
X105.025 Y50.337
X105.028 Y50.405
X105.014 Y50.473
X104.982 Y50.533
X104.935 Y50.584
X104.877 Y50.62
X104.811 Y50.639
X104.742 Y50.641
X104.674 Y50.623
X104.608 Y50.602
X104.516 Y50.59
X103.19 Y50.561
X102.571 Y50.522
X101.885 Y50.448
X101.336 Y50.397
X100.785 Y50.371
X100.233 Y50.37
X99.682 Y50.393
X99.133 Y50.441
X98.586 Y50.513
X97.744 Y50.646
X97.059 Y50.729
X96.372 Y50.787
X95.684 Y50.821
X94.887 Y50.829
X43.172 Y50.977
X40.817 Y50.982
X40.059 Y50.959
X39.302 Y50.909
X38.548 Y50.83
X37.797 Y50.722
X37.186 Y50.613
X36.551 Y50.482
X36.21 Y50.428
X35.867 Y50.395
X35.523 Y50.383
X35.178 Y50.392
X34.835 Y50.423
X34.402 Y50.49
X33.82 Y50.586
X33.205 Y50.663
X32.586 Y50.712
X32.142 Y50.73
X31.254 Y50.755
X31.186 Y50.767
X31.107 Y50.808
X31.077 Y50.824
X31.043 Y50.829
X31.009 Y50.823
X30.98 Y50.806
X30.959 Y50.784
X30.947 Y50.756
X30.943 Y50.726
X30.969 Y50.63
X31.066 Y50.318
X31.099 Y49.985
X31.127 Y49.573
X31.152 Y48.994
X31.197 Y48.505
X31.294 Y47.719
X31.337 Y47.169
X31.354 Y46.618
X31.345 Y46.067
X31.309 Y45.516
X31.247 Y44.968
X31.158 Y44.416
X31.033 Y43.668
X30.937 Y42.916
X30.869 Y42.161
X30.83 Y41.403
X30.82 Y40.645
X30.839 Y39.887
X30.887 Y39.13
X30.964 Y38.376
X31.07 Y37.625
X31.157 Y37.119
X31.276 Y36.489
X31.327 Y36.079
X31.352 Y35.666
X31.35 Y35.253
X31.321 Y34.84
X31.256 Y34.365
X31.138 Y33.556
X31.088 Y33.082
X31.053 Y32.532
X31.043 Y31.882
X31.026 Y31.557
X31.007 Y31.283
X30.984 Y31.165
X30.882 Y30.846
X30.889 Y30.796
X30.921 Y30.756
X30.96 Y30.74
X31.011 Y30.746
X31.093 Y30.791
X31.161 Y30.805
X31.529 Y30.775
X31.667 Y30.772
X32.257 Y30.814
X32.891 Y30.83
X33.468 Y30.872
X34.07 Y30.944
X34.945 Y31.07
X35.357 Y31.104
X35.771 Y31.111
X36.184 Y31.091
X36.595 Y31.044
X37.062 Y30.958
X37.809 Y30.823
X38.559 Y30.715
X39.313 Y30.633
X40.07 Y30.577
X40.827 Y30.549
X42.864 Y30.54
X95.057 Y30.396
X95.815 Y30.41
X96.573 Y30.451
X97.328 Y30.518
X98.081 Y30.611
X98.83 Y30.731
X99.662 Y30.892
X100.072 Y30.951
X100.484 Y30.985
X100.897 Y30.993
X101.311 Y30.977
X101.722 Y30.934
X102.519 Y30.808
X103.135 Y30.729
X103.654 Y30.682
X104.509 Y30.636
X104.944 Y30.614
X105.012 Y30.605
X105.093 Y30.579
X105.198 Y30.538
X105.267 Y30.539
X105.328 Y30.569
X105.372 Y30.621
X105.391 Y30.683
X105.385 Y30.743
X105.348 Y30.835
X105.333 Y30.924
X105.29 Y32.066
X105.249 Y32.652
X105.18 Y33.268
X105.099 Y33.831
X105.049 Y34.311
X105.025 Y34.793
X105.026 Y35.276
X105.052 Y35.758
X105.104 Y36.237
X105.181 Y36.714
X105.324 Y37.481
X105.436 Y38.231
X105.52 Y38.985
X105.576 Y39.741
X105.604 Y40.499
Y41.257
X105.576 Y42.015
X105.52 Y42.771
X105.435 Y43.525
X105.323 Y44.275
X105.227 Y44.847
X105.169 Y45.326
X105.133 Y45.808
X105.12 Y46.29
X105.13 Y46.773
X105.163 Y47.254
X105.209 Y47.665
X105.298 Y48.323
X105.346 Y48.811
X105.38 Y49.426
X105.386 Y49.935
X105.404 Y50.079
X105.546 Y50.838
X105.55 Y50.907
X105.537 Y50.974
X105.507 Y51.036
X105.463 Y51.089
X105.407 Y51.128
X105.342 Y51.153
X105.274 Y51.16
X105.206 Y51.15
X105.111 Y51.118
X105.011 Y51.105
X103.622 Y51.075
X103.003 Y51.037
X101.836 Y50.915
X101.286 Y50.881
X100.734 Y50.87
X100.183 Y50.883
X99.633 Y50.919
X99.084 Y50.979
X98.675 Y51.038
X98.05 Y51.139
X97.298 Y51.236
X96.543 Y51.304
X95.786 Y51.345
X95.11 Y51.355
X40.878 Y51.506
X40.12 Y51.487
X39.363 Y51.441
X38.608 Y51.368
X37.856 Y51.268
X37.108 Y51.141
X36.259 Y50.969
X35.849 Y50.909
X35.437 Y50.879
X35.023 Y50.878
X34.611 Y50.907
X34.231 Y50.959
X33.583 Y51.068
X33.107 Y51.135
X32.49 Y51.198
X32.012 Y51.228
X31.14 Y51.256
X30.751 Y51.267
X30.683 Y51.278
X30.62 Y51.306
X30.566 Y51.338
X30.532 Y51.345
X30.498 Y51.34
X30.468 Y51.324
X30.444 Y51.301
X30.428 Y51.271
X30.423 Y51.238
X30.428 Y51.204
X30.537 Y50.866
X30.561 Y50.746
X30.615 Y50.096
X30.637 Y49.505
X30.688 Y48.918
X30.784 Y48.16
X30.831 Y47.611
X30.854 Y47.06
X30.852 Y46.508
X30.825 Y45.957
X30.773 Y45.408
X30.696 Y44.862
X30.567 Y44.126
X30.459 Y43.375
X30.378 Y42.621
X30.324 Y41.865
X30.298 Y41.107
X30.299 Y40.348
X30.328 Y39.591
X30.384 Y38.834
X30.468 Y38.081
X30.579 Y37.33
X30.701 Y36.658
X30.772 Y36.281
X30.825 Y35.871
X30.853 Y35.458
X30.855 Y35.044
X30.831 Y34.631
X30.782 Y34.221
X30.639 Y33.262
X30.577 Y32.691
X30.54 Y32.11
X30.531 Y31.496
X30.517 Y31.157
X30.492 Y30.793
X30.484 Y30.731
X30.404 Y30.473
X30.364 Y30.352
X30.359 Y30.318
X30.366 Y30.284
X30.384 Y30.255
X30.411 Y30.234
X30.466 Y30.222
X30.52 Y30.242
X30.58 Y30.275
X30.647 Y30.29
X30.824 Y30.278
X31.11 Y30.256
X31.313 Y30.265
X31.796 Y30.3
X32.386 Y30.313
X32.989 Y30.353
X33.623 Y30.424
X34.622 Y30.568
X35.034 Y30.604
X35.447 Y30.614
X35.861 Y30.598
X36.272 Y30.555
X36.612 Y30.501
X37.326 Y30.364
X38.075 Y30.244
X38.827 Y30.15
X39.582 Y30.081
X40.339 Y30.037
X41.098 Y30.018
X65.832 Y29.951
X95.051 Y29.873
X95.809 Y29.886
X96.566 Y29.925
X97.322 Y29.988
X98.075 Y30.077
X98.825 Y30.191
X99.57 Y30.33
X100.016 Y30.414
X100.426 Y30.466
X100.839 Y30.495
X101.252 Y30.499
X101.665 Y30.479
X102.076 Y30.435
X102.744 Y30.328
X103.358 Y30.242
X103.976 Y30.181
X104.536 Y30.147
X105.437 Y30.102
X105.505 Y30.093
X105.593 Y30.065
X105.702 Y30.022
X105.77
X105.833 Y30.049
X105.88 Y30.098
X105.904 Y30.163
X105.901 Y30.231
X105.862 Y30.33
X105.845 Y30.428
X105.8 Y31.626
X105.765 Y32.149
X105.7 Y32.766
X105.6 Y33.47
X105.549 Y33.95
X105.523 Y34.432
X105.52 Y34.915
X105.542 Y35.397
X105.587 Y35.877
X105.657 Y36.355
X105.83 Y37.283
X105.944 Y38.033
X106.031 Y38.786
X106.091 Y39.542
X106.125 Y40.3
X106.132 Y41.058
X106.113 Y41.816
X106.066 Y42.573
X105.993 Y43.328
X105.893 Y44.079
X105.736 Y45.032
X105.669 Y45.58
X105.631 Y46.13
X105.621 Y46.681
X105.64 Y47.232
X105.687 Y47.782
X105.747 Y48.243
X105.821 Y48.819
X105.871 Y49.403
X105.894 Y49.935
X105.902 Y50.477
X105.94 Y51.015
X105.963 Y51.147
X106.028 Y51.382
Y51.45
X106.01 Y51.517
X105.976 Y51.576
X105.926 Y51.624
X105.866 Y51.657
X105.799 Y51.673
X105.731 Y51.671
X105.611 Y51.634
X105.509 Y51.62
X104.054 Y51.588
X103.435 Y51.551
X102.817 Y51.489
X102.2 Y51.423
X101.58 Y51.384
X100.96 Y51.374
X100.34 Y51.391
X99.721 Y51.437
X99.105 Y51.511
X98.152 Y51.662
X97.4 Y51.757
X96.644 Y51.826
X95.887 Y51.869
X95.264 Y51.881
X40.87 Y52.03
X40.112 Y52.011
X39.355 Y51.967
X38.6 Y51.897
X37.847 Y51.801
X37.099 Y51.68
X36.364 Y51.536
X35.967 Y51.455
X35.557 Y51.399
X35.144 Y51.371
X34.731
X34.318 Y51.399
X33.904 Y51.455
X33.095 Y51.588
X32.462 Y51.669
X31.843 Y51.722
X31.379 Y51.746
X30.247 Y51.778
X30.179 Y51.789
X30.116 Y51.815
X30.055 Y51.853
X30.021 Y51.86
X29.987 Y51.856
X29.956 Y51.842
X29.93 Y51.82
X29.912 Y51.79
X29.904 Y51.757
X29.909 Y51.713
X30.023 Y51.357
X30.049 Y51.232
X30.104 Y50.56
X30.132 Y49.878
X30.18 Y49.331
X30.273 Y48.601
X30.325 Y48.052
X30.353 Y47.501
X30.357 Y46.95
X30.338 Y46.399
X30.294 Y45.849
X30.227 Y45.301
X30.117 Y44.65
X29.996 Y43.902
X29.9 Y43.15
X29.83 Y42.394
X29.787 Y41.637
X29.77 Y40.879
X29.779 Y40.121
X29.814 Y39.363
X29.876 Y38.607
X29.963 Y37.854
X30.077 Y37.104
X30.194 Y36.468
X30.268 Y36.072
X30.323 Y35.662
X30.353 Y35.25
X30.359 Y34.836
X30.34 Y34.423
X30.297 Y34.012
X30.151 Y33.036
X30.08 Y32.438
X30.037 Y31.888
X30.018 Y31.343
X30.012 Y30.833
X29.977 Y30.304
X29.968 Y30.238
X29.909 Y30.042
X29.843 Y29.841
X29.838 Y29.807
X29.844 Y29.773
X29.86 Y29.743
X29.886 Y29.72
X29.915 Y29.707
X29.947 Y29.704
X29.978 Y29.71
X30.066 Y29.759
X30.132 Y29.776
X30.25 Y29.77
X30.622 Y29.74
X30.835 Y29.749
X31.334 Y29.786
X31.95 Y29.8
X32.511 Y29.835
X33.175 Y29.906
X34.162 Y30.049
X34.573 Y30.094
X34.986 Y30.115
X35.4 Y30.11
X35.812 Y30.081
X36.222 Y30.027
X36.979 Y29.883
X37.795 Y29.748
X38.616 Y29.641
X39.439 Y29.562
X40.265 Y29.512
X41.092 Y29.491
X89.145 Y29.364
X95.182 Y29.349
X96.009 Y29.369
X96.835 Y29.418
X97.659 Y29.495
X98.479 Y29.6
X99.296 Y29.734
X99.894 Y29.851
X100.301 Y29.924
X100.712 Y29.974
X101.124 Y30.002
X101.538 Y30.006
X101.951 Y29.986
X102.363 Y29.944
X102.826 Y29.872
X103.514 Y29.766
X104.199 Y29.69
X104.769 Y29.648
X105.93 Y29.59
X105.998 Y29.581
X106.093 Y29.551
X106.205 Y29.507
X106.274 Y29.505
X106.338 Y29.53
X106.388 Y29.576
X106.416 Y29.639
X106.42 Y29.707
X106.402 Y29.762
X106.375 Y29.826
X106.357 Y29.931
X106.31 Y31.187
X106.275 Y31.715
X106.212 Y32.332
X106.147 Y32.8
X106.085 Y33.246
X106.039 Y33.727
X106.017 Y34.209
X106.018 Y34.691
X106.042 Y35.173
X106.088 Y35.654
X106.158 Y36.131
X106.336 Y37.085
X106.451 Y37.834
X106.541 Y38.587
X106.606 Y39.343
X106.645 Y40.1
X106.658 Y40.859
X106.646 Y41.617
X106.609 Y42.374
X106.545 Y43.13
X106.457 Y43.883
X106.343 Y44.633
X106.234 Y45.285
X106.17 Y45.833
X106.132 Y46.383
X106.122 Y46.934
X106.138 Y47.486
X106.182 Y48.035
X106.253 Y48.591
X106.321 Y49.109
X106.378 Y49.721
X106.406 Y50.284
X106.413 Y50.859
X106.455 Y51.501
X106.48 Y51.64
X106.547 Y51.884
X106.548 Y51.952
X106.532 Y52.019
X106.5 Y52.08
X106.453 Y52.13
X106.395 Y52.167
X106.329 Y52.188
X106.261 Y52.191
X106.18 Y52.172
X106.114 Y52.15
X106.004 Y52.135
X104.486 Y52.102
X103.867 Y52.066
X103.249 Y52.005
X102.563 Y51.93
X101.944 Y51.89
X101.323 Y51.876
X100.703 Y51.89
X100.084 Y51.93
X99.467 Y51.997
X98.867 Y52.088
X98.117 Y52.204
X97.364 Y52.294
X96.609 Y52.358
X95.851 Y52.398
X95.281 Y52.408
X40.862 Y52.554
X40.035 Y52.533
X39.209 Y52.483
X38.386 Y52.403
X37.566 Y52.295
X36.75 Y52.157
X36.056 Y52.017
X35.675 Y51.943
X35.264 Y51.89
X34.852 Y51.863
X34.438 Y51.864
X34.025 Y51.891
X33.646 Y51.939
X32.812 Y52.078
X32.159 Y52.165
X31.541 Y52.223
X31.001 Y52.253
X29.743 Y52.29
X29.675 Y52.3
X29.612 Y52.326
X29.544 Y52.367
X29.51 Y52.375
X29.476 Y52.372
X29.444 Y52.36
X29.417 Y52.339
X29.397 Y52.311
X29.386 Y52.279
X29.389 Y52.221
X29.509 Y51.849
X29.526 Y51.784
X29.554 Y51.512
X29.593 Y51.025
X29.622 Y50.32
X29.672 Y49.744
X29.743 Y49.179
X29.811 Y48.562
X29.85 Y47.943
X29.86 Y47.323
X29.841 Y46.703
X29.793 Y46.084
X29.717 Y45.468
X29.621 Y44.903
X29.497 Y44.155
X29.397 Y43.403
X29.322 Y42.649
X29.272 Y41.892
X29.247 Y41.134
Y40.376
X29.273 Y39.618
X29.323 Y38.861
X29.398 Y38.106
X29.498 Y37.355
X29.634 Y36.548
X29.764 Y35.864
X29.82 Y35.454
X29.853 Y35.042
X29.862 Y34.628
X29.848 Y34.215
X29.81 Y33.803
X29.643 Y32.673
X29.569 Y32.048
X29.526 Y31.498
X29.506 Y30.99
X29.502 Y30.447
X29.461 Y29.814
X29.453 Y29.745
X29.392 Y29.547
X29.321 Y29.329
X29.316 Y29.296
X29.321 Y29.262
X29.337 Y29.231
X29.361 Y29.207
X29.392 Y29.191
X29.426 Y29.186
X29.46 Y29.191
X29.552 Y29.243
X29.618 Y29.26
X29.676 Y29.262
X30.133 Y29.224
X30.288 Y29.227
X30.873 Y29.271
X31.307 Y29.28
X31.764 Y29.299
X32.376 Y29.348
X33.002 Y29.424
X33.975 Y29.565
X34.387 Y29.603
X34.801 Y29.617
X35.214 Y29.608
X35.626 Y29.575
X36.036 Y29.519
X36.904 Y29.354
X37.721 Y29.221
X38.541 Y29.116
X39.365 Y29.038
X40.191 Y28.988
X41.018 Y28.965
X53.716 Y28.931
X95.038 Y28.825
X95.865 Y28.839
X96.691 Y28.881
X97.516 Y28.95
X98.337 Y29.047
X99.155 Y29.17
X99.969 Y29.321
X100.451 Y29.413
X100.86 Y29.469
X101.273 Y29.502
X101.686 Y29.513
X102.1 Y29.502
X102.512 Y29.469
X102.854 Y29.425
X103.738 Y29.284
X104.422 Y29.2
X104.938 Y29.155
X105.554 Y29.121
X106.422 Y29.077
X106.491 Y29.069
X106.594 Y29.037
X106.709 Y28.991
X106.778 Y28.988
X106.842 Y29.01
X106.895 Y29.055
X106.928 Y29.115
X106.936 Y29.183
X106.931 Y29.217
X106.889 Y29.321
X106.874 Y29.388
X106.857 Y29.779
X106.82 Y30.747
X106.785 Y31.281
X106.714 Y31.967
X106.623 Y32.612
X106.557 Y33.159
X106.52 Y33.71
X106.511 Y34.261
X106.532 Y34.812
X106.581 Y35.362
X106.659 Y35.908
X106.818 Y36.751
X106.949 Y37.568
X107.051 Y38.389
X107.125 Y39.213
X107.169 Y40.039
X107.184 Y40.866
X107.17 Y41.693
X107.127 Y42.52
X107.054 Y43.344
X106.953 Y44.165
X106.823 Y44.982
X106.733 Y45.538
X106.67 Y46.086
X106.633 Y46.636
X106.622 Y47.188
X106.637 Y47.739
X106.678 Y48.289
X106.749 Y48.87
X106.828 Y49.467
X106.888 Y50.108
X106.914 Y50.565
X106.923 Y50.966
X106.932 Y51.447
X106.971 Y51.988
X106.994 Y52.123
X107.066 Y52.386
X107.069 Y52.454
X107.054 Y52.521
X107.024 Y52.583
X106.979 Y52.635
X106.923 Y52.675
X106.859 Y52.701
X106.791 Y52.709
X106.719 Y52.7
X106.617 Y52.667
X106.499 Y52.65
X104.918 Y52.616
X104.23 Y52.575
X103.544 Y52.505
X102.926 Y52.438
X102.307 Y52.396
X101.687 Y52.38
X101.066 Y52.389
X100.447 Y52.424
X99.829 Y52.485
X99.215 Y52.571
X98.356 Y52.707
X97.534 Y52.808
X96.71 Y52.881
X95.884 Y52.924
X95.366 Y52.935
X40.854 Y53.077
X40.027 Y53.057
X39.201 Y53.009
X38.378 Y52.933
X37.557 Y52.828
X36.74 Y52.696
X35.952 Y52.542
X35.586 Y52.466
X35.177 Y52.403
X34.765 Y52.365
X34.352 Y52.353
X33.939 Y52.367
X33.527 Y52.406
X32.981 Y52.492
X32.197 Y52.617
X31.513 Y52.698
X30.825 Y52.75
X30.408 Y52.768
X29.24 Y52.801
X29.171 Y52.811
X29.107 Y52.836
X29.033 Y52.882
X28.999 Y52.89
X28.965 Y52.889
X28.932 Y52.878
X28.904 Y52.858
X28.882 Y52.832
X28.868 Y52.8
X28.864 Y52.766
X28.87 Y52.73
X28.995 Y52.341
X29.012 Y52.274
X29.041 Y51.998
X29.083 Y51.489
X29.111 Y50.762
X29.163 Y50.157
X29.24 Y49.552
X29.308 Y48.935
X29.349 Y48.316
X29.362 Y47.696
X29.347 Y47.075
X29.305 Y46.456
X29.236 Y45.84
X29.139 Y45.227
X28.998 Y44.409
X28.886 Y43.589
X28.803 Y42.766
X28.748 Y41.94
X28.721 Y41.113
X28.723 Y40.286
X28.754 Y39.459
X28.813 Y38.634
X28.901 Y37.811
X29.016 Y36.992
X29.126 Y36.358
X29.26 Y35.655
X29.317 Y35.245
X29.352 Y34.833
X29.364 Y34.42
X29.354 Y34.006
X29.322 Y33.594
X29.288 Y33.32
X29.127 Y32.242
X29.052 Y31.589
X29.008 Y30.968
X28.992 Y30.43
X28.986 Y29.922
X28.946 Y29.324
X28.937 Y29.256
X28.876 Y29.051
X28.8 Y28.818
X28.794 Y28.784
X28.799 Y28.75
X28.814 Y28.719
X28.837 Y28.694
X28.866 Y28.676
X28.9 Y28.669
X28.934 Y28.671
X28.978 Y28.692
X29.038 Y28.726
X29.104 Y28.745
X29.17 Y28.747
X29.576 Y28.712
X29.714 Y28.707
X30.084 Y28.734
X30.412 Y28.757
X31.147 Y28.775
X31.76 Y28.815
X32.281 Y28.869
X33.13 Y28.988
X33.721 Y29.071
X34.133 Y29.107
X34.546 Y29.119
X34.96 Y29.109
X35.372 Y29.077
X35.782 Y29.021
X36.625 Y28.861
X37.441 Y28.725
X38.261 Y28.615
X39.084 Y28.531
X39.909 Y28.474
X40.736 Y28.442
X41.866 Y28.434
X54.027 Y28.404
X54.165 Y28.403 Z18.258
X54.198 Z18.342
X54.293 Z18.483
X54.457 Z18.69
X54.552 Y28.402 Z18.769
X54.604 Z18.797
X54.665 Z18.819
X54.727 Z18.828
X54.796 Z18.823
X54.865 Z18.802
X54.971 Y28.401 Z18.741
X57.093 Y28.396 Z18.76
X57.177 Z18.849
X57.229 Z18.887
X57.28 Z18.915
X57.373 Y28.395 Z18.939
X59.059 Y28.391 Z18.954
X59.658 Y28.39 Z18.958
X60.028 Y28.389 Z18.96
X60.203 Y28.388 Z18.961
X60.985 Y28.386 Z18.968
X61.006 Z18.966
X61.171 Z18.972
X61.345 Y28.385 Z18.968
X61.965 Y28.384 Z18.975
X62.325 Y28.383 Z18.978
X62.72 Y28.382 Z18.98
X63.556 Y28.38 Z18.988
X63.806 Y28.379 Z18.987
X64.223 Y28.378 Z18.993
X64.632 Y28.377 Z18.995
X65.142 Y28.376 Z18.997
X65.285 Y28.375 Z19.002
X66.161 Y28.373 Z19.003
X66.765 Y28.372 Z19.012
X67.049 Y28.371 Z19.011
X67.996 Y28.369 Z19.018
X68.186 Y28.368 Z19.019
X68.362 Z19.022
X68.757 Y28.367 Z19.024
X68.964 Y28.366 Z19.027
X69.346 Y28.365
X69.578 Z19.03
X69.901 Y28.364 Z19.031
X70.661 Y28.362 Z19.036
X70.73 Z19.027
X70.789 Y28.361 Z19.004
X70.848 Z18.968
X70.95 Z18.87
X73.011 Y28.356 Z18.889
X73.11 Z18.987
X73.2 Y28.355 Z19.039
X73.294 Z19.062
X94.369 Y28.302 Z19.194
X94.404 Z19.209
X94.521 Z19.236
X95.238 Y28.301 Z19.237
X95.721 Y28.31 Z19.22
X96.199 Y28.328 Z19.186
X96.468 Y28.341 Z19.16
X96.736 Y28.358 Z19.128
X97.003 Y28.377 Z19.091
X97.269 Y28.399 Z19.049
X97.535 Y28.423 Z19.001
X97.799 Y28.45 Z18.948
X98.091 Y28.483 Z18.87
X98.262 Y28.504 Z18.803
X98.371 Y28.518 Z18.739
X98.576 Y28.546 Z18.586
X98.787 Y28.576 Z18.418
X98.994 Y28.607 Z18.244
X99.195 Y28.639 Z18.065
X99.49 Y28.689 Z17.787
X99.586 Y28.705 Z17.697
X100.19 Y28.821
X100.668 Y28.913
X101.146 Y28.977
X101.628 Y29.012
X102.11 Y29.018
X102.592 Y28.996
X103.072 Y28.945
X103.963 Y28.802
X104.577 Y28.72
X104.66 Y28.711
X104.785 Y28.697 Z17.786
X104.896 Y28.686 Z17.858
X105.014 Y28.675 Z17.921
X105.134 Y28.664 Z17.981
X105.256 Y28.654 Z18.031
X105.553 Y28.633 Z18.135
X105.649 Y28.628 Z18.159
X106.309 Y28.595 Z18.301
X106.915 Y28.565 Z18.421
X106.981 Y28.557 Z18.449
X107.07 Y28.533 Z18.535
X107.2 Y28.478 Z18.716
X107.24 Y28.47 Z18.74
X107.278 Y28.471 Z18.739
X107.322 Y28.481 Z18.709
X107.359 Y28.498 Z18.652
X107.396 Y28.527 Z18.555
X107.42 Y28.557 Z18.45
X107.443 Y28.606 Z18.254
X107.452 Y28.663 Z17.989
X107.447 Y28.707 Z17.724
X107.446 Y28.711 Z17.697
X107.404 Y28.817
X107.387 Y28.884
X107.374 Y29.144
X107.33 Y30.308
X107.295 Y30.847
X107.226 Y31.533
X107.171 Y31.943
X107.096 Y32.456
X107.04 Y33.004
X107.011 Y33.555
X107.01 Y34.107
X107.037 Y34.658
X107.091 Y35.206
X107.172 Y35.752
X107.324 Y36.553
X107.457 Y37.37
X107.561 Y38.19
X107.638 Y39.014
X107.687 Y39.84
X107.708 Y40.667
X107.702 Y41.494
X107.667 Y42.321
X107.605 Y43.146
X107.514 Y43.968
X107.397 Y44.787
X107.272 Y45.518
X107.199 Y46.065
X107.15 Y46.614
X107.126 Y47.165
Y47.717
X107.152 Y48.268
X107.202 Y48.817
X107.264 Y49.286
X107.327 Y49.758
X107.388 Y50.357
X107.427 Y50.983
X107.437 Y51.622
X107.446 Y51.898
X107.487 Y52.474
X107.509 Y52.61
X107.586 Y52.888
X107.589 Y52.956
X107.576 Y53.024
X107.547 Y53.086
X107.505 Y53.14
X107.451 Y53.183
X107.388 Y53.212
X107.321 Y53.226
X107.235 Y53.22
X107.12 Y53.183
X107.053 Y53.17
X106.718 Y53.16
X105.419 Y53.132
X104.731 Y53.094
X104.044 Y53.03
X103.289 Y52.946
X102.67 Y52.902
X102.05 Y52.883
X101.43 Y52.889
X100.81 Y52.919
X100.192 Y52.974
X99.577 Y53.053
X98.526 Y53.22
X97.705 Y53.323
X96.881 Y53.398
X96.055 Y53.445
X95.52 Y53.461
X82.022 Y53.499
X81.836 Y53.5 Z18.368
X81.767 Z18.494
X81.563 Y53.501 Z18.748
X81.467 Z18.827
X81.415 Z18.856
X81.354 Z18.878
X81.293 Z18.888
X81.224 Z18.885
X81.155 Y53.502 Z18.866
X81.099 Z18.838
X81.04 Z18.798
X78.922 Y53.507 Z18.816
X78.836 Z18.904
X78.784 Z18.941
X78.732 Y53.508 Z18.968
X78.638 Z18.99
X77.866 Y53.51 Z18.998
X76.965 Y53.512 Z19.003
X75.983 Y53.514 Z19.011
X75.141 Y53.517 Z19.017
X75.018 Z19.015
X74.858 Z19.022
X74.668 Y53.518 Z19.018
X74.047 Y53.519 Z19.025
X73.688 Y53.52 Z19.027
X73.294 Y53.521 Z19.029
X72.282 Y53.524 Z19.039
X72.088 Z19.035
X71.778 Y53.525 Z19.041
X71.381 Y53.526 Z19.04
X71.036 Y53.527 Z19.048
X70.846 Z19.047
X69.698 Y53.53 Z19.055
X69.14 Y53.531 Z19.056
X68.966 Y53.532 Z19.058
X68.77
X68.011 Y53.534 Z19.066
X67.651 Y53.535 Z19.068
X67.257 Y53.536 Z19.07
X67.05 Y53.537 Z19.073
X66.64 Y53.538 Z19.075
X66.125 Y53.539 Z19.076
X65.331 Y53.541 Z19.081
X65.237 Z19.057
X65.178 Z19.025
X65.076 Z18.937
X65.058 Y53.542 Z18.918
X63.006 Y53.547 Z18.936
X62.919 Z19.023
X62.841 Z19.075
X62.752 Z19.105
X62.069 Y53.549 Z19.114
X54.692 Y53.567 Z19.156
X41.654 Y53.6 Z19.239
X41.581 Z19.269
X41.469 Z19.286
X40.778 Y53.601 Z19.288
X40.295 Y53.591 Z19.27
X39.884 Y53.576 Z19.241
X39.615 Y53.562 Z19.216
X39.227 Y53.538 Z19.169
X38.96 Y53.517 Z19.131
X38.694 Y53.494 Z19.088
X38.37 Y53.462 Z19.027
X38.077 Y53.429 Z18.951
X37.905 Y53.409 Z18.887
X37.769 Y53.391 Z18.811
X37.532 Y53.359 Z18.647
X37.315 Y53.328 Z18.487
X37.103 Y53.296 Z18.32
X36.906 Y53.264 Z18.157
X36.703 Y53.23 Z17.98
X36.406 Y53.177 Z17.706
X36.397 Y53.175 Z17.697
X35.611 Y53.017
X35.226 Y52.941
X34.816 Y52.885
X34.404 Y52.853
X33.99 Y52.846
X33.577 Y52.864
X33.166 Y52.906
X32.448 Y53.023
X31.757 Y53.129
X31.403 Y53.174
X31.238 Y53.192 Z17.82
X31.084 Y53.207 Z17.912
X30.967 Y53.218 Z17.972
X30.751 Y53.236 Z18.064
X30.594 Y53.247 Z18.118
X30.4 Y53.259 Z18.172
X30.065 Y53.275 Z18.243
X28.818 Y53.311 Z18.388
X28.702 Y53.316 Z18.407
X28.637 Y53.332 Z18.467
X28.578 Y53.361 Z18.568
X28.551 Y53.379 Z18.631
X28.521 Y53.396 Z18.687
X28.488 Y53.405 Z18.714
X28.454 Z18.713
X28.421 Y53.395 Z18.683
X28.402 Y53.385 Z18.651
X28.371 Y53.357 Z18.555
X28.352 Y53.323 Z18.434
X28.344 Y53.276 Z18.247
X28.354 Y53.227 Z18.016
X28.368 Y53.182 Z17.757
X28.372 Y53.172 Z17.697
X28.481 Y52.833
X28.509 Y52.698
X28.568 Y52.022
X28.597 Y51.273
X28.634 Y50.777
X28.707 Y50.146
X28.792 Y49.445
X28.84 Y48.827
X28.862 Y48.207
X28.857 Y47.586
X28.826 Y46.966
X28.769 Y46.349
X28.685 Y45.734
X28.511 Y44.73
X28.393 Y43.911
X28.302 Y43.089
X28.239 Y42.264
X28.203 Y41.437
X28.194 Y40.61
X28.212 Y39.783
X28.258 Y38.957
X28.331 Y38.133
X28.432 Y37.312
X28.559 Y36.494
X28.732 Y35.582
X28.806 Y35.105
X28.851 Y34.625
X28.867 Y34.143
X28.853 Y33.66
X28.811 Y33.18
X28.707 Y32.469
X28.601 Y31.743
X28.541 Y31.198
X28.495 Y30.548
X28.478 Y30.007
X28.475 Y29.535
X28.438 Y28.938
X28.422 Y28.766
X28.381 Y28.62
X28.279 Y28.307
X28.273 Y28.273
X28.277 Y28.239
X28.29 Y28.207
X28.313 Y28.181
X28.341 Y28.162
X28.374 Y28.152
X28.408
X28.465 Y28.175
X28.524 Y28.21
X28.59 Y28.23
X28.664 Y28.233
X29.157 Y28.192
X29.331 Y28.196
X29.95 Y28.243
X30.711 Y28.262
X31.35 Y28.303
X32.039 Y28.376
X33.26 Y28.553
X33.672 Y28.596
X34.085 Y28.618
X34.498
X34.911 Y28.597
X35.323 Y28.554
X35.731 Y28.489
X36.686 Y28.308
X37.503 Y28.179
X38.324 Y28.075
X39.147 Y27.996
X39.973 Y27.942
X40.8 Y27.914
X42.772 Y27.905
X52.979 Y27.88
X53.096 Z18.162
X53.161 Z18.282
X54.271 Y27.877 Z19.752
X54.417 Y27.876 Z19.892
X54.494 Z19.942
X54.611 Z19.99
X54.674 Z20.002
X54.741 Z20.007
X54.868 Y27.875 Z19.989
X54.978 Z19.948
X57.15 Y27.87 Z19.958
X57.263 Y27.869 Z20.012
X57.327 Z20.028
X57.667 Y27.868 Z20.034
X70.697 Y27.836 Z20.087
X70.766 Z20.075
X70.884 Z20.026
X70.923 Z20.004
X73.039 Y27.83 Z20.014
X73.151 Z20.076
X73.218 Z20.097
X73.317 Z20.108
X81.335 Y27.81 Z20.135
X94.336 Y27.778 Z20.19
X94.449 Y27.777 Z20.239
X94.547 Z20.251
X95.232 Z20.252
X95.714 Y27.785 Z20.235
X96.18 Y27.802 Z20.204
X96.449 Y27.815 Z20.179
X96.717 Y27.83 Z20.149
X96.985 Y27.849 Z20.113
X97.384 Y27.881 Z20.051
X97.782 Y27.919 Z19.978
X98.176 Y27.962 Z19.893
X98.568 Y28.011 Z19.799
X98.943 Y28.064 Z19.697
X99.327 Y28.123 Z19.582
X99.708 Y28.187 Z19.458
X99.866 Y28.215 Z19.403
X99.96 Y28.233 Z19.355
X100.193 Y28.277 Z19.254
X100.475 Y28.333 Z19.118
X100.789 Y28.395 Z18.956
X101.129 Y28.449 Z18.804
X101.481 Y28.489 Z18.681
X101.793 Y28.512 Z18.605
X102.083 Y28.524 Z18.567
X102.375 Y28.525 Z18.563
X102.648 Y28.517 Z18.59
X102.913 Y28.5 Z18.644
X103.236 Y28.469 Z18.744
X103.599 Y28.419 Z18.89
X103.891 Y28.371 Z19.022
X104.119 Y28.333 Z19.119
X104.242 Y28.313 Z19.168
X104.494 Y28.276 Z19.257
X104.749 Y28.241 Z19.336
X105.137 Y28.195 Z19.438
X105.453 Y28.164 Z19.503
X105.771 Y28.139 Z19.556
X106.089 Y28.118 Z19.598
X107.408 Y28.052 Z19.724
X107.475 Y28.044 Z19.738
X107.54 Y28.029 Z19.767
X107.684 Y27.97 Z19.873
X107.71 Y27.96 Z19.89
X107.738 Y27.955 Z19.899
X107.765 Y27.953 Z19.903
X107.793 Y27.955 Z19.899
X107.822 Y27.961 Z19.888
X107.849 Y27.971 Z19.87
X107.896 Y28.001 Z19.818
X107.925 Y28.032 Z19.762
X107.946 Y28.064 Z19.701
X107.965 Y28.124 Z19.585
X107.964 Y28.192 Z19.444
X107.945 Y28.249 Z19.32
X107.918 Y28.312 Z19.171
X107.899 Y28.389 Z18.972
X107.892 Y28.497 Z18.654
X107.889 Y28.584 Z18.345
X107.886 Y28.665 Z17.977
X107.884 Y28.711 Z17.697
X107.841 Y29.868
X107.805 Y30.412
X107.737 Y31.098
X107.655 Y31.703
X107.589 Y32.163
X107.535 Y32.712
X107.508 Y33.263
X107.506 Y33.814
X107.532 Y34.365
X107.584 Y34.914
X107.662 Y35.46
X107.843 Y36.423
X107.974 Y37.24
X108.078 Y38.06
X108.156 Y38.884
X108.208 Y39.71
X108.232 Y40.536
X108.23 Y41.364
X108.201 Y42.191
X108.146 Y43.016
X108.063 Y43.839
X107.954 Y44.659
X107.827 Y45.431
X107.741 Y45.976
X107.678 Y46.524
X107.639 Y47.074
X107.624 Y47.625
X107.632 Y48.177
X107.665 Y48.727
X107.721 Y49.276
X107.843 Y50.185
X107.899 Y50.743
X107.94 Y51.401
X107.951 Y51.988
X107.959 Y52.349
X108.002 Y52.96
X108.024 Y53.096
X108.098 Y53.356
X108.109 Y53.424
X108.105 Y53.493
X108.085 Y53.558
X108.052 Y53.618
X108.005 Y53.669
X107.949 Y53.708
X107.885 Y53.734
X107.817 Y53.744
X107.72 Y53.733
X107.623 Y53.7
X107.556 Y53.686
X107.282 Y53.676
X105.714 Y53.64
X105.025 Y53.598
X104.339 Y53.53
X103.652 Y53.454
X102.965 Y53.405
X102.276 Y53.386
X101.586 Y53.396
X100.898 Y53.435
X100.212 Y53.503
X99.529 Y53.6
X98.764 Y53.723
X97.943 Y53.829
X97.12 Y53.909
X96.294 Y53.963
X95.536 Y53.988
X83.069 Y54.023
X82.931 Z18.198
X82.895 Y54.024 Z18.283
X82.797 Z18.424
X81.692 Y54.027 Z19.836
X81.612 Z19.918
X81.51 Z19.988
X81.391 Z20.033
X81.326 Z20.045
X81.26 Y54.028 Z20.047
X81.135 Z20.028
X81.036 Z19.988
X78.848 Y54.033 Z19.998
X78.734 Y54.034 Z20.047
X78.62 Z20.063
X65.298 Y54.066 Z20.113
X65.229 Y54.067 Z20.098
X65.109 Z20.043
X62.965 Y54.072 Z20.05
X62.854 Z20.108
X62.791 Z20.127
X62.66 Y54.073 Z20.137
X54.732 Y54.092 Z20.167
X54.594 Z20.159
X41.662 Y54.124 Z20.214
X41.546 Z20.257
X41.414 Z20.265
X40.77 Y54.125 Z20.267
X40.287 Y54.116 Z20.249
X39.876 Y54.101 Z20.221
X39.607 Y54.088 Z20.197
X39.338 Y54.072 Z20.167
X39.071 Y54.053 Z20.132
X38.804 Y54.032 Z20.093
X38.406 Y53.995 Z20.024
X38.01 Y53.953 Z19.944
X37.618 Y53.904 Z19.854
X37.241 Y53.853 Z19.757
X36.855 Y53.794 Z19.647
X36.486 Y53.732 Z19.532
X36.151 Y53.671 Z19.418
X36.025 Y53.647 Z19.348
X35.69 Y53.58 Z19.192
X35.465 Y53.533 Z19.075
X35.121 Y53.462 Z18.881
X34.786 Y53.407 Z18.719
X34.55 Y53.378 Z18.628
X34.307 Y53.357 Z18.556
X34.041 Y53.343 Z18.508
X33.814 Y53.339 Z18.492
X33.538 Y53.343 Z18.509
X33.272 Y53.358 Z18.558
X32.97 Y53.386 Z18.652
X32.631 Y53.432 Z18.798
X32.096 Y53.523 Z19.047
X31.975 Y53.543 Z19.1
X31.727 Y53.583 Z19.198
X31.527 Y53.613 Z19.269
X31.143 Y53.664 Z19.384
X30.71 Y53.711 Z19.487
X30.288 Y53.748 Z19.56
X29.887 Y53.773 Z19.611
X29.523 Y53.788 Z19.642
X28.232 Y53.825 Z19.711
X28.164 Y53.834 Z19.729
X28.083 Y53.865 Z19.786
X28.02 Y53.906 Z19.859
X28. Y53.915 Z19.875
X27.977 Y53.92 Z19.885
X27.955 Y53.922 Z19.887
X27.921 Y53.917 Z19.878
X27.889 Y53.903 Z19.854
X27.862 Y53.882 Z19.816
X27.834 Y53.84 Z19.739
X27.824 Y53.793 Z19.65
X27.83 Y53.747 Z19.56
X27.881 Y53.589 Z19.214
X27.923 Y53.46 Z18.877
X27.956 Y53.357 Z18.555
X27.976 Y53.294 Z18.319
X27.989 Y53.236 Z18.063
X27.995 Y53.192 Z17.821
X27.997 Y53.174 Z17.697
X28.057 Y52.487
X28.083 Y51.784
X28.126 Y51.19
X28.192 Y50.6
X28.289 Y49.818
X28.338 Y49.2
X28.362 Y48.58
X28.361 Y47.959
X28.335 Y47.339
X28.283 Y46.721
X28.205 Y46.105
X28.128 Y45.629
X27.991 Y44.847
X27.874 Y44.028
X27.783 Y43.206
X27.719 Y42.381
X27.68 Y41.554
X27.668 Y40.727
X27.682 Y39.9
X27.722 Y39.074
X27.789 Y38.249
X27.882 Y37.427
X28. Y36.608
X28.149 Y35.774
X28.263 Y35.17
X28.326 Y34.691
X28.361 Y34.21
X28.368 Y33.728
X28.347 Y33.246
X28.298 Y32.766
X28.15 Y31.788
X28.077 Y31.243
X28.024 Y30.739
X27.979 Y30.068
X27.964 Y29.471
X27.962 Y29.08
X27.924 Y28.469
X27.916 Y28.344
X27.907 Y28.276
X27.864 Y28.124
X27.757 Y27.795
X27.751 Y27.762
X27.755 Y27.727
X27.767 Y27.695
X27.788 Y27.668
X27.816 Y27.648
X27.848 Y27.636
X27.882 Y27.633
X27.934 Y27.648
X28.01 Y27.693
X28.075 Y27.714
X28.159 Y27.719
X28.669 Y27.676
X28.853 Y27.68
X29.489 Y27.728
X30.206 Y27.745
X30.872 Y27.784
X31.523 Y27.85
X32.285 Y27.955
X33.006 Y28.06
X33.486 Y28.105
X33.968 Y28.123
X34.451 Y28.111
X34.932 Y28.072
X35.409 Y28.004
X36.068 Y27.876
X36.951 Y27.724
X37.838 Y27.599
X38.729 Y27.502
X39.623 Y27.434
X40.518 Y27.394
X41.139 Y27.383
X51.929 Y27.356
X52.019 Z18.04
X52.093 Z18.166
X53.031 Y27.353 Z19.411
X53.148 Z19.539
X53.395 Y27.352 Z19.748
X54.41 Y27.35 Z20.587
X54.492 Z20.64
X54.61 Z20.688
X54.673 Y27.349 Z20.701
X54.74 Z20.706
X54.866 Z20.689
X57.117 Y27.343 Z20.696
X57.233 Z20.746
X57.362 Z20.77
X70.702 Y27.311 Z20.805
X70.823 Y27.31 Z20.781
X70.924 Z20.741
X73.049 Y27.305 Z20.75
X73.176 Z20.802
X73.317 Y27.304 Z20.821
X81.283 Y27.285 Z20.843
X81.371 Z20.835
X94.391 Y27.253 Z20.873
X94.514 Z20.893
X95.294 Z20.894
X95.915 Y27.267 Z20.88
X96.534 Y27.294 Z20.853
X97.151 Y27.334 Z20.811
X97.554 Y27.368 Z20.777
X97.955 Y27.407 Z20.737
X98.356 Y27.452 Z20.691
X98.755 Y27.503 Z20.64
X99.218 Y27.569 Z20.572
X99.639 Y27.636 Z20.496
X99.872 Y27.676 Z20.439
X99.929 Y27.686 Z20.416
X100.01 Y27.7 Z20.364
X100.101 Y27.717 Z20.28
X100.471 Y27.788 Z20.174
X100.9 Y27.874 Z20.036
X101.27 Y27.937 Z19.93
X101.649 Y27.985 Z19.846
X102.021 Y28.016 Z19.791
X102.427 Y28.031 Z19.763
X102.841 Y28.027 Z19.771
X103.247 Y28.004 Z19.813
X103.644 Y27.963 Z19.885
X103.991 Y27.912 Z19.973
X104.639 Y27.806 Z20.145
X105.03 Y27.748 Z20.234
X105.498 Y27.69 Z20.32
X105.864 Y27.654 Z20.371
X106.36 Y27.616 Z20.424
X106.658 Y27.583 Z20.47
X107.076 Y27.526 Z20.545
X107.208 Y27.512 Z20.564
X107.342 Y27.506 Z20.572
X107.487 Y27.509 Z20.568
X107.878 Y27.528 Z20.543
X107.946 Y27.527 Z20.544
X108.066 Y27.504 Z20.575
X108.188 Y27.454 Z20.639
X108.217 Y27.444 Z20.652
X108.246 Y27.438 Z20.659
X108.276 Y27.436 Z20.661
X108.306 Y27.439 Z20.657
X108.338 Y27.447 Z20.647
X108.369 Y27.46 Z20.631
X108.397 Y27.477 Z20.609
X108.422 Y27.499 Z20.581
X108.453 Y27.538 Z20.529
X108.473 Y27.584 Z20.469
X108.481 Y27.62 Z20.418
X108.478 Y27.693 Z20.316
X108.438 Y27.791 Z20.169
X108.415 Y27.874 Z20.037
X108.407 Y27.943 Z19.92
X108.401 Y28.097 Z19.639
X108.396 Y28.233 Z19.355
X108.393 Y28.329 Z19.129
X108.389 Y28.422 Z18.882
X108.386 Y28.502 Z18.639
X108.383 Y28.6 Z18.279
X108.381 Y28.655 Z18.03
X108.379 Y28.711 Z17.697
X108.351 Y29.429
X108.315 Y29.978
X108.248 Y30.664
X108.176 Y31.211
X108.1 Y31.733
X108.041 Y32.282
X108.008 Y32.832
X108.001 Y33.384
X108.019 Y33.935
X108.062 Y34.485
X108.131 Y35.032
X108.231 Y35.604
X108.384 Y36.428
X108.51 Y37.246
X108.611 Y38.067
X108.685 Y38.891
X108.735 Y39.717
X108.758 Y40.544
X108.756 Y41.371
X108.728 Y42.198
X108.674 Y43.024
X108.595 Y43.847
X108.49 Y44.668
X108.359 Y45.485
X108.259 Y46.092
X108.185 Y46.708
X108.14 Y47.327
X108.124 Y47.948
X108.137 Y48.568
X108.179 Y49.187
X108.241 Y49.735
X108.342 Y50.475
X108.398 Y50.992
X108.443 Y51.616
X108.463 Y52.233
X108.469 Y52.731
X108.5 Y53.2
X108.518 Y53.446
X108.539 Y53.583
X108.617 Y53.858
X108.629 Y53.926
X108.626 Y53.995
X108.607 Y54.061
X108.576 Y54.122
X108.531 Y54.175
X108.477 Y54.216
X108.414 Y54.245
X108.347 Y54.26
X108.278 Y54.261
X108.192 Y54.239
X108.126 Y54.216
X108.059 Y54.202
X107.846 Y54.193
X106.283 Y54.159
X105.595 Y54.123
X104.908 Y54.062
X104.016 Y53.961
X103.328 Y53.911
X102.639 Y53.889
X101.95 Y53.896
X101.261 Y53.93
X100.575 Y53.992
X99.891 Y54.082
X98.866 Y54.246
X98.045 Y54.351
X97.222 Y54.431
X96.396 Y54.486
X95.552 Y54.515
X84.115 Y54.547
X84.021 Z18.043
X83.99 Z18.124
X83.896 Z18.263
X82.918 Y54.55 Z19.516
X82.793 Z19.642
X81.59 Y54.553 Z20.618
X81.479 Z20.681
X81.355 Y54.554 Z20.718
X81.291 Z20.725
X81.222 Z20.722
X81.127 Z20.704
X78.911 Y54.559 Z20.713
X78.796 Y54.56 Z20.767
X78.669 Z20.794
X65.296 Y54.592 Z20.828
X65.176 Z20.801
X65.068 Z20.756
X62.976 Y54.597 Z20.765
X62.861 Y54.598 Z20.816
X62.733 Z20.841
X54.736 Y54.617 Z20.865
X54.598 Z20.858
X41.64 Y54.648 Z20.893
X41.513 Y54.649 Z20.918
X40.831 Y54.65 Z20.921
X40.21 Y54.638 Z20.909
X39.59 Y54.613 Z20.884
X39.055 Y54.579 Z20.851
X38.65 Y54.547 Z20.819
X38.248 Y54.509 Z20.781
X37.847 Y54.465 Z20.738
X37.447 Y54.415 Z20.689
X37.049 Y54.36 Z20.634
X36.635 Y54.296 Z20.561
X36.343 Y54.247 Z20.491
X36.115 Y54.206 Z20.415
X36.006 Y54.186 Z20.347
X35.94 Y54.174 Z20.291
X35.494 Y54.086 Z20.158
X35.06 Y53.994 Z20.01
X34.7 Y53.927 Z19.896
X34.389 Y53.883 Z19.819
X34.005 Y53.848 Z19.755
X33.682 Y53.834 Z19.728
X33.337
X32.997 Y53.849 Z19.757
X32.599 Y53.887 Z19.825
X32.101 Y53.962 Z19.955
X31.616 Y54.045 Z20.092
X31.292 Y54.096 Z20.173
X30.825 Y54.161 Z20.272
X30.362 Y54.213 Z20.347
X29.878 Y54.256 Z20.408
X29.492 Y54.28 Z20.441
X29.123 Y54.297 Z20.464
X27.728 Y54.337 Z20.519
X27.659 Y54.346 Z20.53
X27.594 Y54.368 Z20.559
X27.5 Y54.425 Z20.633
X27.455 Y54.437 Z20.648
X27.412 Y54.434 Z20.644
X27.381 Y54.423 Z20.63
X27.341 Y54.393 Z20.591
X27.321 Y54.366 Z20.556
X27.307 Y54.328 Z20.507
X27.304 Y54.288 Z20.452
X27.336 Y54.178 Z20.297
X27.399 Y53.98 Z19.987
X27.452 Y53.817 Z19.697
X27.473 Y53.734 Z19.532
X27.486 Y53.634 Z19.317
X27.497 Y53.511 Z19.017
X27.508 Y53.392 Z18.673
X27.514 Y53.319 Z18.42
X27.519 Y53.259 Z18.172
X27.525 Y53.2 Z17.868
X27.527 Y53.171 Z17.697
X27.553 Y52.814
X27.58 Y52.088
X27.63 Y51.466
X27.723 Y50.711
X27.798 Y50.054
X27.844 Y49.435
X27.865 Y48.815
X27.862 Y48.194
X27.834 Y47.574
X27.781 Y46.956
X27.704 Y46.34
X27.6 Y45.711
X27.461 Y44.896
X27.347 Y44.076
X27.258 Y43.254
X27.194 Y42.429
X27.155 Y41.603
X27.142 Y40.775
X27.154 Y39.948
X27.192 Y39.122
X27.254 Y38.297
X27.342 Y37.474
X27.455 Y36.655
X27.602 Y35.787
X27.748 Y35.029
X27.816 Y34.552
X27.857 Y34.071
X27.871 Y33.588
X27.859 Y33.106
X27.819 Y32.625
X27.744 Y32.092
X27.605 Y31.154
X27.527 Y30.486
X27.478 Y29.867
X27.454 Y29.301
X27.45 Y28.693
X27.429 Y28.276
X27.4 Y27.854
X27.377 Y27.719
X27.236 Y27.284
X27.23 Y27.25
X27.232 Y27.216
X27.244 Y27.184
X27.264 Y27.156
X27.291 Y27.134
X27.322 Y27.12
X27.356 Y27.115
X27.415 Y27.128
X27.496 Y27.177
X27.561 Y27.199
X27.653 Y27.204
X28.18 Y27.16
X28.374 Y27.164
X29.027 Y27.214
X29.77 Y27.232
X30.393 Y27.267
X31.076 Y27.332
X31.658 Y27.408
X32.751 Y27.566
X33.231 Y27.609
X33.714 Y27.624
X34.196 Y27.613
X34.677 Y27.573
X35.155 Y27.507
X35.938 Y27.356
X36.822 Y27.204
X37.709 Y27.08
X38.6 Y26.982
X39.494 Y26.913
X40.389 Y26.87
X41.259 Y26.855
X50.88 Y26.832
X50.93 Z17.888
X50.998 Z18.014
X51.849 Y26.83 Z19.141
X51.972 Y26.829 Z19.269
X53.889 Y26.825 Z20.855
X54.133 Y26.824 Z21.029
X54.411 Z21.205
X54.524 Y26.823 Z21.257
X54.65 Z21.288
X54.785 Z21.293
X57.23 Y26.817 Z21.297
X57.351 Z21.319
X70.702 Y26.785 Z21.348
X70.845 Z21.32
X73.098 Y26.779 Z21.323
X73.242 Z21.359
X81.098 Y26.76 Z21.38
X81.364 Z21.374
X94.384 Y26.729 Z21.404
X94.505 Y26.728 Z21.426
X95.288 Y26.729 Z21.427
X95.908 Y26.742 Z21.414
X96.528 Y26.768 Z21.388
X97.146 Y26.807 Z21.348
X97.55 Y26.839 Z21.315
X97.952 Y26.877 Z21.276
X98.352 Y26.921 Z21.232
X98.752 Y26.969 Z21.182
X99.136 Y27.022 Z21.129
X99.519 Y27.079 Z21.071
X99.881 Y27.138 Z21.01
X100.291 Y27.21 Z20.929
X100.667 Y27.282 Z20.847
X101.117 Y27.373 Z20.739
X101.495 Y27.438 Z20.659
X101.878 Y27.487 Z20.597
X102.265 Y27.52 Z20.554
X102.661 Y27.536 Z20.532
X103.143 Y27.533 Z20.537
X103.619 Y27.504 Z20.575
X104.085 Y27.452 Z20.642
X104.595 Y27.371 Z20.742
X105.071 Y27.293 Z20.834
X105.532 Y27.227 Z20.91
X105.994 Y27.172 Z20.97
X106.446 Y27.133 Z21.013
X106.923 Y27.094 Z21.054
X107.487 Y27.02 Z21.132
X107.67 Y26.999 Z21.153
X107.805 Y26.992 Z21.159
X107.965 Y26.995 Z21.157
X108.403 Y27.016 Z21.136
X108.5 Y27.006 Z21.146
X108.618 Y26.97 Z21.182
X108.711 Y26.93 Z21.221
X108.765 Y26.914 Z21.237
X108.821
X108.854 Y26.921 Z21.23
X108.885 Y26.933 Z21.219
X108.914 Y26.949 Z21.202
X108.941 Y26.97 Z21.181
X108.973 Y27.009 Z21.143
X108.995 Y27.054 Z21.096
X109.005 Y27.095 Z21.052
X109.006 Y27.138 Z21.007
X108.986 Y27.215 Z20.924
X108.947 Y27.316 Z20.808
X108.933 Y27.39 Z20.719
X108.931 Y27.466 Z20.623
X108.941 Y27.622 Z20.416
X108.951 Y27.798 Z20.157
X108.96 Y27.948 Z19.911
Y28.066 Z19.698
X108.957 Y28.13 Z19.573
X108.948 Y28.237 Z19.345
X108.933 Y28.356 Z19.06
X108.918 Y28.484 Z18.697
X108.91 Y28.551 Z18.47
X108.902 Y28.614 Z18.22
X108.894 Y28.686 Z17.86
X108.89 Y28.711 Z17.697
X108.852 Y29.145
X108.805 Y29.828
X108.732 Y30.48
X108.62 Y31.236
X108.555 Y31.783
X108.514 Y32.333
X108.497 Y32.884
X108.505 Y33.436
X108.538 Y33.986
X108.595 Y34.535
X108.676 Y35.081
X108.867 Y36.094
X109.008 Y36.979
X109.121 Y37.869
X109.204 Y38.761
X109.258 Y39.656
X109.284 Y40.551
X109.28 Y41.448
X109.247 Y42.343
X109.186 Y43.237
X109.095 Y44.129
X108.975 Y45.017
X108.81 Y46.005
X108.722 Y46.619
X108.663 Y47.237
X108.631 Y47.856
X108.627 Y48.477
X108.651 Y49.097
X108.703 Y49.715
X108.791 Y50.398
X108.881 Y51.108
X108.941 Y51.791
X108.971 Y52.376
X108.981 Y53.113
X109.014 Y53.666
X109.034 Y53.933
X109.055 Y54.069
X109.137 Y54.36
X109.149 Y54.462
X109.129 Y54.563
X109.079 Y54.654
X109.004 Y54.724
X108.911 Y54.767
X108.808 Y54.78
X108.74 Y54.77
X108.63 Y54.733
X108.562 Y54.718
X108.41 Y54.709
X106.647 Y54.671
X105.89 Y54.627
X105.135 Y54.555
X104.379 Y54.469
X103.691 Y54.418
X103.002 Y54.394
X102.313 Y54.396
X101.624 Y54.426
X100.937 Y54.483
X100.253 Y54.566
X99.308 Y54.717
X98.421 Y54.841
X97.529 Y54.936
X96.636 Y55.001
X95.74 Y55.038
X94.259 Y55.047
X85.163 Y55.071
X85.102 Z17.916
X85.048 Z18.03
X84.859 Y55.072 Z18.279
X84.119 Y55.074 Z19.223
X83.995 Z19.346
X82.02 Y55.078 Z20.949
X81.771 Y55.079 Z21.126
X81.6 Z21.232
X81.481 Y55.08 Z21.285
X81.354 Z21.315
X81.15 Z21.317
X78.748 Y55.086 Z21.325
X78.613 Z21.338
X65.324 Y55.117 Z21.366
X65.167 Y55.118 Z21.344
X62.883 Y55.123 Z21.351
X62.763 Z21.377
X54.669 Y55.142 Z21.393
X54.5 Y55.143 Z21.389
X41.616 Y55.173 Z21.418
X41.478 Z21.438
X40.685
X40.065 Y55.159 Z21.423
X39.445 Y55.131 Z21.396
X38.828 Y55.089 Z21.355
X38.358 Y55.049 Z21.315
X37.956 Y55.008 Z21.275
X37.556 Y54.962 Z21.229
X37.171 Y54.912 Z21.179
X36.773 Y54.854 Z21.123
X36.391 Y54.794 Z21.063
X36.128 Y54.749 Z21.018
X36.012 Y54.729 Z20.99
X35.634 Y54.658 Z20.911
X35.283 Y54.589 Z20.831
X34.918 Y54.511 Z20.74
X34.55 Y54.439 Z20.65
X34.217 Y54.388 Z20.585
X33.751 Y54.343 Z20.526
X33.377 Y54.326 Z20.504
X32.899 Y54.331 Z20.511
X32.488 Y54.359 Z20.548
X32.079 Y54.409 Z20.612
X31.632 Y54.482 Z20.703
X31.262 Y54.545 Z20.78
X30.846 Y54.61 Z20.857
X30.383 Y54.673 Z20.928
X29.867 Y54.73 Z20.991
X29.38 Y54.77 Z21.033
X28.848 Y54.8 Z21.065
X28.327 Y54.818 Z21.083
X27.224 Y54.849 Z21.115
X27.122 Y54.867 Z21.134
X27.034 Y54.91 Z21.178
X26.992 Y54.938 Z21.206
X26.965 Y54.948 Z21.216
X26.937 Y54.953 Z21.22
X26.908 Y54.952 Z21.219
X26.859 Y54.936 Z21.204
X26.821 Y54.906 Z21.174
X26.792 Y54.858 Z21.125
X26.784 Y54.814 Z21.079
X26.791 Y54.765 Z21.028
X26.845 Y54.595 Z20.839
X26.918 Y54.368 Z20.56
X26.948 Y54.274 Z20.433
X26.97 Y54.149 Z20.254
X26.982 Y54.017 Z20.047
X26.998 Y53.832 Z19.724
X27.008 Y53.721 Z19.507
X27.022 Y53.568 Z19.161
X27.031 Y53.46 Z18.876
X27.037 Y53.364 Z18.581
X27.04 Y53.313 Z18.398
X27.043 Y53.253 Z18.145
X27.045 Y53.204 Z17.894
X27.046 Y53.174 Z17.697
X27.074 Y52.462
X27.129 Y51.811
X27.209 Y51.164
X27.288 Y50.495
X27.342 Y49.808
X27.366 Y49.119
X27.362 Y48.429
X27.328 Y47.741
X27.265 Y47.054
X27.173 Y46.371
X26.985 Y45.285
X26.854 Y44.399
X26.752 Y43.508
X26.678 Y42.615
X26.633 Y41.72
X26.617 Y40.824
X26.629 Y39.928
X26.669 Y39.032
X26.739 Y38.139
X26.836 Y37.248
X26.962 Y36.36
X27.094 Y35.597
X27.244 Y34.821
X27.313 Y34.343
X27.356 Y33.862
X27.373 Y33.38
X27.365 Y32.898
X27.33 Y32.416
X27.269 Y31.938
X27.121 Y30.958
X27.031 Y30.243
X26.971 Y29.545
X26.945 Y29.016
X26.937 Y28.442
X26.935 Y28.168
X26.901 Y27.6
X26.877 Y27.296
X26.831 Y27.132
X26.714 Y26.773
X26.708 Y26.739
X26.71 Y26.705
X26.721 Y26.672
X26.74 Y26.643
X26.766 Y26.62
X26.797 Y26.605
X26.83 Y26.598
X26.895 Y26.608
X26.982 Y26.66
X27.047 Y26.683
X27.147 Y26.69
X27.692 Y26.644
X27.896 Y26.648
X28.565 Y26.7
X29.196 Y26.714
X29.777 Y26.74
X30.464 Y26.797
X31.108 Y26.874
X32.291 Y27.047
X32.77 Y27.098
X33.252 Y27.124
X33.735 Y27.122
X34.217 Y27.095
X34.696 Y27.041
X35.172 Y26.961
X36.08 Y26.787
X36.965 Y26.644
X37.854 Y26.528
X38.746 Y26.438
X39.64 Y26.375
X40.535 Y26.338
X41.392 Y26.328
X49.831 Y26.308 Z17.702
X49.872 Z17.807
X49.941 Z17.912
X50.618 Y26.306 Z18.811
X50.738 Z18.944
X50.825 Z19.022
X52.424 Y26.302 Z20.342
X52.667 Y26.301 Z20.516
X54.426 Y26.297 Z21.624
X54.545 Z21.675
X54.673 Z21.702
X54.808 Y26.296
X54.927 Z21.679
X57.098 Y26.291 Z21.687
X57.213 Z21.732
X57.343 Y26.29 Z21.755
X70.702 Y26.259 Z21.779
X70.825 Z21.759
X70.961 Z21.707
X73.001 Y26.254 Z21.712
X73.119 Z21.762
X73.248 Y26.253 Z21.789
X81.345 Y26.234 Z21.802
X94.275 Y26.204 Z21.825
X94.397 Z21.862
X94.546 Z21.878
X95.282
X96.04 Y26.221 Z21.869
X96.797 Y26.257 Z21.849
X97.482 Y26.305 Z21.822
X98.111 Y26.364 Z21.783
X98.653 Y26.425 Z21.734
X99.131 Y26.487 Z21.674
X99.528 Y26.544 Z21.615
X99.858 Y26.596 Z21.563
X99.981 Y26.616 Z21.527
X100.043 Y26.626 Z21.498
X100.497 Y26.707 Z21.428
X100.935 Y26.791 Z21.353
X101.4 Y26.884 Z21.265
X101.716 Y26.938 Z21.214
X102.1 Y26.988 Z21.164
X102.611 Y27.03 Z21.122
X102.944 Y27.042 Z21.109
X103.427 Y27.039 Z21.112
X103.907 Y27.011 Z21.141
X104.242 Y26.977 Z21.175
X104.652 Y26.919 Z21.232
X105.436 Y26.791 Z21.353
X105.967 Y26.716 Z21.42
X106.455 Y26.659 Z21.47
X106.935 Y26.619 Z21.504
X107.422 Y26.576 Z21.54
X107.998 Y26.5 Z21.603
X108.201 Y26.481 Z21.619
X108.408 Y26.479 Z21.62
X108.862 Y26.502 Z21.602
X108.931 Y26.501
X108.999 Y26.492 Z21.61
X109.122 Y26.454 Z21.64
X109.246 Y26.403 Z21.68
X109.31 Y26.395 Z21.685
X109.375 Y26.407 Z21.676
X109.434 Y26.438 Z21.652
X109.476 Y26.48 Z21.619
X109.503 Y26.525 Z21.582
X109.522 Y26.597 Z21.523
X109.52 Y26.645 Z21.482
X109.498 Y26.716 Z21.42
X109.471 Y26.779 Z21.363
X109.453 Y26.846 Z21.302
X109.444 Y26.934 Z21.217
X109.45 Y27.066 Z21.084
X109.46 Y27.231 Z20.906
X109.473 Y27.448 Z20.647
X109.474 Y27.566 Z20.493
X109.467 Y27.708 Z20.292
X109.459 Y27.787 Z20.175
X109.443 Y27.922 Z19.957
X109.427 Y28.052 Z19.725
X109.414 Y28.164 Z19.503
X109.397 Y28.304 Z19.191
X109.387 Y28.395 Z18.957
X109.378 Y28.494 Z18.666
X109.371 Y28.581 Z18.355
X109.365 Y28.661 Z17.999
X109.362 Y28.711 Z17.697
X109.315 Y29.401
X109.239 Y30.083
X109.162 Y30.609
X109.095 Y31.079
X109.038 Y31.628
X109.004 Y32.178
X108.994 Y32.73
X109.007 Y33.281
X109.044 Y33.831
X109.105 Y34.38
X109.19 Y34.925
X109.373 Y35.896
X109.516 Y36.781
X109.63 Y37.67
X109.717 Y38.562
X109.776 Y39.456
X109.807 Y40.352
X109.809 Y41.248
X109.784 Y42.144
X109.731 Y43.039
X109.649 Y43.932
X109.54 Y44.821
X109.403 Y45.707
X109.276 Y46.462
X109.2 Y47.078
X109.15 Y47.696
X109.127 Y48.316
X109.132 Y48.937
X109.163 Y49.556
X109.221 Y50.174
X109.357 Y51.193
X109.431 Y51.903
X109.461 Y52.316
X109.484 Y52.794
X109.492 Y53.426
X109.509 Y53.857
X109.549 Y54.419
X109.57 Y54.555
X109.671 Y54.92
X109.672 Y55.022
X109.642 Y55.121
X109.583 Y55.205
X109.501 Y55.267
X109.404 Y55.301
X109.301 Y55.303
X109.22 Y55.282
X109.155 Y55.259
X109.088 Y55.244
X109.019 Y55.237
X108.743 Y55.254
X108.398 Y55.276
X108.191 Y55.271
X107.489 Y55.204
X106.973 Y55.181
X106.422 Y55.153
X105.796 Y55.098
X104.879 Y54.991
X104.192 Y54.933
X103.504 Y54.901
X102.814 Y54.895
X102.125 Y54.916
X101.437 Y54.962
X100.752 Y55.034
X100.069 Y55.132
X99.137 Y55.281
X98.248 Y55.395
X97.356 Y55.481
X96.462 Y55.539
X95.585 Y55.569
X89.134 Y55.588
X86.21 Y55.595
X86.163 Z17.836
X86.07 Z17.975
X85.337 Y55.597 Z18.913
X85.216 Z19.034
X83.502 Y55.601 Z20.424
X83.202 Y55.602 Z20.633
X81.597 Y55.606 Z21.633
X81.478 Z21.685
X81.35 Z21.714
X81.216 Y55.607 Z21.716
X81.092 Z21.694
X78.916 Y55.612 Z21.7
X78.798 Z21.746
X78.668 Z21.769
X65.294 Y55.643 Z21.79
X65.173 Z21.768
X65.054 Y55.644 Z21.721
X63.012 Y55.648 Z21.726
X62.894 Y55.649 Z21.775
X62.765 Z21.802
X54.668 Y55.667 Z21.814
X41.767 Y55.697 Z21.834
X41.646 Z21.877
X41.516 Z21.898
X40.608 Z21.899
X39.85 Y55.676 Z21.889
X39.162 Y55.64 Z21.868
X38.498 Y55.59 Z21.835
X37.888 Y55.531 Z21.789
X37.409 Y55.476 Z21.737
X37.01 Y55.424 Z21.685
X36.613 Y55.366 Z21.629
X36.151 Y55.293 Z21.556
X36.028 Y55.272 Z21.519
X35.985 Y55.264 Z21.504
X35.629 Y55.2 Z21.448
X35.193 Y55.116 Z21.373
X34.772 Y55.028 Z21.293
X34.276 Y54.93 Z21.198
X33.92 Y54.878 Z21.145
X33.653 Y54.85 Z21.116
X33.294 Y54.826 Z21.092
X32.846 Y54.818 Z21.084
X32.364 Y54.838 Z21.104
X31.894 Y54.885 Z21.153
X31.484 Y54.947 Z21.215
X30.908 Y55.046 Z21.309
X30.482 Y55.113 Z21.37
X30.044 Y55.175 Z21.426
X29.644 Y55.223 Z21.468
X29.174 Y55.267 Z21.506
X28.71 Y55.297 Z21.531
X28.161 Y55.33 Z21.558
X27.522 Y55.399 Z21.615
X27.388 Y55.408 Z21.622
X27.223 Y55.405 Z21.62
X26.701 Y55.372 Z21.594
X26.606 Y55.388 Z21.606
X26.547 Y55.412 Z21.625
X26.464 Y55.464 Z21.667
X26.431 Y55.474 Z21.675
X26.397 Y55.477 Z21.677
X26.363 Y55.471 Z21.672
X26.333 Y55.458 Z21.662
X26.306 Y55.438 Z21.646
X26.285 Y55.413 Z21.627
X26.263 Y55.361 Z21.584
X26.261 Y55.311 Z21.543
X26.296 Y55.197 Z21.445
X26.38 Y54.936 Z21.204
X26.441 Y54.735 Z20.996
X26.457 Y54.635 Z20.885
X26.472 Y54.467 Z20.685
X26.492 Y54.245 Z20.393
X26.505 Y54.098 Z20.177
X26.518 Y53.947 Z19.93
X26.526 Y53.826 Z19.713
X26.533 Y53.689 Z19.439
X26.537 Y53.559 Z19.138
X26.54 Y53.449 Z18.846
X26.543 Y53.352 Z18.538
X26.545 Y53.285 Z18.286
X26.547 Y53.231 Z18.037
X26.549 Y53.171 Z17.697
X26.588 Y52.568
X26.659 Y51.882
X26.755 Y51.142
X26.821 Y50.456
X26.859 Y49.768
X26.869 Y49.078
X26.851 Y48.389
X26.805 Y47.701
X26.73 Y47.016
X26.628 Y46.334
X26.476 Y45.47
X26.344 Y44.584
X26.24 Y43.694
X26.163 Y42.801
X26.114 Y41.906
X26.092 Y41.01
X26.098 Y40.114
X26.131 Y39.218
X26.192 Y38.324
X26.281 Y37.432
X26.397 Y36.543
X26.54 Y35.659
X26.664 Y35.001
X26.751 Y34.544
X26.817 Y34.066
X26.859 Y33.585
X26.876 Y33.103
X26.867 Y32.62
X26.833 Y32.139
X26.775 Y31.66
X26.625 Y30.679
X26.531 Y29.949
X26.47 Y29.292
X26.432 Y28.594
X26.424 Y28.065
X26.417 Y27.575
X26.37 Y26.874
X26.347 Y26.739
X26.193 Y26.261
X26.186 Y26.227
X26.188 Y26.193
X26.199 Y26.16
X26.217 Y26.131
X26.241 Y26.107
X26.271 Y26.09
X26.304 Y26.081
X26.339 Y26.08
X26.376 Y26.089
X26.468 Y26.144
X26.533 Y26.167
X26.587 Y26.176
X26.71 Y26.169
X27.204 Y26.128
X27.418 Y26.132
X28.173 Y26.189
X28.898 Y26.204
X29.436 Y26.232
X30.054 Y26.284
X30.661 Y26.355
X32.036 Y26.554
X32.516 Y26.603
X32.998 Y26.626
X33.48 Y26.623
X33.962 Y26.596
X34.442 Y26.543
X34.918 Y26.464
X35.883 Y26.279
X36.767 Y26.135
X37.656 Y26.017
X37.748 Y26.006 Z17.7
X37.999 Y25.978 Z17.814
X38.253 Y25.952 Z17.895
X38.512 Y25.928 Z17.966
X38.839 Y25.9 Z18.045
X38.904 Y25.895 Z18.046
X39.002 Y25.887 Z18.015
X39.026 Y25.885 Z18.003
X39.297 Y25.867 Z18.063
X39.561 Y25.851 Z18.114
X39.827 Y25.837 Z18.158
X40.094 Y25.825 Z18.195
X40.349 Y25.816 Z18.223
X40.618 Y25.809 Z18.246
X41.016 Y25.802 Z18.267
X42.421 Y25.798 Z18.28
X49.271 Y25.783 Z18.325
X49.463 Y25.782 Z18.574
X49.623 Z18.727
X50.973 Y25.779 Z19.841
X51.264 Y25.778 Z20.043
X54.405 Y25.771 Z22.022
X54.518 Y25.77 Z22.072
X54.662 Z22.103
X54.781 Z22.106
X54.909 Z22.086
X54.969 Y25.769 Z22.069
X57.191 Y25.764 Z22.076
X57.312 Z22.101
X58.028 Y25.762 Z22.107
X70.702 Y25.733 Z22.123
X70.856 Z22.096
X73.105 Y25.728 Z22.102
X73.205 Z22.126
X73.335 Y25.727 Z22.135
X81.351 Y25.709 Z22.141
X95.068 Y25.678 Z22.161
X95.827 Y25.689 Z22.155
X96.584 Y25.719 Z22.139
X97.341 Y25.767 Z22.113
X98.097 Y25.833 Z22.078
X98.85 Y25.917 Z22.032
X99.459 Y25.998 Z21.989
X99.86 Y26.059 Z21.956
X99.979 Y26.078 Z21.934
X100.079 Y26.094 Z21.905
X100.578 Y26.18 Z21.845
X100.959 Y26.251 Z21.794
X101.485 Y26.357 Z21.715
X101.869 Y26.427 Z21.661
X102.188 Y26.472 Z21.626
X102.575 Y26.514 Z21.592
X103.056 Y26.543 Z21.568
X103.538 Y26.549 Z21.563
X104.02 Y26.53 Z21.578
X104.497 Y26.489 Z21.612
X104.897 Y26.436 Z21.654
X105.735 Y26.299 Z21.759
X106.309 Y26.216 Z21.819
X106.783 Y26.159 Z21.859
X107.287 Y26.115 Z21.89
X107.786 Y26.074 Z21.917
X108.26 Y26.013 Z21.958
X108.527 Y25.978 Z21.981
X108.731 Y25.964 Z21.99
X108.919 Y25.967 Z21.988
X109.355 Y25.988 Z21.974
X109.458 Y25.985 Z21.977
X109.589 Y25.953 Z22.
X109.736 Y25.891 Z22.036
X109.785 Y25.88 Z22.043
X109.851 Y25.882 Z22.041
X109.908 Y25.9 Z22.03
X109.959 Y25.933 Z22.01
X110.004 Y25.986 Z21.976
X110.027 Y26.036 Z21.943
X110.038 Y26.086 Z21.91
X110.036 Y26.137 Z21.875
X110.013 Y26.21 Z21.823
X109.975 Y26.306 Z21.753
X109.96 Y26.388 Z21.691
X109.958 Y26.473 Z21.625
X109.97 Y26.671 Z21.459
X109.985 Y26.924 Z21.227
X109.989 Y27.058 Z21.092
X109.985 Y27.189 Z20.951
X109.971 Y27.339 Z20.78
X109.945 Y27.55 Z20.514
X109.92 Y27.761 Z20.216
X109.9 Y27.934 Z19.937
X109.889 Y28.048 Z19.732
X109.88 Y28.16 Z19.511
X109.873 Y28.277 Z19.253
X109.867 Y28.37 Z19.025
X109.86 Y28.494 Z18.667
X109.855 Y28.578 Z18.37
X109.851 Y28.65 Z18.052
X109.846 Y28.71 Z17.703
Y28.714 Z17.697
X109.811 Y29.123
X109.746 Y29.686
X109.606 Y30.65
X109.539 Y31.266
X109.5 Y31.886
X109.491 Y32.506
X109.51 Y33.126
X109.559 Y33.745
X109.636 Y34.36
X109.728 Y34.904
X109.892 Y35.766
X110.033 Y36.651
X110.148 Y37.54
X110.235 Y38.432
X110.296 Y39.326
X110.33 Y40.222
X110.336 Y41.118
X110.316 Y42.014
X110.268 Y42.909
X110.194 Y43.802
X110.092 Y44.693
X109.964 Y45.58
X109.817 Y46.442
X109.73 Y47.057
X109.67 Y47.674
X109.635 Y48.294
X109.627 Y48.914
X109.644 Y49.535
X109.688 Y50.153
X109.757 Y50.77
X109.881 Y51.689
X109.953 Y52.427
X109.995 Y53.144
X110.005 Y53.618
X110.01 Y54.083
X110.065 Y54.906
X110.085 Y55.042
X110.191 Y55.422
X110.193 Y55.525
X110.165 Y55.625
X110.108 Y55.711
X110.029 Y55.776
X109.933 Y55.815
X109.831 Y55.823
X109.76 Y55.811
X109.659 Y55.776
X109.592 Y55.761
X109.524 Y55.753
X109.306 Y55.764
X108.877 Y55.793
X108.67 Y55.788
X107.938 Y55.718
X107.553 Y55.7
X106.914 Y55.672
X106.261 Y55.617
X105.585 Y55.538
X104.9 Y55.466
X104.212 Y55.42
X103.523 Y55.399
X102.833 Y55.403
X102.144 Y55.432
X101.457 Y55.486
X100.772 Y55.566
X100.057 Y55.676
X99.171 Y55.813
X98.509 Y55.899
X98.443 Y55.906 Z17.724
X98.339 Y55.918 Z17.839
X98.255 Y55.927 Z17.886
X98.016 Y55.952 Z17.956
X97.757 Y55.977 Z18.025
X97.495 Y56. Z18.088
X97.182 Y56.024 Z18.154
X97.1 Y56.03 Z18.153
X97. Y56.036 Z18.116
X96.594 Y56.06 Z18.185
X96.327 Y56.073 Z18.224
X96.059 Y56.083 Z18.255
X95.722 Y56.093 Z18.283
X95.601 Y56.095 Z18.291
X93.372 Y56.106 Z18.322
X86.742 Y56.121 Z18.364
X86.538 Z18.621
X86.369 Z18.778
X84.958 Y56.125 Z19.92
X84.649 Z20.13
X81.581 Y56.132 Z22.04
X81.492 Z22.079
X81.365 Y56.133 Z22.11
X81.23 Z22.115
X81.101 Z22.093
X81.037 Z22.072
X78.849 Y56.138 Z22.077
X78.724 Y56.139 Z22.108
X78.522 Z22.116
X65.284 Y56.169 Z22.131
X65.135 Z22.099
X62.933 Y56.174 Z22.104
X62.811 Z22.135
X62.677 Y56.175 Z22.144
X54.68 Y56.193 Z22.152
X53.679 Y56.195 Z22.15
X41.544 Y56.222 Z22.169
X40.807 Y56.224 Z22.173
X40.049 Y56.208 Z22.165
X39.291 Y56.174 Z22.148
X38.535 Y56.122 Z22.12
X37.78 Y56.05 Z22.083
X37.174 Y55.979 Z22.046
X36.565 Y55.895 Z22.003
X36.131 Y55.828 Z21.967
X36.031 Y55.812 Z21.947
X35.916 Y55.792 Z21.905
X35.52 Y55.722 Z21.858
X35.041 Y55.63 Z21.792
X34.608 Y55.541 Z21.726
X34.194 Y55.455 Z21.659
X33.714 Y55.379 Z21.599
X33.357 Y55.341 Z21.568
X32.876 Y55.314 Z21.546
X32.394 Y55.315
X31.912 Y55.344 Z21.57
X31.51 Y55.389 Z21.607
X31.085 Y55.456 Z21.66
X30.556 Y55.546 Z21.73
X30.11 Y55.616 Z21.782
X29.532 Y55.697 Z21.839
X28.984 Y55.756 Z21.881
X28.503 Y55.794 Z21.907
X27.856 Y55.829 Z21.93
X27.437 Y55.869 Z21.957
X27.046 Y55.912 Z21.985
X26.91 Y55.922 Z21.991
X26.736 Y55.919 Z21.989
X26.229 Y55.886 Z21.968
X26.127 Y55.893 Z21.973
X26.035 Y55.927 Z21.994
X25.955 Y55.978 Z22.027
X25.925 Y55.989 Z22.034
X25.894 Y55.993 Z22.036
X25.863 Y55.991 Z22.035
X25.816 Y55.974 Z22.024
X25.777 Y55.942 Z22.004
X25.747 Y55.89 Z21.971
X25.739 Y55.838 Z21.937
X25.746 Y55.797 Z21.909
X25.827 Y55.546 Z21.73
X25.908 Y55.294 Z21.529
X25.934 Y55.191 Z21.441
X25.952 Y55.021 Z21.286
X25.975 Y54.773 Z21.036
X25.989 Y54.609 Z20.855
X26.007 Y54.407 Z20.609
X26.017 Y54.261 Z20.414
X26.024 Y54.088 Z20.162
X26.028 Y53.951 Z19.938
X26.032 Y53.797 Z19.659
X26.037 Y53.661 Z19.378
X26.041 Y53.561 Z19.145
X26.048 Y53.43 Z18.791
X26.052 Y53.358 Z18.558
X26.056 Y53.291 Z18.31
X26.06 Y53.237 Z18.068
X26.064 Y53.18 Z17.74
Y53.171 Z17.697
X26.126 Y52.501
X26.259 Y51.447
X26.323 Y50.76
X26.36 Y50.072
X26.37 Y49.383
X26.353 Y48.693
X26.309 Y48.005
X26.238 Y47.32
X26.139 Y46.637
X25.945 Y45.52
X25.816 Y44.633
X25.714 Y43.742
X25.638 Y42.849
X25.589 Y41.954
X25.567 Y41.058
X25.571 Y40.162
X25.602 Y39.266
X25.659 Y38.372
X25.743 Y37.48
X25.854 Y36.59
X25.991 Y35.704
X26.17 Y34.743
X26.258 Y34.267
X26.322 Y33.789
X26.362 Y33.308
X26.378 Y32.826
X26.369 Y32.343
X26.337 Y31.862
X26.28 Y31.383
X26.149 Y30.537
X26.031 Y29.655
X25.97 Y29.039
X25.925 Y28.309
X25.911 Y27.688
X25.906 Y27.188
X25.859 Y26.456
X25.847 Y26.316
X25.82 Y26.206
X25.671 Y25.75
X25.666 Y25.682
X25.693 Y25.619
X25.746 Y25.576
X25.813 Y25.561
X25.876 Y25.579
X25.954 Y25.627
X26.018 Y25.651
X26.077 Y25.661
X26.204 Y25.655
X26.715 Y25.612
X26.939 Y25.616
X27.642 Y25.671
X28.034 Y25.682
X28.668 Y25.699
X29.37 Y25.745
X30.077 Y25.819
X30.936 Y25.939
X31.781 Y26.061
X32.261 Y26.107
X32.743 Y26.128
X33.226 Y26.125
X33.708 Y26.097
X34.187 Y26.044
X34.664 Y25.968
X35.216 Y25.858 Z17.699
X35.314 Y25.839 Z17.801
X35.739 Y25.761 Z18.181
X35.893 Y25.735 Z18.317
X35.971 Y25.721 Z18.402
X36.096 Y25.701 Z18.481
X36.184 Y25.686 Z18.518
X36.293 Y25.669 Z18.529
X36.807 Y25.592 Z18.636
X37.188 Y25.54 Z18.708
X37.542 Y25.496 Z18.772
X37.653 Y25.483 Z18.828
X37.778 Y25.469 Z18.859
X38.177 Y25.428 Z18.916
X38.578 Y25.391 Z18.966
X38.845 Y25.369 Z18.995
X38.914 Y25.364 Z18.993
X39.034 Y25.355 Z18.967
X39.437 Y25.329 Z19.004
X39.843 Y25.308 Z19.034
X40.463 Y25.285 Z19.065
X41.083 Y25.275 Z19.08
X49.236 Y25.256 Z19.106
X49.587 Y25.255 Z19.388
X49.848 Z19.561
X52.378 Y25.249 Z21.155
X52.899 Y25.248 Z21.45
X54.252 Y25.245 Z22.183
X54.346 Y25.244 Z22.249
X54.462 Z22.306
X54.588 Z22.343
X54.738 Z22.358
X57.225 Y25.238 Z22.363
X57.377 Z22.383
X70.702 Y25.208 Z22.396
X70.856 Y25.207 Z22.371
X73.104 Y25.202 Z22.375
X73.227 Z22.401
X73.706 Y25.201 Z22.406
X81.29 Y25.184 Z22.414
X81.363 Z22.409
X94.383 Y25.155 Z22.425
X94.541 Y25.154 Z22.443
X95.476 Y25.157 Z22.442
X96.234 Y25.178 Z22.431
X96.991 Y25.216 Z22.41
X97.748 Y25.272 Z22.38
X98.502 Y25.345 Z22.341
X99.105 Y25.416 Z22.302
X99.577 Y25.48 Z22.268
X100.045 Y25.551 Z22.232
X100.549 Y25.634 Z22.187
X101.078 Y25.731 Z22.133
X101.578 Y25.83 Z22.073
X101.955 Y25.903 Z22.028
X102.374 Y25.968 Z21.988
X102.784 Y26.014 Z21.958
X103.265 Y26.046 Z21.936
X103.748 Y26.055 Z21.93
X104.23 Y26.041 Z21.939
X104.711 Y26.004 Z21.964
X105.249 Y25.936 Z22.008
X106.167 Y25.786 Z22.1
X106.825 Y25.694 Z22.156
X107.285 Y25.641 Z22.185
X107.708 Y25.606 Z22.203
X108.284 Y25.557 Z22.229
X108.693 Y25.503 Z22.26
X108.989 Y25.464 Z22.281
X109.194 Y25.45 Z22.286
X109.396 Y25.453 Z22.285
X109.847 Y25.475 Z22.273
X109.976 Y25.468 Z22.277
X110.113 Y25.429 Z22.296
X110.226 Y25.38 Z22.32
X110.289 Y25.363 Z22.329
X110.355 Y25.364 Z22.328
X110.42 Y25.384 Z22.319
X110.476 Y25.421 Z22.3
X110.518 Y25.47 Z22.276
X110.544 Y25.528 Z22.245
X110.554 Y25.608 Z22.201
X110.543 Y25.671 Z22.167
X110.501 Y25.768 Z22.111
X110.482 Y25.834 Z22.071
X110.47 Y25.938 Z22.007
X110.477 Y26.078 Z21.915
X110.495 Y26.376 Z21.7
X110.503 Y26.55 Z21.562
X110.502 Y26.644 Z21.483
X110.498 Y26.736 Z21.402
X110.487 Y26.853 Z21.295
X110.464 Y27.036 Z21.115
X110.444 Y27.203 Z20.937
X110.418 Y27.425 Z20.676
X110.402 Y27.583 Z20.47
X110.39 Y27.725 Z20.267
X110.381 Y27.88 Z20.027
X110.372 Y28.039 Z19.749
X110.366 Y28.131 Z19.571
X110.359 Y28.238 Z19.342
X110.349 Y28.376 Z19.009
X110.342 Y28.462 Z18.764
X110.336 Y28.537 Z18.521
X110.329 Y28.613 Z18.222
X110.325 Y28.654 Z18.031
X110.32 Y28.711 Z17.697
X110.253 Y29.289
X110.127 Y30.152
X110.052 Y30.768
X110.006 Y31.386
X109.988 Y32.007
X109.997 Y32.627
X110.034 Y33.246
X110.1 Y33.863
X110.193 Y34.477
X110.349 Y35.296
X110.5 Y36.18
X110.624 Y37.068
X110.723 Y37.958
X110.795 Y38.852
X110.842 Y39.747
X110.862 Y40.643
X110.856 Y41.539
X110.824 Y42.435
X110.766 Y43.329
X110.682 Y44.221
X110.571 Y45.111
X110.435 Y45.997
X110.294 Y46.832
X110.215 Y47.447
X110.161 Y48.065
X110.133 Y48.685
X110.129 Y49.306
X110.151 Y49.926
X110.197 Y50.544
X110.269 Y51.161
X110.389 Y52.048
X110.453 Y52.676
X110.499 Y53.356
X110.518 Y53.976
X110.522 Y54.465
X110.552 Y54.996
X110.588 Y55.461
X110.633 Y55.647
X110.71 Y55.925
X110.714 Y56.028
X110.687 Y56.128
X110.633 Y56.216
X110.556 Y56.284
X110.463 Y56.328
X110.361 Y56.342
X110.276 Y56.332
X110.163 Y56.293
X110.096 Y56.278
X110.028 Y56.269
X109.869 Y56.275
X109.356 Y56.31
X109.15 Y56.306
X108.387 Y56.233
X108.053 Y56.216
X107.406 Y56.19
X106.794 Y56.142
X106.035 Y56.057
X105.331 Y55.98
X104.575 Y55.927
X103.817 Y55.902
X103.059 Y55.907
X102.301 Y55.942
X101.546 Y56.005
X101.029 Y56.066 Z17.699
X100.919 Y56.081 Z17.806
X100.419 Y56.156 Z18.197
X100.02 Y56.223 Z18.524
X99.912 Y56.24 Z18.59
X99.851 Y56.25 Z18.611
X99.79 Y56.26 Z18.623
X99.68 Y56.277 Z18.621
X99.293 Y56.333 Z18.698
X98.897 Y56.386 Z18.769
X98.466 Y56.437 Z18.843
X98.358 Y56.449 Z18.895
X98.232 Y56.462 Z18.923
X97.832 Y56.501 Z18.975
X97.43 Y56.535 Z19.021
X97.162 Y56.555 Z19.045
X97.093 Y56.559 Z19.041
X96.981 Y56.567 Z19.015
X96.577 Y56.589 Z19.046
X95.957 Y56.614 Z19.08
X95.617 Y56.622 Z19.091
X92.958 Y56.633 Z19.106
X86.778 Y56.647 Z19.125
X86.415 Y56.648 Z19.414
X86.155 Z19.59
X83.466 Y56.654 Z21.264
X82.968 Y56.655 Z21.546
X81.782 Y56.658 Z22.184
X81.686 Z22.256
X81.572 Y56.659 Z22.315
X81.447 Z22.356
X81.316 Z22.375
X78.748 Y56.665 Z22.38
X78.588 Z22.391
X65.316 Y56.694 Z22.403
X65.183 Y56.695 Z22.387
X62.88 Y56.7 Z22.391
X62.721 Z22.413
X54.691 Y56.718 Z22.42
X54.437 Z22.416
X41.613 Y56.747 Z22.431
X41.469 Z22.445
X40.592 Y56.746
X39.834 Y56.726 Z22.435
X39.077 Y56.688 Z22.415
X38.321 Y56.632 Z22.386
X37.772 Y56.58 Z22.358
X37.165 Y56.511 Z22.323
X36.419 Y56.41 Z22.27
X35.924 Y56.332 Z22.232
X35.394 Y56.241 Z22.183
X34.906 Y56.148 Z22.129
X34.531 Y56.072 Z22.084
X34.028 Y55.966 Z22.019
X33.651 Y55.9 Z21.977
X33.209 Y55.846 Z21.942
X32.88 Y55.82 Z21.924
X32.398 Y55.805 Z21.914
X31.916 Y55.816 Z21.922
X31.435 Y55.855 Z21.948
X30.962 Y55.918 Z21.989
X30.335 Y56.024 Z22.055
X29.871 Y56.1 Z22.101
X29.354 Y56.175 Z22.145
X28.862 Y56.235 Z22.18
X28.507 Y56.271 Z22.199
X28.1 Y56.302 Z22.216
X27.449 Y56.336 Z22.234
X26.994 Y56.379 Z22.259
X26.507 Y56.431 Z22.284
X26.374 Y56.437 Z22.287
X26.112 Y56.424 Z22.28
X25.725 Y56.398 Z22.267
X25.623 Y56.405 Z22.271
X25.528 Y56.439 Z22.288
X25.436 Y56.496 Z22.317
X25.407 Y56.506 Z22.322
X25.373 Y56.509 Z22.324
X25.315 Y56.497 Z22.318
X25.279 Y56.476 Z22.307
X25.255 Y56.453 Z22.295
X25.226 Y56.4 Z22.268
X25.219 Y56.345 Z22.239
X25.226 Y56.306 Z22.218
X25.312 Y56.041 Z22.065
X25.394 Y55.787 Z21.902
X25.421 Y55.676 Z21.825
X25.439 Y55.511 Z21.703
X25.464 Y55.226 Z21.471
X25.48 Y55.046 Z21.309
X25.496 Y54.86 Z21.127
X25.507 Y54.692 Z20.949
X25.514 Y54.532 Z20.765
X25.518 Y54.368 Z20.56
X25.523 Y54.192 Z20.317
X25.528 Y54.055 Z20.11
X25.536 Y53.899 Z19.847
X25.544 Y53.753 Z19.57
X25.555 Y53.599 Z19.237
X25.562 Y53.499 Z18.985
X25.571 Y53.395 Z18.683
X25.577 Y53.319 Z18.419
X25.582 Y53.259 Z18.171
X25.588 Y53.2 Z17.867
X25.59 Y53.171 Z17.697
X25.652 Y52.623
X25.763 Y51.751
X25.825 Y51.065
X25.862 Y50.376
X25.872 Y49.687
X25.856 Y48.998
X25.813 Y48.31
X25.745 Y47.624
X25.65 Y46.941
X25.458 Y45.841
X25.325 Y44.955
X25.216 Y44.065
X25.134 Y43.173
X25.077 Y42.278
X25.046 Y41.382
X25.04 Y40.486
X25.061 Y39.59
X25.107 Y38.695
X25.179 Y37.802
X25.277 Y36.911
X25.4 Y36.023
