(SATURNV-8TH)
(T1  D=3.175 CR=0. - ZMIN=18.665 - FLAT END MILL)
G0 G90 G94 G17
G21
G53 G0 Z0.

(ADAPTIVE1)
M5
M9
T1
S16500 M3
G4 P4.
G55
G0 X85.815 Y42.313
Z49.657
Z39.657
Z37.157
G3 X85.39 Y39.327 Z36.992 I-0.212 J-1.493 F1016.
X85.815 Y42.313 Z36.826 I0.212 J1.493
X85.39 Y39.327 Z36.661 I-0.212 J-1.493
X85.815 Y42.313 Z36.495 I0.212 J1.493
X85.39 Y39.327 Z36.33 I-0.212 J-1.493
X85.815 Y42.313 Z36.164 I0.212 J1.493
X85.39 Y39.327 Z35.999 I-0.212 J-1.493
X85.815 Y42.313 Z35.833 I0.212 J1.493
X85.39 Y39.327 Z35.668 I-0.212 J-1.493
X85.815 Y42.313 Z35.502 I0.212 J1.493
X85.39 Y39.327 Z35.337 I-0.212 J-1.493
X85.815 Y42.313 Z35.172 I0.212 J1.493
X85.39 Y39.327 Z35.006 I-0.212 J-1.493
X85.815 Y42.313 Z34.841 I0.212 J1.493
X85.39 Y39.327 Z34.675 I-0.212 J-1.493
X85.815 Y42.313 Z34.51 I0.212 J1.493
X85.39 Y39.327 Z34.344 I-0.212 J-1.493
X85.815 Y42.313 Z34.179 I0.212 J1.493
X85.39 Y39.327 Z34.013 I-0.212 J-1.493
X85.815 Y42.313 Z33.848 I0.212 J1.493
X85.39 Y39.327 Z33.683 I-0.212 J-1.493
X85.815 Y42.313 Z33.517 I0.212 J1.493
X85.39 Y39.327 Z33.352 I-0.212 J-1.493
X85.815 Y42.313 Z33.186 I0.212 J1.493
X85.39 Y39.327 Z33.021 I-0.212 J-1.493
X85.815 Y42.313 Z32.855 I0.212 J1.493
X85.39 Y39.327 Z32.69 I-0.212 J-1.493
X85.815 Y42.313 Z32.524 I0.212 J1.493
X85.39 Y39.327 Z32.359 I-0.212 J-1.493
X85.815 Y42.313 Z32.193 I0.212 J1.493
X85.39 Y39.327 Z32.028 I-0.212 J-1.493
X85.815 Y42.313 Z31.863 I0.212 J1.493
X85.39 Y39.327 Z31.697 I-0.212 J-1.493
X85.815 Y42.313 Z31.532 I0.212 J1.493
X85.39 Y39.327 Z31.366 I-0.212 J-1.493
X85.815 Y42.313 Z31.201 I0.212 J1.493
X85.39 Y39.327 Z31.035 I-0.212 J-1.493
X85.815 Y42.313 Z30.87 I0.212 J1.493
X85.39 Y39.327 Z30.704 I-0.212 J-1.493
X85.815 Y42.313 Z30.539 I0.212 J1.493
X85.39 Y39.327 Z30.373 I-0.212 J-1.493
X85.815 Y42.313 Z30.208 I0.212 J1.493
X85.39 Y39.327 Z30.043 I-0.212 J-1.493
X85.815 Y42.313 Z29.877 I0.212 J1.493
X85.39 Y39.327 Z29.712 I-0.212 J-1.493
X85.815 Y42.313 Z29.546 I0.212 J1.493
X85.39 Y39.327 Z29.381 I-0.212 J-1.493
X85.815 Y42.313 Z29.215 I0.212 J1.493
X85.39 Y39.327 Z29.05 I-0.212 J-1.493
X85.815 Y42.313 Z28.884 I0.212 J1.493
X85.39 Y39.327 Z28.719 I-0.212 J-1.493
X85.815 Y42.313 Z28.554 I0.212 J1.493
X85.39 Y39.327 Z28.388 I-0.212 J-1.493
X85.815 Y42.313 Z28.223 I0.212 J1.493
X85.39 Y39.327 Z28.057 I-0.212 J-1.493
X85.815 Y42.313 Z27.892 I0.212 J1.493
X85.39 Y39.327 Z27.726 I-0.212 J-1.493
X85.815 Y42.313 Z27.561 I0.212 J1.493
X85.39 Y39.327 Z27.395 I-0.212 J-1.493
X85.815 Y42.313 Z27.23 I0.212 J1.493
X85.39 Y39.327 Z27.064 I-0.212 J-1.493
X85.815 Y42.313 Z26.899 I0.212 J1.493
X85.39 Y39.327 Z26.734 I-0.212 J-1.493
X85.815 Y42.313 Z26.568 I0.212 J1.493
X85.39 Y39.327 Z26.403 I-0.212 J-1.493
X85.815 Y42.313 Z26.237 I0.212 J1.493
X85.39 Y39.327 Z26.072 I-0.212 J-1.493
X85.815 Y42.313 Z25.906 I0.212 J1.493
X85.39 Y39.327 Z25.741 I-0.212 J-1.493
X85.815 Y42.313 Z25.575 I0.212 J1.493
X85.39 Y39.327 Z25.41 I-0.212 J-1.493
X85.815 Y42.313 Z25.244 I0.212 J1.493
X85.39 Y39.327 Z25.079 I-0.212 J-1.493
X85.815 Y42.313 Z24.914 I0.212 J1.493
X85.39 Y39.327 Z24.748 I-0.212 J-1.493
X87.111 Y40.82 Z24.658 I0.212 J1.493
X84.095 I-1.508 J0.
X87.111 I1.508 J0.
G1 X87.13 Y41.557
X87.152 Y41.647
X87.167 Y41.796
X87.155 Y41.946
X87.119 Y42.092
X87.065 Y42.231
X86.993 Y42.363
X86.907 Y42.486
X86.809 Y42.599
X86.7 Y42.703
X86.583 Y42.796
X86.457 Y42.878
X86.325 Y42.949
X86.186 Y43.009
X86.04 Y43.059
X85.886 Y43.099
X85.726 Y43.126
X85.561 Y43.141
X85.392 Y43.143
X85.221 Y43.131
X85.049 Y43.104
X84.878 Y43.064
X84.708 Y43.009
X84.542 Y42.94
X84.38 Y42.858
X84.225 Y42.762
X84.076 Y42.653
X83.936 Y42.531
X83.805 Y42.398
X83.685 Y42.254
X83.576 Y42.101
X83.48 Y41.938
X83.396 Y41.768
X83.327 Y41.591
X83.271 Y41.409
X83.231 Y41.222
X83.205 Y41.032
X83.195 Y40.841
X83.2 Y40.649
X83.22 Y40.458
X83.256 Y40.269
X83.307 Y40.083
X83.373 Y39.902
X83.453 Y39.726
X83.547 Y39.557
X83.655 Y39.397
X83.774 Y39.245
X83.906 Y39.104
X84.049 Y38.973
X84.202 Y38.854
X84.364 Y38.748
X84.534 Y38.656
X84.711 Y38.577
X84.893 Y38.512
X85.081 Y38.463
X85.271 Y38.428
X85.464 Y38.409
X85.658 Y38.406
X85.852 Y38.418
X86.043 Y38.446
X86.232 Y38.489
X86.418 Y38.547
X86.597 Y38.619
X86.771 Y38.706
X86.937 Y38.807
X87.094 Y38.92
X87.241 Y39.046
X87.378 Y39.183
X87.504 Y39.331
X87.617 Y39.488
X87.722 Y39.661
X87.833 Y39.883
X87.98 Y40.248
X88.087 Y40.591
X88.151 Y40.873
X88.188 Y41.129
X88.202 Y41.366
X88.198 Y41.589
X88.177 Y41.802
X88.14 Y42.01
X88.086 Y42.212
X88.016 Y42.409
X87.931 Y42.599
X87.831 Y42.782
X87.716 Y42.957
X87.587 Y43.124
X87.443 Y43.281
X87.285 Y43.428
X87.113 Y43.564
X86.929 Y43.687
X86.732 Y43.796
X86.524 Y43.891
X86.306 Y43.97
X86.08 Y44.031
X85.846 Y44.076
X85.606 Y44.101
X85.362 Y44.107
X85.116 Y44.094
X84.869 Y44.061
X84.623 Y44.007
X84.38 Y43.933
X84.143 Y43.839
X83.911 Y43.726
X83.689 Y43.593
X83.476 Y43.442
X83.275 Y43.274
X83.087 Y43.089
X82.914 Y42.889
X82.757 Y42.674
X82.617 Y42.447
X82.495 Y42.208
X82.392 Y41.96
X82.31 Y41.703
X82.248 Y41.44
X82.208 Y41.172
X82.189 Y40.902
X82.191 Y40.63
X82.216 Y40.359
X82.262 Y40.09
X82.33 Y39.826
X82.419 Y39.567
X82.529 Y39.317
X82.658 Y39.076
X82.806 Y38.845
X82.973 Y38.628
X83.157 Y38.424
X83.356 Y38.235
X83.57 Y38.063
X83.797 Y37.909
X84.036 Y37.774
X84.285 Y37.658
X84.543 Y37.562
X84.807 Y37.487
X85.077 Y37.434
X85.35 Y37.403
X85.625 Y37.393
X85.9 Y37.406
X86.173 Y37.441
X86.442 Y37.497
X86.706 Y37.575
X86.963 Y37.674
X87.211 Y37.793
X87.448 Y37.932
X87.674 Y38.09
X87.888 Y38.265
X88.094 Y38.465
X88.308 Y38.709
X88.51 Y38.98
X88.697 Y39.277
X88.861 Y39.593
X88.999 Y39.918
X89.107 Y40.245
X89.185 Y40.568
X89.237 Y40.888
X89.261 Y41.205
Y41.517
X89.235 Y41.825
X89.186 Y42.126
X89.113 Y42.42
X89.017 Y42.706
X88.899 Y42.982
X88.76 Y43.247
X88.599 Y43.501
X88.418 Y43.741
X88.218 Y43.968
X87.998 Y44.179
X87.761 Y44.373
X87.507 Y44.548
X87.237 Y44.704
X86.954 Y44.839
X86.657 Y44.952
X86.351 Y45.041
X86.035 Y45.106
X85.712 Y45.146
X85.385 Y45.16
X85.055 Y45.147
X84.725 Y45.108
X84.398 Y45.042
X84.074 Y44.949
X83.757 Y44.83
X83.448 Y44.685
X83.151 Y44.515
X82.867 Y44.32
X82.598 Y44.102
X82.346 Y43.862
X82.114 Y43.602
X81.902 Y43.323
X81.712 Y43.026
X81.547 Y42.715
X81.406 Y42.39
X81.292 Y42.054
X81.205 Y41.709
X81.146 Y41.358
X81.115 Y41.002
X81.113 Y40.644
X81.139 Y40.287
X81.195 Y39.933
X81.278 Y39.584
X81.39 Y39.242
X81.528 Y38.91
X81.693 Y38.59
X81.883 Y38.284
X82.098 Y37.994
X82.335 Y37.722
X82.593 Y37.47
X82.87 Y37.239
X83.166 Y37.032
X83.477 Y36.848
X83.802 Y36.69
X84.139 Y36.559
X84.485 Y36.455
X84.838 Y36.379
X85.197 Y36.332
X85.558 Y36.314
X85.92 Y36.325
X86.279 Y36.365
X86.634 Y36.433
X86.983 Y36.53
X87.323 Y36.654
X87.652 Y36.806
X87.97 Y36.985
X88.282 Y37.195
X88.586 Y37.437
X88.878 Y37.71
X89.154 Y38.015
X89.41 Y38.346
X89.64 Y38.7
X89.841 Y39.071
X90.011 Y39.455
X90.149 Y39.848
X90.253 Y40.248
X90.324 Y40.651
X90.363 Y41.055
X90.368 Y41.457
X90.342 Y41.856
X90.284 Y42.248
X90.196 Y42.632
X90.077 Y43.007
X89.929 Y43.37
X89.752 Y43.72
X89.548 Y44.054
X89.317 Y44.372
X89.061 Y44.671
X88.781 Y44.949
X88.478 Y45.205
X88.154 Y45.437
X87.81 Y45.644
X87.448 Y45.823
X87.072 Y45.974
X86.681 Y46.094
X86.28 Y46.184
X85.871 Y46.241
X85.456 Y46.265
X85.038 Y46.256
X84.62 Y46.213
X84.204 Y46.137
X83.793 Y46.026
X83.391 Y45.883
X83. Y45.706
X82.622 Y45.498
X82.261 Y45.259
X81.919 Y44.991
X81.598 Y44.696
X81.3 Y44.374
X81.029 Y44.028
X80.786 Y43.661
X80.572 Y43.274
X80.39 Y42.87
X80.24 Y42.452
X80.124 Y42.023
X80.043 Y41.584
X79.997 Y41.14
X79.987 Y40.693
X80.012 Y40.246
X80.074 Y39.802
X80.171 Y39.364
X80.304 Y38.934
X80.47 Y38.516
X80.67 Y38.113
X80.901 Y37.726
X81.163 Y37.36
X81.454 Y37.015
X81.771 Y36.694
X82.113 Y36.4
X82.478 Y36.135
X82.864 Y35.899
X83.267 Y35.695
X83.685 Y35.524
X84.116 Y35.387
X84.556 Y35.285
X85.003 Y35.218
X85.454 Y35.188
X85.906 Y35.194
X86.357 Y35.237
X86.802 Y35.315
X87.241 Y35.429
X87.671 Y35.579
X88.091 Y35.764
X88.501 Y35.985
X88.896 Y36.242
X89.277 Y36.535
X89.64 Y36.864
X89.981 Y37.227
X90.294 Y37.62
X90.577 Y38.039
X90.826 Y38.481
X91.038 Y38.94
X91.212 Y39.414
X91.347 Y39.898
X91.442 Y40.388
X91.497 Y40.882
X91.513 Y41.376
X91.488 Y41.867
X91.425 Y42.353
X91.323 Y42.83
X91.184 Y43.296
X91.008 Y43.748
X90.797 Y44.184
X90.551 Y44.602
X90.272 Y45.
X89.961 Y45.374
X89.621 Y45.723
X89.253 Y46.045
X88.858 Y46.338
X88.44 Y46.598
X88. Y46.826
X87.541 Y47.018
X87.066 Y47.173
X86.577 Y47.291
X86.079 Y47.369
X85.573 Y47.407
X85.063 Y47.404
X84.553 Y47.36
X84.046 Y47.276
X83.545 Y47.15
X83.054 Y46.983
X82.576 Y46.777
X82.114 Y46.532
X81.671 Y46.25
X81.252 Y45.933
X80.857 Y45.581
X80.492 Y45.198
X80.157 Y44.786
X79.855 Y44.347
X79.59 Y43.884
X79.361 Y43.4
X79.172 Y42.898
X79.024 Y42.382
X78.917 Y41.855
X78.853 Y41.32
X78.832 Y40.781
X78.854 Y40.241
X78.92 Y39.704
X79.028 Y39.174
X79.179 Y38.653
X79.371 Y38.146
X79.604 Y37.656
X79.875 Y37.186
X80.184 Y36.739
X80.527 Y36.317
X80.903 Y35.925
X81.31 Y35.564
X81.745 Y35.236
X82.204 Y34.944
X82.686 Y34.691
X83.186 Y34.476
X83.703 Y34.303
X84.231 Y34.171
X84.769 Y34.082
X85.312 Y34.037
X85.857 Y34.035
X86.401 Y34.077
X86.94 Y34.163
X87.473 Y34.292
X87.997 Y34.465
X88.509 Y34.68
X89.007 Y34.939
X89.488 Y35.24
X89.95 Y35.584
X90.387 Y35.968
X90.797 Y36.389
X91.173 Y36.845
X91.513 Y37.332
X91.814 Y37.846
X92.073 Y38.383
X92.287 Y38.938
X92.456 Y39.508
X92.578 Y40.087
X92.654 Y40.672
X92.681 Y41.26
X92.662 Y41.845
X92.596 Y42.426
X92.484 Y42.997
X92.327 Y43.557
X92.125 Y44.101
X91.881 Y44.627
X91.595 Y45.132
X91.27 Y45.613
X90.906 Y46.066
X90.507 Y46.49
X90.073 Y46.881
X89.609 Y47.237
X89.116 Y47.556
X88.597 Y47.835
X88.055 Y48.072
X87.494 Y48.266
X86.917 Y48.415
X86.327 Y48.517
X85.729 Y48.572
X85.126 Y48.579
X84.521 Y48.537
X83.92 Y48.447
X83.326 Y48.308
X82.743 Y48.121
X82.175 Y47.887
X81.626 Y47.607
X81.099 Y47.284
X80.598 Y46.917
X80.127 Y46.511
X79.689 Y46.067
X79.287 Y45.588
X78.924 Y45.078
X78.603 Y44.538
X78.325 Y43.974
X78.093 Y43.388
X77.908 Y42.784
X77.773 Y42.167
X77.687 Y41.539
X77.652 Y40.906
X77.668 Y40.272
X77.734 Y39.64
X77.851 Y39.015
X78.019 Y38.401
X78.235 Y37.802
X78.498 Y37.222
X78.808 Y36.664
X79.161 Y36.133
X79.556 Y35.632
X79.991 Y35.164
X80.461 Y34.732
X80.965 Y34.339
X81.499 Y33.988
X82.06 Y33.68
X82.643 Y33.419
X83.246 Y33.205
X83.864 Y33.04
X84.494 Y32.926
X85.13 Y32.862
X85.771 Y32.849
X86.411 Y32.888
X87.047 Y32.979
X87.677 Y33.12
X88.296 Y33.313
X88.903 Y33.557
X89.492 Y33.851
X90.061 Y34.194
X90.604 Y34.585
X91.119 Y35.021
X91.6 Y35.501
X92.044 Y36.021
X92.446 Y36.577
X92.803 Y37.165
X93.113 Y37.781
X93.372 Y38.42
X93.578 Y39.077
X93.731 Y39.746
X93.83 Y40.425
X93.873 Y41.107
X93.862 Y41.789
X93.796 Y42.466
X93.676 Y43.135
X93.504 Y43.79
X93.279 Y44.429
X93.004 Y45.048
X92.681 Y45.642
X92.31 Y46.209
X91.895 Y46.744
X91.438 Y47.246
X90.941 Y47.709
X90.407 Y48.133
X89.839 Y48.513
X89.241 Y48.847
X88.616 Y49.133
X87.969 Y49.369
X87.302 Y49.553
X86.62 Y49.683
X85.928 Y49.758
X85.23 Y49.777
X84.53 Y49.74
X83.833 Y49.647
X83.143 Y49.498
X82.466 Y49.293
X81.805 Y49.034
X81.165 Y48.721
X80.551 Y48.357
X79.966 Y47.944
X79.415 Y47.484
X78.901 Y46.981
X78.429 Y46.436
X78.001 Y45.854
X77.62 Y45.239
X77.289 Y44.594
X77.011 Y43.923
X76.787 Y43.231
X76.619 Y42.522
X76.508 Y41.801
X76.456 Y41.073
X76.462 Y40.343
X76.526 Y39.614
X76.65 Y38.892
X76.83 Y38.182
X77.068 Y37.489
X77.36 Y36.816
X77.706 Y36.169
X78.102 Y35.551
X78.548 Y34.966
X79.038 Y34.42
X79.572 Y33.914
X80.144 Y33.452
X80.752 Y33.038
X81.391 Y32.673
X82.058 Y32.361
X82.747 Y32.104
X83.455 Y31.903
X84.177 Y31.759
X84.909 Y31.673
X85.645 Y31.647
X86.382 Y31.68
X87.114 Y31.771
X87.837 Y31.922
X88.545 Y32.129
X89.234 Y32.391
X89.901 Y32.708
X90.541 Y33.075
X91.15 Y33.492
X91.725 Y33.954
X92.263 Y34.458
X92.761 Y35.003
X93.217 Y35.583
X93.627 Y36.196
X93.99 Y36.839
X94.304 Y37.506
X94.566 Y38.196
X94.776 Y38.903
X94.933 Y39.624
X95.034 Y40.355
X95.079 Y41.092
X95.068 Y41.829
X95. Y42.564
X94.875 Y43.291
X94.696 Y44.007
X94.462 Y44.707
X94.175 Y45.386
X93.837 Y46.042
X93.45 Y46.671
X93.017 Y47.268
X92.539 Y47.83
X92.019 Y48.354
X91.462 Y48.837
X90.869 Y49.276
X90.244 Y49.669
X89.592 Y50.014
X88.916 Y50.309
X88.219 Y50.552
X87.506 Y50.742
X86.781 Y50.879
X86.048 Y50.959
X85.311 Y50.984
X84.573 Y50.954
X83.84 Y50.868
X83.116 Y50.729
X82.403 Y50.538
X81.707 Y50.294
X81.03 Y50.001
X80.376 Y49.659
X79.749 Y49.271
X79.151 Y48.839
X78.586 Y48.364
X78.059 Y47.848
X77.571 Y47.294
X77.125 Y46.707
X76.722 Y46.088
X76.364 Y45.443
X76.053 Y44.774
X75.791 Y44.084
X75.578 Y43.378
X75.415 Y42.658
X75.306 Y41.929
X75.251 Y41.193
X75.25 Y40.455
X75.301 Y39.719
X75.404 Y38.988
X75.559 Y38.267
X75.764 Y37.558
X76.018 Y36.866
X76.321 Y36.193
X76.671 Y35.543
X77.068 Y34.922
X77.51 Y34.33
X77.992 Y33.772
X78.512 Y33.249
X79.068 Y32.764
X79.656 Y32.319
X80.275 Y31.916
X80.92 Y31.557
X81.589 Y31.247
X82.279 Y30.987
X82.987 Y30.776
X83.707 Y30.617
X84.437 Y30.509
X85.172 Y30.452
X85.91 Y30.446
X86.647 Y30.492
X87.378 Y30.59
X88.1 Y30.741
X88.809 Y30.944
X89.503 Y31.196
X90.177 Y31.496
X90.829 Y31.842
X91.455 Y32.231
X92.054 Y32.662
X92.623 Y33.133
X93.158 Y33.64
X93.656 Y34.185
X94.116 Y34.762
X94.535 Y35.369
X94.913 Y36.002
X95.248 Y36.66
X95.539 Y37.338
X95.785 Y38.034
X95.984 Y38.744
X96.135 Y39.466
X96.236 Y40.197
X96.285 Y40.933
Y41.671
X96.234 Y42.407
X96.133 Y43.138
X95.984 Y43.861
X95.786 Y44.571
X95.542 Y45.268
X95.251 Y45.946
X94.913 Y46.601
X94.53 Y47.232
X94.105 Y47.835
X93.641 Y48.408
X93.139 Y48.949
X92.602 Y49.455
X92.032 Y49.924
X91.433 Y50.355
X90.806 Y50.744
X90.154 Y51.089
X89.479 Y51.388
X88.786 Y51.641
X88.078 Y51.847
X87.357 Y52.006
X86.628 Y52.117
X85.893 Y52.179
X85.155 Y52.193
X84.418 Y52.157
X83.685 Y52.072
X82.96 Y51.937
X82.245 Y51.754
X81.544 Y51.526
X80.858 Y51.252
X80.192 Y50.935
X79.547 Y50.576
X78.927 Y50.177
X78.333 Y49.739
X77.771 Y49.262
X77.242 Y48.747
X76.748 Y48.199
X76.291 Y47.62
X75.872 Y47.013
X75.492 Y46.38
X75.153 Y45.725
X74.856 Y45.049
X74.602 Y44.357
X74.393 Y43.649
X74.231 Y42.929
X74.117 Y42.2
X74.052 Y41.465
X74.033 Y40.728
X74.062 Y39.991
X74.137 Y39.257
X74.258 Y38.529
X74.424 Y37.81
X74.635 Y37.103
X74.891 Y36.411
X75.192 Y35.737
X75.536 Y35.085
X75.922 Y34.456
X76.347 Y33.853
X76.81 Y33.278
X77.308 Y32.734
X77.839 Y32.221
X78.4 Y31.743
X78.991 Y31.3
X79.609 Y30.898
X80.252 Y30.536
X80.918 Y30.217
X81.602 Y29.942
X82.303 Y29.71
X83.016 Y29.523
X83.74 Y29.382
X84.472 Y29.285
X85.208 Y29.234
X85.946 Y29.231
X86.682 Y29.275
X87.414 Y29.367
X88.139 Y29.506
X88.853 Y29.69
X89.555 Y29.92
X90.24 Y30.192
X90.908 Y30.506
X91.555 Y30.86
X92.18 Y31.252
X92.779 Y31.684
X93.349 Y32.151
X93.889 Y32.654
X94.397 Y33.189
X94.872 Y33.754
X95.311 Y34.347
X95.714 Y34.965
X96.08 Y35.606
X96.407 Y36.267
X96.694 Y36.947
X96.939 Y37.643
X97.141 Y38.352
X97.299 Y39.073
X97.412 Y39.802
X97.481 Y40.537
X97.504 Y41.274
X97.483 Y42.012
X97.417 Y42.747
X97.308 Y43.476
X97.155 Y44.198
X96.957 Y44.909
X96.716 Y45.606
X96.431 Y46.287
X96.105 Y46.949
X95.739 Y47.589
X95.335 Y48.206
X94.894 Y48.798
X94.419 Y49.362
X93.91 Y49.897
X93.371 Y50.401
X92.802 Y50.87
X92.204 Y51.303
X91.581 Y51.698
X90.935 Y52.055
X90.269 Y52.372
X89.585 Y52.648
X88.885 Y52.883
X88.173 Y53.075
X87.451 Y53.226
X86.721 Y53.333
X85.986 Y53.395
X85.248 Y53.412
X84.511 Y53.383
X83.777 Y53.311
X83.048 Y53.194
X82.328 Y53.035
X81.618 Y52.834
X80.921 Y52.591
X80.239 Y52.309
X79.575 Y51.989
X78.93 Y51.629
X78.309 Y51.232
X77.712 Y50.798
X77.142 Y50.329
X76.601 Y49.827
X76.091 Y49.294
X75.613 Y48.732
X75.168 Y48.143
X74.758 Y47.53
X74.383 Y46.895
X74.046 Y46.239
X73.748 Y45.564
X73.489 Y44.873
X73.272 Y44.168
X73.096 Y43.451
X72.963 Y42.725
X72.873 Y41.993
X72.825 Y41.257
X72.819 Y40.519
X72.856 Y39.782
X72.934 Y39.048
X73.055 Y38.32
X73.218 Y37.601
X73.422 Y36.892
X73.667 Y36.196
X73.953 Y35.516
X74.277 Y34.853
X74.64 Y34.21
X75.038 Y33.59
X75.472 Y32.993
X75.939 Y32.421
X76.437 Y31.877
X76.967 Y31.364
X77.525 Y30.881
X78.111 Y30.432
X78.721 Y30.018
X79.354 Y29.639
X80.009 Y29.298
X80.682 Y28.996
X81.371 Y28.732
X82.074 Y28.508
X82.788 Y28.324
X83.512 Y28.182
X84.243 Y28.082
X84.979 Y28.024
X85.716 Y28.009
X86.454 Y28.037
X87.188 Y28.107
X87.917 Y28.219
X88.639 Y28.373
X89.351 Y28.568
X90.05 Y28.802
X90.736 Y29.075
X91.404 Y29.388
X92.054 Y29.737
X92.683 Y30.123
X93.289 Y30.543
X93.871 Y30.997
X94.426 Y31.483
X94.954 Y31.999
X95.452 Y32.543
X95.919 Y33.114
X96.355 Y33.709
X96.758 Y34.327
X97.125 Y34.967
X97.457 Y35.626
X97.752 Y36.303
X98.009 Y36.994
X98.228 Y37.699
X98.408 Y38.414
X98.547 Y39.139
X98.647 Y39.87
X98.707 Y40.605
X98.726 Y41.343
X98.704 Y42.08
X98.64 Y42.815
X98.536 Y43.546
X98.391 Y44.269
X98.207 Y44.984
X97.983 Y45.687
X97.72 Y46.376
X97.419 Y47.05
X97.081 Y47.706
X96.708 Y48.342
X96.301 Y48.957
X95.859 Y49.549
X95.386 Y50.114
X94.882 Y50.653
X94.349 Y51.163
X93.788 Y51.643
X93.202 Y52.091
X92.592 Y52.506
X91.96 Y52.887
X91.308 Y53.232
X90.638 Y53.542
X89.953 Y53.815
X89.253 Y54.049
X88.542 Y54.244
X87.82 Y54.4
X87.092 Y54.516
X86.358 Y54.592
X85.621 Y54.627
X84.883 Y54.622
X84.147 Y54.577
X83.414 Y54.492
X82.687 Y54.368
X81.967 Y54.205
X81.257 Y54.003
X80.56 Y53.763
X79.876 Y53.486
X79.208 Y53.173
X78.557 Y52.825
X77.927 Y52.442
X77.317 Y52.026
X76.732 Y51.577
X76.171 Y51.098
X75.636 Y50.589
X75.129 Y50.053
X74.652 Y49.49
X74.206 Y48.903
X73.792 Y48.292
X73.411 Y47.66
X73.063 Y47.009
X72.751 Y46.341
X72.474 Y45.657
X72.234 Y44.959
X72.031 Y44.25
X71.866 Y43.531
X71.739 Y42.804
X71.651 Y42.072
X71.602 Y41.335
X71.594 Y40.598
X71.623 Y39.86
X71.692 Y39.126
X71.799 Y38.396
X71.944 Y37.672
X72.127 Y36.958
X72.348 Y36.253
X72.605 Y35.562
X72.898 Y34.885
X73.226 Y34.224
X73.589 Y33.582
X73.986 Y32.96
X74.415 Y32.36
X74.876 Y31.783
X75.365 Y31.231
X75.884 Y30.706
X76.429 Y30.209
X76.999 Y29.74
X77.593 Y29.303
X78.209 Y28.897
X78.845 Y28.523
X79.5 Y28.184
X80.173 Y27.881
X80.861 Y27.614
X81.561 Y27.383
X82.273 Y27.189
X82.995 Y27.033
X83.723 Y26.915
X84.456 Y26.835
X85.193 Y26.794
X85.931 Y26.791
X86.668 Y26.827
X87.402 Y26.901
X88.131 Y27.013
X88.853 Y27.165
X89.566 Y27.354
X90.269 Y27.581
X90.958 Y27.843
X91.633 Y28.14
X92.292 Y28.472
X92.933 Y28.838
X93.555 Y29.235
X94.155 Y29.664
X94.733 Y30.122
X95.287 Y30.61
X95.815 Y31.125
X96.315 Y31.668
X96.787 Y32.235
X97.231 Y32.825
X97.643 Y33.436
X98.025 Y34.068
X98.374 Y34.718
X98.691 Y35.384
X98.973 Y36.066
X99.222 Y36.76
X99.435 Y37.467
X99.612 Y38.183
X99.752 Y38.907
X99.855 Y39.638
X99.92 Y40.373
X99.948 Y41.11
X99.939 Y41.848
X99.892 Y42.584
X99.808 Y43.317
X99.688 Y44.045
X99.53 Y44.766
X99.337 Y45.478
X99.107 Y46.179
X98.843 Y46.868
X98.543 Y47.542
X98.208 Y48.199
X97.84 Y48.839
X97.441 Y49.46
X97.011 Y50.059
X96.551 Y50.636
X96.062 Y51.188
X95.546 Y51.716
X95.005 Y52.217
X94.438 Y52.69
X93.849 Y53.134
X93.238 Y53.548
X92.607 Y53.93
X91.957 Y54.279
X91.29 Y54.594
X90.608 Y54.876
X89.913 Y55.123
X89.206 Y55.335
X88.49 Y55.512
X87.765 Y55.652
X87.035 Y55.756
X86.3 Y55.823
X85.563 Y55.854
X84.825 Y55.848
X84.089 Y55.804
X83.355 Y55.722
X82.627 Y55.605
X81.905 Y55.451
X81.192 Y55.262
X80.489 Y55.038
X79.798 Y54.78
X79.12 Y54.489
X78.457 Y54.165
X77.811 Y53.808
X77.183 Y53.421
X76.575 Y53.003
X75.989 Y52.555
X75.426 Y52.078
X74.888 Y51.574
X74.374 Y51.044
X73.888 Y50.489
X73.429 Y49.912
X72.999 Y49.312
X72.598 Y48.692
X72.228 Y48.054
X71.889 Y47.399
X71.582 Y46.728
X71.308 Y46.043
X71.068 Y45.345
X70.863 Y44.637
X70.693 Y43.919
X70.559 Y43.193
X70.46 Y42.462
X70.396 Y41.727
X70.369 Y40.99
X70.377 Y40.252
X70.421 Y39.515
X70.5 Y38.782
X70.615 Y38.053
X70.764 Y37.33
X70.948 Y36.616
X71.167 Y35.911
X71.42 Y35.218
X71.707 Y34.539
X72.027 Y33.874
X72.378 Y33.225
X72.761 Y32.594
X73.174 Y31.982
X73.616 Y31.391
X74.085 Y30.822
X74.581 Y30.276
X75.103 Y29.755
X75.649 Y29.259
X76.219 Y28.79
X76.812 Y28.35
X77.425 Y27.94
X78.057 Y27.559
X78.707 Y27.21
X79.373 Y26.893
X80.054 Y26.608
X80.747 Y26.357
X81.452 Y26.139
X82.167 Y25.955
X82.889 Y25.806
X83.618 Y25.691
X84.352 Y25.611
X85.088 Y25.568
X85.826 Y25.561
X86.563 Y25.59
X87.298 Y25.654
X88.029 Y25.753
X88.755 Y25.888
X89.473 Y26.058
X90.182 Y26.261
X90.881 Y26.498
X91.567 Y26.768
X92.241 Y27.07
X92.899 Y27.403
X93.54 Y27.768
X94.163 Y28.163
X94.767 Y28.588
X95.35 Y29.04
X95.911 Y29.519
X96.449 Y30.024
X96.962 Y30.554
X97.45 Y31.107
X97.912 Y31.683
X98.347 Y32.279
X98.753 Y32.894
X99.131 Y33.528
X99.48 Y34.179
X99.797 Y34.845
X100.082 Y35.525
X100.336 Y36.218
X100.557 Y36.922
X100.745 Y37.635
X100.899 Y38.357
X101.02 Y39.085
X101.106 Y39.817
X101.158 Y40.553
X101.176 Y41.291
X101.16 Y42.029
X101.11 Y42.765
X101.025 Y43.498
X100.905 Y44.226
X100.751 Y44.947
X100.563 Y45.661
X100.342 Y46.365
X100.089 Y47.058
X99.802 Y47.738
X99.485 Y48.404
X99.136 Y49.054
X98.758 Y49.687
X98.35 Y50.302
X97.915 Y50.898
X97.452 Y51.473
X96.963 Y52.025
X96.449 Y52.554
X95.909 Y53.058
X95.348 Y53.536
X94.764 Y53.987
X94.16 Y54.411
X93.537 Y54.806
X92.896 Y55.171
X92.239 Y55.507
X91.567 Y55.812
X90.881 Y56.085
X90.184 Y56.326
X89.477 Y56.536
X88.76 Y56.712
X88.036 Y56.854
X87.306 Y56.962
X86.572 Y57.036
X85.836 Y57.076
X85.098 Y57.082
X84.36 Y57.053
X83.625 Y56.991
X82.894 Y56.895
X82.167 Y56.766
X81.448 Y56.604
X80.736 Y56.409
X80.034 Y56.182
X79.343 Y55.924
X78.664 Y55.634
X78. Y55.313
X77.351 Y54.962
X76.718 Y54.582
X76.104 Y54.174
X75.508 Y53.738
X74.934 Y53.275
X74.381 Y52.787
X73.851 Y52.274
X73.344 Y51.737
X72.863 Y51.178
X72.406 Y50.598
X71.977 Y49.998
X71.575 Y49.38
X71.202 Y48.743
X70.858 Y48.09
X70.544 Y47.423
X70.26 Y46.742
X70.007 Y46.049
X69.785 Y45.345
X69.596 Y44.632
X69.439 Y43.911
X69.314 Y43.184
X69.223 Y42.452
X69.164 Y41.716
X69.138 Y40.979
X69.146 Y40.241
X69.187 Y39.504
X69.261 Y38.77
X69.368 Y38.04
X69.508 Y37.316
X69.679 Y36.598
X69.883 Y35.889
X70.119 Y35.19
X70.386 Y34.502
X70.683 Y33.827
X71.01 Y33.165
X71.366 Y32.519
X71.751 Y31.89
X72.164 Y31.278
X72.604 Y30.686
X73.07 Y30.114
X73.562 Y29.564
X74.077 Y29.036
X74.616 Y28.532
X75.177 Y28.052
X75.758 Y27.598
X76.359 Y27.171
X76.979 Y26.77
X77.616 Y26.398
X78.269 Y26.055
X78.937 Y25.741
X79.618 Y25.457
X80.311 Y25.204
X81.015 Y24.983
X81.728 Y24.794
X82.449 Y24.637
X83.176 Y24.512
X83.908 Y24.42
X84.644 Y24.36
X85.381 Y24.333
X86.119 Y24.34
X86.856 Y24.379
X87.59 Y24.45
X88.32 Y24.555
X89.045 Y24.691
X89.764 Y24.86
X90.473 Y25.062
X91.173 Y25.295
X91.863 Y25.558
X92.54 Y25.852
X93.203 Y26.175
X93.851 Y26.527
X94.484 Y26.907
X95.099 Y27.314
X95.696 Y27.748
X96.273 Y28.207
X96.83 Y28.691
X97.365 Y29.199
X97.878 Y29.73
X98.367 Y30.282
X98.831 Y30.856
X99.269 Y31.449
X99.682 Y32.061
X100.069 Y32.689
X100.427 Y33.334
X100.758 Y33.994
X101.06 Y34.667
X101.333 Y35.352
X101.576 Y36.049
X101.788 Y36.756
X101.97 Y37.471
X102.122 Y38.193
X102.241 Y38.921
X102.329 Y39.653
X102.384 Y40.389
X102.407 Y41.127
X102.398 Y41.864
X102.358 Y42.601
X102.286 Y43.335
X102.181 Y44.066
X102.045 Y44.791
X101.878 Y45.509
X101.68 Y46.22
X101.451 Y46.922
X101.192 Y47.613
X100.904 Y48.292
X100.586 Y48.957
X100.238 Y49.608
X99.863 Y50.244
X99.46 Y50.862
X99.031 Y51.462
X98.577 Y52.043
X98.098 Y52.605
X97.595 Y53.144
X97.069 Y53.662
X96.521 Y54.156
X95.953 Y54.626
X95.365 Y55.072
X94.758 Y55.491
X94.133 Y55.885
X93.493 Y56.25
X92.836 Y56.587
X92.166 Y56.895
X91.483 Y57.174
X90.788 Y57.424
X90.084 Y57.643
X89.371 Y57.832
X88.65 Y57.99
X87.923 Y58.117
X87.192 Y58.213
X86.457 Y58.277
X85.72 Y58.31
X84.982 Y58.311
X84.245 Y58.281
X83.509 Y58.219
X82.778 Y58.125
X82.051 Y57.999
X81.33 Y57.843
X80.616 Y57.656
X79.91 Y57.44
X79.215 Y57.194
X78.53 Y56.919
X77.858 Y56.615
X77.199 Y56.283
X76.555 Y55.923
X75.926 Y55.537
X75.314 Y55.125
X74.72 Y54.687
X74.146 Y54.224
X73.592 Y53.737
X73.059 Y53.226
X72.549 Y52.694
X72.061 Y52.14
X71.597 Y51.567
X71.157 Y50.974
X70.742 Y50.364
X70.354 Y49.737
X69.992 Y49.094
X69.657 Y48.436
X69.35 Y47.765
X69.07 Y47.082
X68.82 Y46.388
X68.599 Y45.684
X68.409 Y44.972
X68.249 Y44.251
X68.119 Y43.525
X68.02 Y42.794
X67.952 Y42.059
X67.914 Y41.322
X67.907 Y40.584
X67.931 Y39.847
X67.986 Y39.111
X68.071 Y38.378
X68.186 Y37.65
X68.332 Y36.926
X68.507 Y36.21
X68.712 Y35.501
X68.947 Y34.801
X69.212 Y34.113
X69.505 Y33.436
X69.826 Y32.771
X70.175 Y32.121
X70.55 Y31.486
X70.951 Y30.867
X71.378 Y30.265
X71.83 Y29.682
X72.305 Y29.118
X72.804 Y28.574
X73.324 Y28.05
X73.866 Y27.549
X74.428 Y27.071
X75.009 Y26.617
X75.61 Y26.188
X76.227 Y25.785
X76.862 Y25.408
X77.511 Y25.057
X78.174 Y24.734
X78.85 Y24.439
X79.538 Y24.172
X80.236 Y23.934
X80.944 Y23.725
X81.66 Y23.546
X82.382 Y23.396
X83.11 Y23.276
X83.843 Y23.187
X84.578 Y23.128
X85.315 Y23.1
X86.053 Y23.103
X86.79 Y23.138
X87.525 Y23.202
X88.257 Y23.297
X88.984 Y23.423
X89.705 Y23.578
X90.419 Y23.763
X91.125 Y23.977
X91.822 Y24.221
X92.508 Y24.492
X93.182 Y24.791
X93.844 Y25.118
X94.492 Y25.471
X95.124 Y25.851
X95.741 Y26.257
X96.34 Y26.688
X96.921 Y27.142
X97.483 Y27.62
X98.025 Y28.121
X98.546 Y28.643
X99.046 Y29.185
X99.524 Y29.748
X99.978 Y30.329
X100.409 Y30.928
X100.815 Y31.544
X101.197 Y32.176
X101.552 Y32.822
X101.882 Y33.482
X102.185 Y34.155
X102.459 Y34.84
X102.706 Y35.535
X102.925 Y36.24
X103.115 Y36.953
X103.276 Y37.673
X103.408 Y38.398
X103.511 Y39.129
X103.584 Y39.863
X103.627 Y40.6
X103.64 Y41.338
X103.624 Y42.075
X103.578 Y42.812
X103.503 Y43.546
X103.398 Y44.276
X103.263 Y45.001
X103.098 Y45.72
X102.905 Y46.432
X102.682 Y47.136
X102.431 Y47.83
X102.153 Y48.513
X101.847 Y49.184
X101.514 Y49.843
X101.154 Y50.487
X100.769 Y51.116
X100.359 Y51.73
X99.924 Y52.326
X99.466 Y52.904
X98.986 Y53.464
X98.482 Y54.003
X97.957 Y54.522
X97.412 Y55.018
X96.846 Y55.493
X96.262 Y55.943
X95.661 Y56.371
X95.043 Y56.773
X94.409 Y57.151
X93.76 Y57.502
X93.097 Y57.827
X92.423 Y58.125
X91.736 Y58.396
X91.04 Y58.64
X90.334 Y58.855
X89.62 Y59.042
X88.9 Y59.2
X88.173 Y59.329
X87.442 Y59.428
X86.707 Y59.497
X85.971 Y59.537
X85.233 Y59.548
X84.495 Y59.529
X83.759 Y59.48
X83.025 Y59.403
X82.295 Y59.296
X81.57 Y59.16
X80.851 Y58.996
X80.139 Y58.803
X79.435 Y58.583
X78.74 Y58.335
X78.055 Y58.06
X77.382 Y57.757
X76.722 Y57.428
X76.075 Y57.073
X75.443 Y56.693
X74.826 Y56.288
X74.226 Y55.859
X73.643 Y55.407
X73.078 Y54.931
X72.533 Y54.434
X72.008 Y53.916
X71.504 Y53.378
X71.021 Y52.82
X70.56 Y52.244
X70.122 Y51.65
X69.707 Y51.039
X69.318 Y50.413
X68.953 Y49.771
X68.614 Y49.116
X68.301 Y48.448
X68.014 Y47.768
X67.754 Y47.078
X67.52 Y46.378
X67.315 Y45.669
X67.138 Y44.953
X66.989 Y44.23
X66.869 Y43.503
X66.776 Y42.771
X66.713 Y42.035
X66.678 Y41.298
X66.671 Y40.561
X66.694 Y39.823
X66.747 Y39.087
X66.828 Y38.354
X66.937 Y37.624
X67.075 Y36.899
X67.24 Y36.18
X67.434 Y35.468
X67.655 Y34.764
X67.903 Y34.07
X68.179 Y33.385
X68.481 Y32.712
X68.809 Y32.051
X69.162 Y31.404
X69.541 Y30.77
X69.943 Y30.152
X70.37 Y29.55
X70.82 Y28.965
X71.292 Y28.399
X71.787 Y27.851
X72.302 Y27.323
X72.837 Y26.815
X73.392 Y26.328
X73.965 Y25.863
X74.555 Y25.421
X75.163 Y25.003
X75.787 Y24.608
X76.425 Y24.238
X77.077 Y23.893
X77.742 Y23.574
X78.419 Y23.28
X79.107 Y23.013
X79.805 Y22.774
X80.511 Y22.562
X81.226 Y22.378
X81.947 Y22.222
X82.674 Y22.094
X83.405 Y21.993
X84.139 Y21.922
X84.875 Y21.879
X85.613 Y21.865
X86.351 Y21.879
X87.087 Y21.922
X87.822 Y21.994
X88.553 Y22.094
X89.279 Y22.221
X90.001 Y22.377
X90.715 Y22.562
X91.422 Y22.774
X92.12 Y23.013
X92.808 Y23.279
X93.485 Y23.571
X94.151 Y23.889
X94.805 Y24.232
X95.444 Y24.599
X96.069 Y24.992
X96.679 Y25.407
X97.272 Y25.846
X97.848 Y26.307
X98.406 Y26.789
X98.946 Y27.292
X99.466 Y27.816
X99.966 Y28.358
X100.445 Y28.92
X100.901 Y29.499
X101.336 Y30.096
X101.748 Y30.708
X102.136 Y31.335
X102.501 Y31.976
X102.841 Y32.631
X103.157 Y33.298
X103.447 Y33.976
X103.711 Y34.665
X103.949 Y35.364
X104.16 Y36.071
X104.345 Y36.785
X104.503 Y37.505
X104.634 Y38.232
X104.737 Y38.962
X104.811 Y39.696
X104.858 Y40.433
X104.876 Y41.17
X104.867 Y41.908
X104.83 Y42.645
X104.765 Y43.38
X104.673 Y44.112
X104.552 Y44.84
X104.404 Y45.563
X104.229 Y46.279
X104.026 Y46.989
X103.798 Y47.69
X103.542 Y48.382
X103.261 Y49.065
X102.954 Y49.736
X102.622 Y50.394
X102.264 Y51.04
X101.882 Y51.671
X101.476 Y52.287
X101.048 Y52.888
X100.597 Y53.472
X100.125 Y54.038
X99.631 Y54.587
X99.117 Y55.116
X98.583 Y55.626
X98.031 Y56.114
X97.46 Y56.582
X96.872 Y57.028
X96.268 Y57.452
X95.649 Y57.852
X95.014 Y58.229
X94.366 Y58.582
X93.705 Y58.909
X93.032 Y59.211
X92.348 Y59.487
X91.654 Y59.738
X90.951 Y59.962
X90.24 Y60.16
X89.522 Y60.331
X88.799 Y60.475
X88.07 Y60.592
X87.338 Y60.681
X86.602 Y60.742
X85.865 Y60.776
X85.128 Y60.783
X84.39 Y60.762
X83.654 Y60.713
X82.92 Y60.637
X82.19 Y60.532
X81.464 Y60.401
X80.743 Y60.242
X80.029 Y60.057
X79.322 Y59.846
X78.623 Y59.609
X77.934 Y59.346
X77.255 Y59.058
X76.587 Y58.744
X75.931 Y58.406
X75.288 Y58.044
X74.659 Y57.659
X74.044 Y57.251
X73.445 Y56.82
X72.862 Y56.368
X72.297 Y55.893
X71.751 Y55.398
X71.223 Y54.882
X70.714 Y54.348
X70.225 Y53.795
X69.757 Y53.225
X69.31 Y52.638
X68.885 Y52.035
X68.483 Y51.416
X68.104 Y50.783
X67.748 Y50.137
X67.416 Y49.478
X67.108 Y48.807
X66.825 Y48.126
X66.567 Y47.435
X66.335 Y46.735
X66.129 Y46.026
X65.95 Y45.31
X65.797 Y44.588
X65.672 Y43.861
X65.572 Y43.13
X65.5 Y42.396
X65.454 Y41.66
X65.435 Y40.922
X65.444 Y40.184
X65.479 Y39.447
X65.542 Y38.712
X65.631 Y37.98
X65.747 Y37.251
X65.889 Y36.527
X66.058 Y35.809
X66.252 Y35.097
X66.473 Y34.393
X66.72 Y33.698
X66.993 Y33.012
X67.291 Y32.337
X67.613 Y31.673
X67.959 Y31.022
X68.328 Y30.383
X68.72 Y29.758
X69.136 Y29.148
X69.573 Y28.554
X70.032 Y27.976
X70.511 Y27.416
X71.011 Y26.873
X71.53 Y26.348
X72.067 Y25.843
X72.623 Y25.357
X73.196 Y24.893
X73.786 Y24.45
X74.392 Y24.029
X75.013 Y23.631
X75.648 Y23.255
X76.297 Y22.903
X76.958 Y22.575
X77.63 Y22.271
X78.313 Y21.992
X79.006 Y21.738
X79.707 Y21.51
X80.417 Y21.307
X81.133 Y21.131
X81.855 Y20.98
X82.583 Y20.856
X83.314 Y20.758
X84.048 Y20.687
X84.785 Y20.643
X85.522 Y20.627
X86.26 Y20.637
X86.997 Y20.675
X87.732 Y20.739
X88.464 Y20.83
X89.193 Y20.947
X89.916 Y21.091
X90.634 Y21.261
X91.346 Y21.457
X92.049 Y21.679
X92.744 Y21.926
X93.43 Y22.198
X94.106 Y22.495
X94.771 Y22.815
X95.423 Y23.159
X96.063 Y23.526
X96.689 Y23.917
X97.3 Y24.33
X97.896 Y24.765
X98.476 Y25.221
X99.04 Y25.697
X99.586 Y26.193
X100.114 Y26.709
X100.624 Y27.242
X101.114 Y27.794
X101.584 Y28.363
X102.033 Y28.948
X102.462 Y29.548
X102.869 Y30.164
X103.254 Y30.793
X103.617 Y31.436
X103.956 Y32.09
X104.273 Y32.757
X104.564 Y33.435
X104.831 Y34.122
X105.074 Y34.819
X105.292 Y35.524
X105.485 Y36.236
X105.653 Y36.955
X105.795 Y37.679
X105.911 Y38.407
X106.001 Y39.14
X106.065 Y39.875
X106.102 Y40.612
X106.114 Y41.349
X106.099 Y42.087
X106.058 Y42.824
X105.991 Y43.559
X105.899 Y44.291
X105.779 Y45.019
X105.634 Y45.742
X105.462 Y46.459
X105.265 Y47.17
X105.042 Y47.874
X104.795 Y48.569
X104.524 Y49.255
X104.228 Y49.931
X103.909 Y50.596
X103.565 Y51.249
X103.198 Y51.889
X102.809 Y52.516
X102.398 Y53.129
X101.966 Y53.727
X101.513 Y54.309
X101.039 Y54.875
X100.546 Y55.423
X100.033 Y55.954
X99.501 Y56.465
X98.951 Y56.957
X98.384 Y57.429
X97.801 Y57.881
X97.202 Y58.312
X96.588 Y58.722
X95.961 Y59.11
X95.319 Y59.475
X94.666 Y59.816
X94. Y60.135
X93.324 Y60.43
X92.637 Y60.7
X91.942 Y60.947
X91.238 Y61.169
X90.527 Y61.366
X89.81 Y61.537
X89.086 Y61.683
X88.358 Y61.802
X87.626 Y61.896
X86.892 Y61.963
X86.155 Y62.005
X85.417 Y62.021
X84.68 Y62.011
X83.943 Y61.975
X83.207 Y61.914
X82.475 Y61.826
X81.746 Y61.712
X81.021 Y61.573
X80.302 Y61.409
X79.589 Y61.22
X78.883 Y61.006
X78.184 Y60.768
X77.495 Y60.506
X76.815 Y60.219
X76.146 Y59.908
X75.488 Y59.574
X74.842 Y59.218
X74.209 Y58.839
X73.589 Y58.438
X72.984 Y58.017
X72.393 Y57.574
X71.819 Y57.111
X71.261 Y56.628
X70.721 Y56.125
X70.198 Y55.605
X69.694 Y55.066
X69.208 Y54.511
X68.742 Y53.939
X68.296 Y53.351
X67.871 Y52.748
X67.467 Y52.13
X67.085 Y51.499
X66.726 Y50.855
X66.389 Y50.199
X66.074 Y49.531
X65.783 Y48.853
X65.515 Y48.166
X65.271 Y47.469
X65.052 Y46.765
X64.857 Y46.053
X64.688 Y45.335
X64.543 Y44.612
X64.423 Y43.884
X64.328 Y43.152
X64.259 Y42.417
X64.214 Y41.681
X64.195 Y40.943
X64.202 Y40.206
X64.235 Y39.469
X64.294 Y38.733
X64.378 Y38.
X64.487 Y37.27
X64.621 Y36.545
X64.779 Y35.824
X64.962 Y35.109
X65.17 Y34.401
X65.403 Y33.701
X65.659 Y33.009
X65.94 Y32.327
X66.243 Y31.655
X66.57 Y30.993
X66.919 Y30.343
X67.289 Y29.705
X67.682 Y29.08
X68.096 Y28.47
X68.532 Y27.874
X68.988 Y27.294
X69.464 Y26.73
X69.958 Y26.183
X70.471 Y25.653
X71.002 Y25.14
X71.55 Y24.646
X72.115 Y24.171
X72.696 Y23.717
X73.292 Y23.282
X73.903 Y22.869
X74.528 Y22.476
X75.166 Y22.106
X75.816 Y21.757
X76.478 Y21.431
X77.151 Y21.127
X77.834 Y20.848
X78.526 Y20.592
X79.226 Y20.361
X79.934 Y20.154
X80.649 Y19.971
X81.37 Y19.813
X82.096 Y19.68
X82.825 Y19.571
X83.558 Y19.487
X84.294 Y19.429
X85.031 Y19.397
X85.769 Y19.39
X86.506 Y19.408
X87.243 Y19.451
X87.978 Y19.52
X88.71 Y19.613
X89.438 Y19.732
X90.162 Y19.875
X90.88 Y20.044
X91.592 Y20.237
X92.297 Y20.455
X92.994 Y20.697
X93.682 Y20.962
X94.361 Y21.251
X95.03 Y21.562
X95.689 Y21.895
X96.335 Y22.251
X96.969 Y22.629
X97.589 Y23.028
X98.196 Y23.448
X98.788 Y23.888
X99.365 Y24.348
X99.926 Y24.826
X100.471 Y25.324
X100.999 Y25.839
X101.509 Y26.372
X102.001 Y26.923
X102.473 Y27.489
X102.927 Y28.072
X103.36 Y28.669
X103.773 Y29.28
X104.166 Y29.904
X104.538 Y30.541
X104.889 Y31.191
X105.217 Y31.851
X105.523 Y32.523
X105.806 Y33.204
X106.066 Y33.895
X106.303 Y34.593
X106.517 Y35.299
X106.707 Y36.012
X106.873 Y36.731
X107.015 Y37.455
X107.132 Y38.184
X107.225 Y38.916
X107.292 Y39.65
X107.335 Y40.387
X107.352 Y41.125
X107.346 Y41.862
X107.315 Y42.6
X107.259 Y43.335
X107.178 Y44.069
X107.073 Y44.799
X106.943 Y45.525
X106.789 Y46.247
X106.61 Y46.963
X106.408 Y47.672
X106.182 Y48.374
X105.932 Y49.069
X105.66 Y49.755
X105.364 Y50.431
X105.046 Y51.096
X104.705 Y51.75
X104.342 Y52.393
X103.957 Y53.022
X103.552 Y53.639
X103.126 Y54.242
X102.681 Y54.83
X102.216 Y55.403
X101.733 Y55.96
X101.23 Y56.501
X100.71 Y57.024
X100.173 Y57.529
X99.618 Y58.016
X99.048 Y58.485
X98.463 Y58.934
X97.863 Y59.363
X97.249 Y59.772
X96.622 Y60.16
X95.981 Y60.527
X95.329 Y60.871
X94.665 Y61.194
X93.991 Y61.494
X93.307 Y61.771
X92.615 Y62.026
X91.914 Y62.258
X91.207 Y62.466
X90.492 Y62.651
X89.772 Y62.811
X89.047 Y62.947
X88.318 Y63.059
X87.585 Y63.146
X86.85 Y63.209
X86.113 Y63.247
X85.375 Y63.262
X84.638 Y63.252
X83.901 Y63.217
X83.165 Y63.157
X82.432 Y63.072
X81.703 Y62.963
X80.977 Y62.83
X80.256 Y62.673
X79.541 Y62.492
X78.831 Y62.289
X78.129 Y62.062
X77.435 Y61.812
X76.75 Y61.539
X76.074 Y61.244
X75.408 Y60.926
X74.753 Y60.587
X74.109 Y60.226
X73.477 Y59.844
X72.859 Y59.442
X72.253 Y59.02
X71.663 Y58.578
X71.087 Y58.117
X70.527 Y57.636
X69.984 Y57.137
X69.457 Y56.621
X68.947 Y56.087
X68.455 Y55.537
X67.981 Y54.972
X67.526 Y54.391
X67.09 Y53.796
X66.674 Y53.187
X66.278 Y52.564
X65.903 Y51.929
X65.549 Y51.281
X65.216 Y50.623
X64.905 Y49.954
X64.615 Y49.276
X64.348 Y48.588
X64.103 Y47.892
X63.882 Y47.188
X63.685 Y46.477
X63.511 Y45.76
X63.36 Y45.038
X63.234 Y44.311
X63.13 Y43.58
X63.051 Y42.847
X62.995 Y42.111
X62.964 Y41.374
X62.956 Y40.636
X62.973 Y39.898
X63.014 Y39.162
X63.079 Y38.427
X63.168 Y37.694
X63.28 Y36.965
X63.416 Y36.24
X63.576 Y35.52
X63.758 Y34.805
X63.965 Y34.096
X64.195 Y33.395
X64.448 Y32.702
X64.723 Y32.018
X65.02 Y31.342
X65.339 Y30.677
X65.68 Y30.023
X66.041 Y29.379
X66.423 Y28.748
X66.826 Y28.13
X67.249 Y27.525
X67.691 Y26.935
X68.152 Y26.359
X68.632 Y25.798
X69.129 Y25.253
X69.644 Y24.725
X70.176 Y24.213
X70.724 Y23.719
X71.288 Y23.244
X71.867 Y22.787
X72.462 Y22.35
X73.07 Y21.932
X73.691 Y21.534
X74.325 Y21.157
X74.971 Y20.8
X75.628 Y20.464
X76.296 Y20.15
X76.973 Y19.858
X77.66 Y19.588
X78.355 Y19.341
X79.058 Y19.116
X79.768 Y18.915
X80.483 Y18.736
X81.205 Y18.581
X81.931 Y18.449
X82.66 Y18.34
X83.393 Y18.256
X84.129 Y18.196
X84.866 Y18.16
X85.603 Y18.148
X86.341 Y18.16
X87.078 Y18.196
X87.813 Y18.256
X88.547 Y18.34
X89.277 Y18.446
X90.003 Y18.577
X90.724 Y18.731
X91.44 Y18.909
X92.15 Y19.11
X92.853 Y19.334
X93.549 Y19.58
X94.236 Y19.848
X94.915 Y20.138
X95.583 Y20.45
X96.242 Y20.783
X96.889 Y21.137
X97.524 Y21.512
X98.147 Y21.908
X98.757 Y22.323
X99.353 Y22.758
X99.935 Y23.212
X100.502 Y23.683
X101.054 Y24.173
X101.591 Y24.679
X102.111 Y25.203
X102.613 Y25.743
X103.098 Y26.299
X103.566 Y26.87
X104.015 Y27.455
X104.445 Y28.055
X104.856 Y28.667
X105.248 Y29.293
X105.62 Y29.93
X105.971 Y30.579
X106.301 Y31.238
X106.61 Y31.909
X106.897 Y32.588
X107.163 Y33.277
X107.406 Y33.973
X107.628 Y34.677
X107.827 Y35.387
X108.004 Y36.103
X108.158 Y36.825
X108.289 Y37.551
X108.397 Y38.281
X108.481 Y39.014
X108.542 Y39.749
X108.58 Y40.486
X108.594 Y41.224
X108.585 Y41.961
X108.553 Y42.699
X108.497 Y43.434
X108.418 Y44.168
X108.315 Y44.898
X108.189 Y45.625
X108.039 Y46.348
X107.866 Y47.065
X107.671 Y47.777
X107.453 Y48.482
X107.214 Y49.179
X106.952 Y49.869
X106.668 Y50.55
X106.363 Y51.222
X106.036 Y51.884
X105.689 Y52.534
X105.321 Y53.174
X104.932 Y53.801
X104.524 Y54.416
X104.097 Y55.018
X103.652 Y55.606
X103.187 Y56.179
X102.705 Y56.737
X102.204 Y57.279
X101.687 Y57.805
X101.153 Y58.314
X100.603 Y58.806
X100.038 Y59.281
X99.458 Y59.737
X98.865 Y60.175
X98.257 Y60.594
X97.637 Y60.994
X97.004 Y61.373
X96.36 Y61.732
X95.704 Y62.071
X95.038 Y62.388
X94.362 Y62.684
X93.678 Y62.959
X92.985 Y63.213
X92.284 Y63.444
X91.577 Y63.653
X90.863 Y63.839
X90.143 Y64.002
X89.419 Y64.143
X88.69 Y64.26
X87.958 Y64.354
X87.224 Y64.425
X86.488 Y64.473
X85.75 Y64.498
X85.013 Y64.5
X84.275 Y64.479
X83.539 Y64.434
X82.804 Y64.366
X82.072 Y64.275
X81.343 Y64.16
X80.618 Y64.024
X79.898 Y63.864
X79.182 Y63.683
X78.473 Y63.479
X77.771 Y63.253
X77.076 Y63.005
X76.389 Y62.735
X75.712 Y62.443
X75.043 Y62.131
X74.385 Y61.797
X73.737 Y61.444
X73.101 Y61.071
X72.477 Y60.678
X71.865 Y60.265
X71.266 Y59.834
X70.681 Y59.384
X70.111 Y58.916
X69.555 Y58.431
X69.015 Y57.928
X68.491 Y57.409
X67.983 Y56.874
X67.492 Y56.323
X67.018 Y55.758
X66.562 Y55.178
X66.125 Y54.583
X65.706 Y53.976
X65.307 Y53.355
X64.927 Y52.723
X64.567 Y52.079
X64.227 Y51.424
X63.907 Y50.759
X63.608 Y50.085
X63.33 Y49.401
X63.073 Y48.71
X62.838 Y48.01
X62.624 Y47.304
X62.433 Y46.591
X62.265 Y45.873
X62.118 Y45.15
X61.994 Y44.423
X61.892 Y43.692
X61.813 Y42.958
X61.756 Y42.223
X61.723 Y41.486
X61.713 Y40.748
X61.726 Y40.01
X61.762 Y39.273
X61.82 Y38.538
X61.901 Y37.805
X62.005 Y37.074
X62.13 Y36.347
X62.278 Y35.624
X62.449 Y34.906
X62.641 Y34.194
X62.856 Y33.488
X63.092 Y32.789
X63.351 Y32.098
X63.63 Y31.415
X63.93 Y30.741
X64.25 Y30.077
X64.591 Y29.422
X64.952 Y28.779
X65.333 Y28.147
X65.734 Y27.527
X66.153 Y26.92
X66.592 Y26.327
X67.048 Y25.747
X67.522 Y25.182
X68.013 Y24.631
X68.52 Y24.095
X69.044 Y23.576
X69.584 Y23.072
X70.139 Y22.586
X70.708 Y22.117
X71.292 Y21.666
X71.89 Y21.234
X72.501 Y20.82
X73.124 Y20.425
X73.759 Y20.049
X74.405 Y19.693
X75.062 Y19.357
X75.729 Y19.042
X76.406 Y18.747
X77.091 Y18.474
X77.785 Y18.223
X78.486 Y17.993
X79.193 Y17.784
X79.907 Y17.597
X80.626 Y17.432
X81.35 Y17.29
X82.078 Y17.169
X82.809 Y17.071
X83.543 Y16.996
X84.279 Y16.944
X85.016 Y16.914
X85.754 Y16.907
X86.492 Y16.923
X87.229 Y16.961
X87.964 Y17.022
X88.697 Y17.105
X89.427 Y17.211
X90.154 Y17.34
X90.876 Y17.491
X91.593 Y17.665
X92.305 Y17.86
X93.01 Y18.077
X93.708 Y18.316
X94.399 Y18.575
X95.081 Y18.856
X95.755 Y19.157
X96.419 Y19.478
X97.073 Y19.82
X97.716 Y20.181
X98.348 Y20.562
X98.968 Y20.962
X99.575 Y21.381
X100.17 Y21.818
X100.751 Y22.273
X101.318 Y22.745
X101.871 Y23.233
X102.408 Y23.739
X102.929 Y24.261
X103.435 Y24.798
X103.924 Y25.351
X104.396 Y25.918
X104.85 Y26.499
X105.287 Y27.094
X105.707 Y27.701
X106.108 Y28.32
X106.49 Y28.951
X106.853 Y29.594
X107.196 Y30.247
X107.519 Y30.91
X107.822 Y31.583
X108.105 Y32.264
X108.367 Y32.954
X108.609 Y33.651
X108.829 Y34.355
X109.029 Y35.065
X109.207 Y35.781
X109.363 Y36.503
X109.496 Y37.228
X109.608 Y37.958
X109.697 Y38.69
X109.765 Y39.425
X109.81 Y40.161
X109.833 Y40.899
X109.834 Y41.636
X109.813 Y42.374
X109.77 Y43.11
X109.704 Y43.845
X109.616 Y44.578
X109.506 Y45.307
X109.374 Y46.033
X109.22 Y46.755
X109.045 Y47.471
X108.847 Y48.182
X108.629 Y48.887
X108.39 Y49.585
X108.129 Y50.275
X107.847 Y50.957
X107.545 Y51.63
X107.222 Y52.294
X106.88 Y52.947
X106.517 Y53.59
X106.136 Y54.222
X105.736 Y54.841
X105.318 Y55.449
X104.881 Y56.044
X104.427 Y56.626
X103.955 Y57.193
X103.467 Y57.746
X102.961 Y58.283
X102.44 Y58.806
X101.903 Y59.312
X101.352 Y59.802
X100.786 Y60.275
X100.206 Y60.731
X99.613 Y61.17
X99.006 Y61.59
X98.387 Y61.992
X97.756 Y62.374
X97.114 Y62.737
X96.461 Y63.081
X95.798 Y63.405
X95.126 Y63.709
X94.445 Y63.993
X93.756 Y64.256
X93.059 Y64.499
X92.355 Y64.721
X91.645 Y64.921
X90.929 Y65.1
X90.208 Y65.257
X89.483 Y65.392
X88.754 Y65.506
X88.022 Y65.598
X87.288 Y65.668
X86.551 Y65.716
X85.814 Y65.742
X85.076 Y65.745
X84.339 Y65.726
X83.602 Y65.685
X82.867 Y65.622
X82.134 Y65.537
X81.404 Y65.43
X80.677 Y65.302
X79.955 Y65.152
X79.237 Y64.981
X78.525 Y64.789
X77.818 Y64.576
X77.119 Y64.341
X76.426 Y64.086
X75.742 Y63.811
X75.066 Y63.515
X74.399 Y63.199
X73.742 Y62.864
X73.095 Y62.509
X72.459 Y62.136
X71.834 Y61.744
X71.221 Y61.333
X70.62 Y60.904
X70.033 Y60.457
X69.46 Y59.993
X68.9 Y59.512
X68.355 Y59.015
X67.825 Y58.502
X67.31 Y57.973
X66.811 Y57.43
X66.328 Y56.872
X65.862 Y56.301
X65.412 Y55.715
X64.981 Y55.117
X64.567 Y54.506
X64.172 Y53.883
X63.795 Y53.248
X63.437 Y52.603
X63.098 Y51.948
X62.778 Y51.283
X62.478 Y50.609
X62.199 Y49.926
X61.939 Y49.236
X61.701 Y48.537
X61.483 Y47.833
X61.286 Y47.121
X61.11 Y46.405
X60.956 Y45.683
X60.822 Y44.958
X60.71 Y44.229
X60.619 Y43.496
X60.549 Y42.762
X60.502 Y42.026
X60.476 Y41.288
X60.472 Y40.55
X60.49 Y39.813
X60.529 Y39.076
X60.59 Y38.341
X60.672 Y37.608
X60.776 Y36.877
X60.901 Y36.15
X61.047 Y35.427
X61.215 Y34.708
X61.405 Y33.995
X61.615 Y33.288
X61.846 Y32.587
X62.097 Y31.894
X62.369 Y31.208
X62.661 Y30.53
X62.972 Y29.861
X63.302 Y29.201
X63.652 Y28.552
X64.021 Y27.913
X64.408 Y27.285
X64.814 Y26.669
X65.238 Y26.065
X65.679 Y25.473
X66.138 Y24.895
X66.613 Y24.331
X67.104 Y23.78
X67.611 Y23.245
X68.134 Y22.724
X68.672 Y22.219
X69.225 Y21.73
X69.792 Y21.258
X70.373 Y20.803
X70.966 Y20.365
X71.573 Y19.944
X72.191 Y19.542
X72.821 Y19.157
X73.461 Y18.791
X74.112 Y18.444
X74.773 Y18.117
X75.444 Y17.808
X76.123 Y17.52
X76.81 Y17.252
X77.505 Y17.005
X78.207 Y16.777
X78.916 Y16.57
X79.629 Y16.384
X80.349 Y16.219
X81.072 Y16.075
X81.8 Y15.953
X82.531 Y15.852
X83.264 Y15.772
X84. Y15.715
X84.737 Y15.679
X85.474 Y15.664
X86.212 Y15.671
X86.949 Y15.7
X87.686 Y15.749
X88.42 Y15.821
X89.152 Y15.913
X89.881 Y16.027
X90.606 Y16.163
X91.327 Y16.32
X92.043 Y16.498
X92.754 Y16.696
X93.458 Y16.915
X94.156 Y17.155
X94.847 Y17.414
X95.53 Y17.693
X96.204 Y17.993
X96.869 Y18.312
X97.525 Y18.65
X98.171 Y19.007
X98.805 Y19.383
X99.429 Y19.777
X100.041 Y20.189
X100.641 Y20.619
X101.229 Y21.065
X101.803 Y21.528
X102.364 Y22.007
X102.911 Y22.503
X103.443 Y23.014
X103.96 Y23.54
X104.462 Y24.081
X104.948 Y24.636
X105.418 Y25.205
X105.872 Y25.787
X106.308 Y26.381
X106.728 Y26.988
X107.13 Y27.607
X107.514 Y28.237
X107.88 Y28.878
X108.226 Y29.529
X108.555 Y30.19
X108.864 Y30.86
X109.153 Y31.538
X109.423 Y32.225
X109.674 Y32.919
X109.905 Y33.62
X110.116 Y34.327
X110.306 Y35.04
X110.476 Y35.758
X110.624 Y36.48
X110.752 Y37.207
X110.86 Y37.937
X110.946 Y38.67
X111.011 Y39.405
X111.055 Y40.141
X111.078 Y40.879
X111.08 Y41.616
X111.06 Y42.354
X111.019 Y43.091
X110.957 Y43.826
X110.874 Y44.559
X110.769 Y45.289
X110.644 Y46.016
X110.497 Y46.74
X110.331 Y47.458
X110.143 Y48.172
X109.936 Y48.88
X109.708 Y49.582
X109.46 Y50.277
X109.192 Y50.964
X108.904 Y51.643
X108.597 Y52.314
X108.27 Y52.976
X107.925 Y53.628
X107.561 Y54.27
X107.179 Y54.901
X106.779 Y55.521
X106.362 Y56.129
X105.927 Y56.725
X105.475 Y57.308
X105.006 Y57.878
X104.521 Y58.434
X104.02 Y58.976
X103.504 Y59.503
X102.973 Y60.016
X102.428 Y60.513
X101.869 Y60.994
X101.296 Y61.459
X100.71 Y61.908
X100.112 Y62.339
X99.501 Y62.753
X98.879 Y63.149
X98.245 Y63.528
X97.601 Y63.888
X96.947 Y64.229
X96.284 Y64.552
X95.611 Y64.855
X94.93 Y65.14
X94.242 Y65.405
X93.546 Y65.649
X92.843 Y65.874
X92.134 Y66.078
X91.419 Y66.262
X90.7 Y66.425
X89.976 Y66.568
X89.248 Y66.69
X88.517 Y66.791
X87.784 Y66.872
X87.049 Y66.932
X86.312 Y66.971
X85.574 Y66.988
X84.836 Y66.985
X84.099 Y66.96
X83.363 Y66.915
X82.628 Y66.848
X81.895 Y66.761
X81.165 Y66.653
X80.439 Y66.524
X79.716 Y66.375
X78.998 Y66.206
X78.285 Y66.016
X77.578 Y65.805
X76.877 Y65.575
X76.183 Y65.325
X75.496 Y65.055
X74.817 Y64.766
X74.147 Y64.458
X73.485 Y64.132
X72.833 Y63.787
X72.191 Y63.424
X71.559 Y63.042
X70.938 Y62.643
X70.329 Y62.227
X69.732 Y61.793
X69.148 Y61.343
X68.577 Y60.876
X68.019 Y60.394
X67.474 Y59.895
X66.944 Y59.382
X66.429 Y58.854
X65.928 Y58.312
X65.444 Y57.756
X64.975 Y57.186
X64.523 Y56.603
X64.087 Y56.008
X63.668 Y55.401
X63.266 Y54.782
X62.882 Y54.152
X62.516 Y53.511
X62.167 Y52.861
X61.837 Y52.201
X61.525 Y51.532
X61.233 Y50.855
X60.959 Y50.17
X60.705 Y49.477
X60.471 Y48.777
X60.257 Y48.071
X60.062 Y47.36
X59.888 Y46.643
X59.733 Y45.921
X59.599 Y45.196
X59.485 Y44.467
X59.392 Y43.735
X59.319 Y43.001
X59.268 Y42.265
X59.237 Y41.528
X59.226 Y40.79
X59.237 Y40.052
X59.268 Y39.315
X59.319 Y38.579
X59.391 Y37.845
X59.484 Y37.113
X59.596 Y36.383
X59.729 Y35.658
X59.883 Y34.936
X60.056 Y34.219
X60.25 Y33.507
X60.464 Y32.801
X60.697 Y32.101
X60.95 Y31.408
X61.222 Y30.722
X61.513 Y30.044
X61.823 Y29.374
X62.152 Y28.714
X62.499 Y28.063
X62.865 Y27.422
X63.248 Y26.791
X63.649 Y26.172
X64.067 Y25.564
X64.501 Y24.968
X64.952 Y24.384
X65.42 Y23.813
X65.902 Y23.255
X66.401 Y22.711
X66.914 Y22.181
X67.442 Y21.665
X67.984 Y21.165
X68.54 Y20.68
X69.109 Y20.211
X69.692 Y19.758
X70.286 Y19.321
X70.893 Y18.901
X71.511 Y18.498
X72.14 Y18.112
X72.78 Y17.745
X73.43 Y17.395
X74.089 Y17.064
X74.757 Y16.752
X75.434 Y16.458
X76.119 Y16.184
X76.811 Y15.929
X77.51 Y15.693
X78.216 Y15.476
X78.927 Y15.279
X79.643 Y15.102
X80.364 Y14.945
X81.089 Y14.809
X81.818 Y14.692
X82.549 Y14.597
X83.283 Y14.521
X84.019 Y14.467
X84.756 Y14.432
X85.494 Y14.419
X86.232 Y14.425
X86.969 Y14.453
X87.705 Y14.501
X88.44 Y14.57
X89.172 Y14.659
X89.902 Y14.769
X90.628 Y14.899
X91.35 Y15.049
X92.068 Y15.219
X92.781 Y15.409
X93.488 Y15.619
X94.19 Y15.848
X94.885 Y16.097
X95.572 Y16.364
X96.252 Y16.651
X96.924 Y16.956
X97.587 Y17.28
X98.24 Y17.622
X98.884 Y17.982
X99.518 Y18.36
X100.141 Y18.755
X100.753 Y19.167
X101.354 Y19.596
X101.942 Y20.041
X102.518 Y20.502
X103.081 Y20.979
X103.63 Y21.471
X104.166 Y21.979
X104.688 Y22.501
X105.195 Y23.037
X105.687 Y23.586
X106.164 Y24.149
X106.625 Y24.725
X107.071 Y25.313
X107.5 Y25.913
X107.913 Y26.524
X108.309 Y27.147
X108.688 Y27.78
X109.05 Y28.423
X109.393 Y29.076
X109.719 Y29.738
X110.026 Y30.409
X110.315 Y31.088
X110.585 Y31.774
X110.837 Y32.468
X111.069 Y33.168
X111.282 Y33.875
X111.476 Y34.587
X111.65 Y35.304
X111.804 Y36.025
X111.938 Y36.751
X112.053 Y37.48
X112.147 Y38.211
X112.222 Y38.945
X112.276 Y39.681
X112.311 Y40.418
X112.325 Y41.156
X112.319 Y41.894
X112.293 Y42.631
X112.247 Y43.367
X112.18 Y44.102
X112.093 Y44.835
X111.986 Y45.565
X111.859 Y46.292
X111.713 Y47.015
X111.546 Y47.734
X111.36 Y48.448
X111.155 Y49.156
X110.929 Y49.859
X110.685 Y50.555
X110.421 Y51.244
X110.139 Y51.926
X109.838 Y52.599
X109.519 Y53.264
X109.181 Y53.921
X108.826 Y54.567
X108.453 Y55.204
X108.063 Y55.83
X107.657 Y56.446
X107.233 Y57.05
X106.793 Y57.642
X106.337 Y58.222
X105.865 Y58.789
X105.378 Y59.343
X104.875 Y59.884
X104.359 Y60.41
X103.828 Y60.923
X103.283 Y61.42
X102.725 Y61.903
X102.153 Y62.37
X101.569 Y62.821
X100.973 Y63.256
X100.366 Y63.674
X99.747 Y64.075
X99.117 Y64.46
X98.477 Y64.827
X97.827 Y65.176
X97.168 Y65.508
X96.5 Y65.822
X95.824 Y66.118
X95.14 Y66.395
X94.449 Y66.653
X93.751 Y66.892
X93.047 Y67.112
X92.337 Y67.313
X91.622 Y67.494
X90.902 Y67.655
X90.178 Y67.797
X89.45 Y67.92
X88.72 Y68.022
X87.986 Y68.105
X87.251 Y68.167
X86.515 Y68.209
X85.777 Y68.231
X85.039 Y68.233
X84.302 Y68.215
X83.565 Y68.177
X82.829 Y68.119
X82.096 Y68.041
X81.364 Y67.943
X80.636 Y67.825
X79.911 Y67.688
X79.19 Y67.532
X78.474 Y67.356
X77.762 Y67.16
X77.056 Y66.946
X76.356 Y66.712
X75.663 Y66.46
X74.977 Y66.189
X74.298 Y65.899
X73.627 Y65.592
X72.965 Y65.266
X72.312 Y64.923
X71.669 Y64.562
X71.035 Y64.184
X70.412 Y63.788
X69.8 Y63.376
X69.2 Y62.948
X68.611 Y62.504
X68.034 Y62.043
X67.47 Y61.568
X66.918 Y61.078
X66.381 Y60.573
X65.856 Y60.053
X65.346 Y59.52
X64.851 Y58.973
X64.37 Y58.414
X63.905 Y57.841
X63.455 Y57.256
X63.022 Y56.659
X62.604 Y56.051
X62.203 Y55.432
X61.818 Y54.802
X61.451 Y54.162
X61.101 Y53.513
X60.768 Y52.854
X60.454 Y52.187
X60.157 Y51.511
X59.879 Y50.828
X59.619 Y50.137
X59.378 Y49.44
X59.155 Y48.737
X58.952 Y48.027
X58.767 Y47.313
X58.601 Y46.594
X58.455 Y45.871
X58.328 Y45.144
X58.221 Y44.414
X58.134 Y43.681
X58.066 Y42.947
X58.018 Y42.211
X57.989 Y41.473
X57.981 Y40.735
X57.992 Y39.998
X58.022 Y39.261
X58.073 Y38.524
X58.143 Y37.79
X58.233 Y37.058
X58.342 Y36.328
X58.471 Y35.602
X58.619 Y34.879
X58.787 Y34.16
X58.974 Y33.447
X59.18 Y32.738
X59.404 Y32.035
X59.648 Y31.339
X59.909 Y30.649
X60.189 Y29.966
X60.487 Y29.291
X60.803 Y28.625
X61.137 Y27.967
X61.489 Y27.318
X61.857 Y26.679
X62.243 Y26.05
X62.645 Y25.431
X63.064 Y24.824
X63.498 Y24.227
X63.949 Y23.643
X64.415 Y23.071
X64.896 Y22.511
X65.391 Y21.965
X65.902 Y21.432
X66.426 Y20.913
X66.964 Y20.408
X67.516 Y19.918
X68.08 Y19.443
X68.656 Y18.982
X69.245 Y18.538
X69.846 Y18.109
X70.457 Y17.696
X71.079 Y17.3
X71.712 Y16.92
X72.355 Y16.558
X73.007 Y16.212
X73.668 Y15.885
X74.338 Y15.575
X75.015 Y15.283
X75.7 Y15.01
X76.393 Y14.754
X77.091 Y14.517
X77.796 Y14.3
X78.507 Y14.101
X79.222 Y13.921
X79.942 Y13.76
X80.667 Y13.619
X81.394 Y13.497
X82.125 Y13.394
X82.858 Y13.311
X83.593 Y13.247
X84.33 Y13.203
X85.067 Y13.179
X85.805 Y13.174
X86.542 Y13.189
X87.279 Y13.223
X88.015 Y13.278
X88.749 Y13.351
X89.481 Y13.445
X90.21 Y13.557
X90.936 Y13.69
X91.658 Y13.841
X92.376 Y14.011
X93.089 Y14.201
X93.797 Y14.409
X94.499 Y14.636
X95.195 Y14.882
X95.884 Y15.146
X96.565 Y15.429
X97.239 Y15.729
X97.905 Y16.047
X98.562 Y16.382
X99.21 Y16.735
X99.849 Y17.105
X100.477 Y17.491
X101.096 Y17.894
X101.703 Y18.312
X102.299 Y18.747
X102.884 Y19.197
X103.456 Y19.663
X104.017 Y20.143
X104.564 Y20.638
X105.098 Y21.147
X105.618 Y21.67
X106.125 Y22.206
X106.617 Y22.756
X107.095 Y23.318
X107.558 Y23.893
X108.005 Y24.479
X108.437 Y25.077
X108.854 Y25.686
X109.254 Y26.306
X109.638 Y26.936
X110.005 Y27.576
X110.356 Y28.225
X110.689 Y28.884
X111.005 Y29.55
X111.304 Y30.225
X111.585 Y30.907
X111.848 Y31.596
X112.093 Y32.292
X112.32 Y32.994
X112.528 Y33.702
X112.718 Y34.415
X112.889 Y35.133
X113.041 Y35.855
X113.174 Y36.581
X113.288 Y37.31
X113.383 Y38.041
X113.459 Y38.775
X113.516 Y39.511
X113.553 Y40.248
X113.57 Y40.985
X113.569 Y41.723
X113.548 Y42.461
X113.508 Y43.197
X113.448 Y43.933
X113.37 Y44.666
X113.272 Y45.398
X113.155 Y46.126
X113.019 Y46.851
X112.864 Y47.573
X112.691 Y48.29
X112.498 Y49.002
X112.287 Y49.709
X112.057 Y50.41
X111.81 Y51.105
X111.544 Y51.793
X111.26 Y52.474
X110.958 Y53.148
X110.639 Y53.813
X110.302 Y54.469
X109.948 Y55.117
X109.577 Y55.755
X109.19 Y56.383
X108.787 Y57.
X108.367 Y57.607
X107.931 Y58.203
X107.481 Y58.787
X107.015 Y59.359
X106.534 Y59.918
X106.038 Y60.465
X105.529 Y60.999
X105.006 Y61.52
X104.47 Y62.026
X103.92 Y62.518
X103.358 Y62.996
X102.783 Y63.459
X102.197 Y63.907
X101.599 Y64.339
X100.99 Y64.755
X100.37 Y65.156
X99.74 Y65.54
X99.1 Y65.907
X98.451 Y66.258
X97.793 Y66.591
X97.126 Y66.907
X96.452 Y67.206
X95.769 Y67.487
X95.08 Y67.75
X94.384 Y67.995
X93.682 Y68.221
X92.974 Y68.429
X92.261 Y68.619
X91.543 Y68.79
X90.821 Y68.943
X90.096 Y69.077
X89.367 Y69.191
X88.635 Y69.287
X87.902 Y69.364
X87.166 Y69.421
X86.429 Y69.459
X85.692 Y69.479
X84.954
X84.216 Y69.459
X83.479 Y69.421
X82.744 Y69.364
X82.01 Y69.287
X81.278 Y69.191
X80.55 Y69.076
X79.824 Y68.943
X79.102 Y68.79
X78.384 Y68.62
X77.671 Y68.43
X76.963 Y68.222
X76.261 Y67.996
X75.565 Y67.752
X74.875 Y67.49
X74.192 Y67.211
X73.517 Y66.914
X72.849 Y66.6
X72.19 Y66.268
X71.539 Y65.92
X70.898 Y65.555
X70.267 Y65.173
X69.645 Y64.776
X69.034 Y64.362
X68.434 Y63.933
X67.845 Y63.489
X67.268 Y63.029
X66.703 Y62.555
X66.15 Y62.066
X65.611 Y61.563
X65.084 Y61.046
X64.571 Y60.516
X64.071 Y59.973
X63.586 Y59.417
X63.115 Y58.849
X62.659 Y58.269
X62.218 Y57.677
X61.793 Y57.075
X61.383 Y56.461
X60.988 Y55.838
X60.61 Y55.204
X60.248 Y54.561
X59.903 Y53.909
X59.575 Y53.248
X59.263 Y52.579
X58.969 Y51.903
X58.693 Y51.219
X58.434 Y50.528
X58.193 Y49.83
X57.97 Y49.127
X57.765 Y48.418
X57.578 Y47.705
X57.41 Y46.986
X57.261 Y46.264
X57.13 Y45.538
X57.017 Y44.808
X56.923 Y44.077
X56.849 Y43.343
X56.793 Y42.607
X56.755 Y41.87
X56.737 Y41.132
Y40.395
X56.756 Y39.657
X56.794 Y38.92
X56.851 Y38.185
X56.927 Y37.451
X57.022 Y36.719
X57.135 Y35.99
X57.267 Y35.264
X57.417 Y34.542
X57.586 Y33.823
X57.773 Y33.11
X57.978 Y32.401
X58.201 Y31.698
X58.443 Y31.001
X58.702 Y30.31
X58.979 Y29.626
X59.273 Y28.949
X59.585 Y28.28
X59.913 Y27.62
X60.258 Y26.968
X60.62 Y26.325
X60.998 Y25.691
X61.393 Y25.067
X61.802 Y24.454
X62.228 Y23.851
X62.668 Y23.259
X63.124 Y22.679
X63.594 Y22.111
X64.079 Y21.554
X64.578 Y21.011
X65.09 Y20.48
X65.616 Y19.962
X66.155 Y19.458
X66.707 Y18.968
X67.271 Y18.492
X67.847 Y18.031
X68.434 Y17.585
X69.033 Y17.154
X69.643 Y16.739
X70.263 Y16.339
X70.893 Y15.955
X71.533 Y15.588
X72.182 Y15.236
X72.839 Y14.902
X73.505 Y14.585
X74.179 Y14.284
X74.861 Y14.001
X75.549 Y13.735
X76.244 Y13.487
X76.945 Y13.257
X77.651 Y13.044
X78.363 Y12.85
X79.08 Y12.674
X79.8 Y12.516
X80.525 Y12.377
X81.253 Y12.257
X81.983 Y12.154
X82.717 Y12.071
X83.452 Y12.006
X84.188 Y11.961
X84.925 Y11.934
X85.663 Y11.926
X86.401 Y11.937
X87.138 Y11.967
X87.874 Y12.015
X88.609 Y12.082
X89.342 Y12.168
X90.072 Y12.273
X90.8 Y12.396
X91.524 Y12.537
X92.244 Y12.697
X92.96 Y12.875
X93.671 Y13.071
X94.377 Y13.285
X95.078 Y13.517
X95.772 Y13.767
X96.46 Y14.034
X97.14 Y14.319
X97.814 Y14.62
X98.479 Y14.939
X99.136 Y15.274
X99.785 Y15.626
X100.424 Y15.995
X101.054 Y16.379
X101.674 Y16.779
X102.283 Y17.195
X102.882 Y17.626
X103.47 Y18.072
X104.046 Y18.533
X104.611 Y19.007
X105.163 Y19.496
X105.704 Y19.999
X106.231 Y20.515
X106.745 Y21.044
X107.246 Y21.586
X107.733 Y22.141
X108.206 Y22.707
X108.664 Y23.285
X109.108 Y23.874
X109.537 Y24.474
X109.951 Y25.085
X110.35 Y25.706
X110.733 Y26.337
X111.1 Y26.977
X111.451 Y27.626
X111.785 Y28.283
X112.103 Y28.949
X112.404 Y29.623
X112.688 Y30.304
X112.954 Y30.992
X113.204 Y31.686
X113.436 Y32.387
X113.651 Y33.092
X113.847 Y33.804
X114.026 Y34.519
X114.187 Y35.239
X114.33 Y35.963
X114.455 Y36.69
X114.562 Y37.42
X114.65 Y38.153
X114.72 Y38.888
X114.771 Y39.624
X114.804 Y40.361
X114.818 Y41.098
X114.814 Y41.836
X114.792 Y42.574
X114.751 Y43.31
X114.691 Y44.046
X114.613 Y44.779
X114.517 Y45.511
X114.402 Y46.24
X114.269 Y46.965
X114.117 Y47.687
X113.948 Y48.406
X113.76 Y49.119
X113.555 Y49.828
X113.332 Y50.531
X113.091 Y51.229
X112.834 Y51.92
X112.558 Y52.604
X112.266 Y53.282
X111.957 Y53.952
X111.631 Y54.614
X111.289 Y55.267
X110.93 Y55.912
X110.555 Y56.548
X110.164 Y57.174
X109.758 Y57.789
X109.337 Y58.395
X108.9 Y58.99
X108.449 Y59.574
X107.983 Y60.146
X107.503 Y60.706
X107.009 Y61.254
X106.502 Y61.79
X105.981 Y62.312
X105.447 Y62.822
X104.901 Y63.317
X104.342 Y63.799
X103.771 Y64.267
X103.189 Y64.72
X102.596 Y65.159
X101.992 Y65.583
X101.378 Y65.992
X100.753 Y66.385
X100.119 Y66.762
X99.476 Y67.123
X98.824 Y67.469
X98.163 Y67.797
X97.495 Y68.109
X96.819 Y68.405
X96.136 Y68.683
X95.446 Y68.944
X94.749 Y69.188
X94.047 Y69.415
X93.339 Y69.624
X92.627 Y69.815
X91.909 Y69.987
X91.188 Y70.142
X90.463 Y70.279
X89.735 Y70.398
X89.004 Y70.499
X88.271 Y70.581
X87.536 Y70.645
X86.799 Y70.691
X86.062 Y70.718
X85.324 Y70.727
X84.587 Y70.718
X83.849 Y70.691
X83.113 Y70.645
X82.378 Y70.581
X81.645 Y70.498
X80.914 Y70.397
X80.186 Y70.279
X79.46 Y70.142
X78.739 Y69.987
X78.022 Y69.815
X77.309 Y69.625
X76.601 Y69.417
X75.898 Y69.192
X75.201 Y68.949
X74.511 Y68.689
X73.827 Y68.412
X73.15 Y68.118
X72.481 Y67.808
X71.82 Y67.481
X71.167 Y67.137
X70.522 Y66.778
X69.887 Y66.403
X69.261 Y66.013
X68.645 Y65.607
X68.039 Y65.186
X67.443 Y64.75
X66.859 Y64.3
X66.286 Y63.835
X65.725 Y63.356
X65.175 Y62.863
X64.638 Y62.358
X64.114 Y61.839
X63.602 Y61.307
X63.104 Y60.763
X62.619 Y60.206
X62.148 Y59.638
X61.692 Y59.059
X61.25 Y58.468
X60.822 Y57.867
X60.41 Y57.255
X60.013 Y56.633
X59.631 Y56.002
X59.265 Y55.361
X58.914 Y54.712
X58.58 Y54.054
X58.262 Y53.388
X57.96 Y52.715
X57.675 Y52.035
X57.407 Y51.347
X57.156 Y50.654
X56.922 Y49.954
X56.705 Y49.249
X56.505 Y48.538
X56.324 Y47.823
X56.159 Y47.104
X56.013 Y46.381
X55.884 Y45.654
X55.773 Y44.925
X55.68 Y44.193
X55.605 Y43.459
X55.549 Y42.723
X55.51 Y41.986
X55.49 Y41.249
X55.487 Y40.511
X55.503 Y39.773
X55.537 Y39.036
X55.589 Y38.3
X55.659 Y37.566
X55.747 Y36.833
X55.853 Y36.103
X55.977 Y35.376
X56.118 Y34.652
X56.277 Y33.931
X56.454 Y33.215
X56.648 Y32.503
X56.86 Y31.796
X57.089 Y31.095
X57.335 Y30.399
X57.598 Y29.71
X57.878 Y29.027
X58.174 Y28.352
X58.487 Y27.684
X58.816 Y27.023
X59.162 Y26.371
X59.523 Y25.728
X59.9 Y25.094
X60.292 Y24.469
X60.7 Y23.854
X61.123 Y23.249
X61.56 Y22.655
X62.012 Y22.072
X62.478 Y21.5
X62.958 Y20.939
X63.451 Y20.391
X63.958 Y19.854
X64.477 Y19.33
X65.009 Y18.819
X65.554 Y18.321
X66.11 Y17.837
X66.679 Y17.366
X67.258 Y16.91
X67.849 Y16.468
X68.45 Y16.04
X69.062 Y15.628
X69.683 Y15.23
X70.314 Y14.848
X70.955 Y14.481
X71.604 Y14.13
X72.261 Y13.795
X72.926 Y13.476
X73.6 Y13.174
X74.28 Y12.889
X74.967 Y12.62
X75.661 Y12.368
X76.36 Y12.133
X77.065 Y11.916
X77.775 Y11.715
X78.49 Y11.532
X79.209 Y11.367
X79.932 Y11.219
X80.658 Y11.089
X81.387 Y10.976
X82.119 Y10.882
X82.853 Y10.805
X83.588 Y10.747
X84.325 Y10.706
X85.062 Y10.684
X85.8 Y10.679
X86.538 Y10.693
X87.275 Y10.724
X88.011 Y10.774
X88.746 Y10.841
X89.479 Y10.927
X90.209 Y11.03
X90.937 Y11.151
X91.662 Y11.291
X92.383 Y11.447
X93.1 Y11.622
X93.812 Y11.813
X94.52 Y12.022
X95.222 Y12.249
X95.919 Y12.492
X96.609 Y12.752
X97.293 Y13.028
X97.97 Y13.321
X98.64 Y13.631
X99.302 Y13.956
X99.956 Y14.298
X100.602 Y14.655
X101.238 Y15.028
X101.866 Y15.416
X102.483 Y15.82
X103.091 Y16.238
X103.689 Y16.671
X104.276 Y17.117
X104.852 Y17.578
X105.417 Y18.053
X105.97 Y18.541
X106.511 Y19.043
X107.04 Y19.558
X107.556 Y20.085
X108.059 Y20.625
X108.549 Y21.176
X109.026 Y21.739
X109.489 Y22.313
X109.938 Y22.899
X110.373 Y23.495
X110.794 Y24.101
X111.2 Y24.717
X111.591 Y25.343
X111.967 Y25.977
X112.328 Y26.621
X112.673 Y27.273
X113.002 Y27.933
X113.315 Y28.601
X113.613 Y29.277
X113.894 Y29.959
X114.158 Y30.648
X114.406 Y31.343
X114.637 Y32.043
X114.851 Y32.749
X115.049 Y33.46
X115.229 Y34.176
X115.391 Y34.895
X115.537 Y35.619
X115.664 Y36.346
X115.775 Y37.075
X115.867 Y37.807
X115.942 Y38.541
X116. Y39.277
X116.04 Y40.013
X116.062 Y40.751
X116.066 Y41.489
X116.053 Y42.226
X116.022 Y42.963
X115.973 Y43.7
X115.906 Y44.434
X115.822 Y45.167
X115.72 Y45.898
X115.601 Y46.626
X115.464 Y47.351
X115.31 Y48.073
X115.138 Y48.79
X114.949 Y49.504
X114.743 Y50.212
X114.52 Y50.915
X114.281 Y51.613
X114.024 Y52.305
X113.75 Y52.99
X113.461 Y53.669
X113.154 Y54.34
X112.832 Y55.004
X112.494 Y55.66
X112.14 Y56.307
X111.771 Y56.946
X111.387 Y57.576
X110.987 Y58.196
X110.573 Y58.806
X110.144 Y59.407
X109.701 Y59.997
X109.244 Y60.576
X108.773 Y61.144
X108.289 Y61.701
X107.791 Y62.245
X107.28 Y62.778
X106.757 Y63.298
X106.222 Y63.805
X105.674 Y64.3
X105.115 Y64.781
X104.544 Y65.248
X103.962 Y65.702
X103.369 Y66.142
X102.766 Y66.567
X102.153 Y66.977
X101.53 Y67.373
X100.898 Y67.753
X100.257 Y68.118
X99.607 Y68.468
X98.95 Y68.802
X98.284 Y69.12
X97.611 Y69.423
X96.931 Y69.709
X96.244 Y69.978
X95.551 Y70.231
X94.852 Y70.468
X94.148 Y70.688
X93.438 Y70.89
X92.724 Y71.076
X92.006 Y71.244
X91.284 Y71.396
X90.558 Y71.529
X89.83 Y71.646
X89.098 Y71.745
X88.365 Y71.827
X87.63 Y71.891
X86.894 Y71.937
X86.157 Y71.966
X85.419 Y71.977
X84.681 Y71.97
X83.944 Y71.945
X83.207 Y71.903
X82.472 Y71.844
X81.738 Y71.767
X81.006 Y71.672
X80.277 Y71.56
X79.55 Y71.431
X78.827 Y71.284
X78.108 Y71.121
X77.392 Y70.94
X76.681 Y70.743
X75.975 Y70.529
X75.275 Y70.298
X74.58 Y70.05
X73.891 Y69.786
X73.208 Y69.505
X72.533 Y69.209
X71.864 Y68.896
X71.204 Y68.568
X70.551 Y68.224
X69.906 Y67.865
X69.27 Y67.491
X68.644 Y67.101
X68.027 Y66.697
X67.419 Y66.278
X66.822 Y65.845
X66.235 Y65.398
X65.659 Y64.936
X65.094 Y64.462
X64.541 Y63.974
X63.999 Y63.473
X63.469 Y62.96
X62.952 Y62.434
X62.447 Y61.896
X61.955 Y61.346
X61.476 Y60.785
X61.01 Y60.213
X60.558 Y59.63
X60.12 Y59.036
X59.696 Y58.432
X59.287 Y57.818
X58.892 Y57.195
X58.512 Y56.562
X58.147 Y55.921
X57.797 Y55.271
X57.463 Y54.614
X57.144 Y53.948
X56.841 Y53.276
X56.555 Y52.596
X56.284 Y51.909
X56.03 Y51.217
X55.792 Y50.518
X55.571 Y49.814
X55.366 Y49.105
X55.178 Y48.392
X55.007 Y47.674
X54.853 Y46.953
X54.716 Y46.228
X54.596 Y45.5
X54.494 Y44.769
X54.408 Y44.036
X54.34 Y43.302
X54.289 Y42.566
X54.256 Y41.828
X54.24 Y41.091
X54.241 Y40.353
X54.26 Y39.615
X54.296 Y38.878
X54.349 Y38.143
X54.42 Y37.408
X54.508 Y36.676
X54.613 Y35.945
X54.735 Y35.218
X54.875 Y34.493
X55.032 Y33.772
X55.205 Y33.055
X55.396 Y32.342
X55.603 Y31.634
X55.827 Y30.931
X56.067 Y30.234
X56.324 Y29.542
X56.597 Y28.856
X56.885 Y28.177
X57.19 Y27.506
X57.511 Y26.841
X57.846 Y26.184
X58.198 Y25.535
X58.564 Y24.895
X58.946 Y24.263
X59.342 Y23.641
X59.753 Y23.028
X60.178 Y22.425
X60.617 Y21.832
X61.07 Y21.25
X61.537 Y20.678
X62.016 Y20.118
X62.509 Y19.569
X63.015 Y19.031
X63.533 Y18.506
X64.064 Y17.993
X64.606 Y17.493
X65.16 Y17.006
X65.726 Y16.532
X66.302 Y16.071
X66.889 Y15.625
X67.487 Y15.192
X68.094 Y14.773
X68.711 Y14.368
X69.337 Y13.978
X69.973 Y13.603
X70.616 Y13.243
X71.269 Y12.898
X71.929 Y12.568
X72.597 Y12.255
X73.272 Y11.957
X73.953 Y11.675
X74.642 Y11.409
X75.336 Y11.159
X76.036 Y10.926
X76.741 Y10.709
X77.451 Y10.509
X78.166 Y10.325
X78.885 Y10.158
X79.607 Y10.009
X80.333 Y9.877
X81.062 Y9.761
X81.793 Y9.663
X82.526 Y9.582
X83.261 Y9.518
X83.998 Y9.472
X84.735 Y9.443
X85.473 Y9.431
X86.211 Y9.436
X86.948 Y9.459
X87.685 Y9.499
X88.42 Y9.556
X89.154 Y9.631
X89.886 Y9.722
X90.616 Y9.831
X91.343 Y9.957
X92.067 Y10.1
X92.787 Y10.26
X93.504 Y10.436
X94.216 Y10.63
X94.923 Y10.84
X95.625 Y11.066
X96.322 Y11.309
X97.013 Y11.568
X97.698 Y11.843
X98.375 Y12.134
X99.046 Y12.441
X99.71 Y12.763
X100.366 Y13.101
X101.014 Y13.454
X101.653 Y13.822
X102.284 Y14.205
X102.906 Y14.602
X103.518 Y15.014
X104.121 Y15.439
X104.713 Y15.879
X105.296 Y16.332
X105.867 Y16.799
X106.428 Y17.278
X106.977 Y17.771
X107.515 Y18.276
X108.041 Y18.794
X108.554 Y19.323
X109.056 Y19.865
X109.544 Y20.417
X110.02 Y20.981
X110.483 Y21.556
X110.932 Y22.141
X111.368 Y22.737
X111.79 Y23.342
X112.197 Y23.957
X112.59 Y24.581
X112.969 Y25.215
X113.333 Y25.856
X113.682 Y26.506
X114.016 Y27.164
X114.335 Y27.83
X114.638 Y28.502
X114.926 Y29.182
X115.198 Y29.867
X115.454 Y30.559
X115.694 Y31.257
X115.919 Y31.96
X116.126 Y32.668
X116.318 Y33.38
X116.493 Y34.097
X116.651 Y34.818
X116.792 Y35.542
X116.917 Y36.269
X117.025 Y36.999
X117.116 Y37.731
X117.19 Y38.465
X117.247 Y39.201
X117.287 Y39.938
X117.31 Y40.675
X117.316 Y41.413
X117.305 Y42.151
X117.277 Y42.888
X117.231 Y43.624
X117.169 Y44.36
X117.09 Y45.093
X116.993 Y45.825
X116.88 Y46.554
X116.75 Y47.28
X116.603 Y48.003
X116.44 Y48.723
X116.26 Y49.438
X116.064 Y50.149
X115.851 Y50.856
X115.622 Y51.557
X115.376 Y52.253
X115.115 Y52.943
X114.838 Y53.627
X114.545 Y54.304
X114.236 Y54.974
X113.912 Y55.637
X113.573 Y56.292
X113.218 Y56.939
X112.849 Y57.578
X112.466 Y58.208
X112.067 Y58.829
X111.654 Y59.441
X111.228 Y60.042
X110.787 Y60.634
X110.333 Y61.216
X109.865 Y61.787
X109.385 Y62.346
X108.891 Y62.895
X108.386 Y63.432
X107.868 Y63.957
X107.337 Y64.471
X106.796 Y64.972
X106.243 Y65.46
X105.678 Y65.935
X105.103 Y66.398
X104.518 Y66.846
X103.922 Y67.282
X103.316 Y67.703
X102.701 Y68.11
X102.076 Y68.503
X101.443 Y68.881
X100.801 Y69.245
X100.151 Y69.594
X99.493 Y69.928
X98.827 Y70.246
X98.155 Y70.549
X97.475 Y70.837
X96.789 Y71.108
X96.097 Y71.364
X95.399 Y71.603
X94.696 Y71.827
X93.988 Y72.034
X93.275 Y72.225
X92.558 Y72.4
X91.838 Y72.557
X91.113 Y72.699
X90.386 Y72.823
X89.656 Y72.931
X88.924 Y73.023
X88.19 Y73.097
X87.455 Y73.154
X86.718 Y73.195
X85.98 Y73.219
X85.243 Y73.225
X84.505 Y73.215
X83.768 Y73.187
X83.031 Y73.143
X82.296 Y73.082
X81.562 Y73.004
X80.83 Y72.909
X80.101 Y72.798
X79.374 Y72.67
X78.651 Y72.525
X77.931 Y72.364
X77.215 Y72.186
X76.503 Y71.992
X75.796 Y71.782
X75.094 Y71.555
X74.397 Y71.313
X73.706 Y71.054
X73.021 Y70.78
X72.342 Y70.491
X71.67 Y70.186
X71.005 Y69.866
X70.348 Y69.531
X69.699 Y69.181
X69.057 Y68.816
X68.424 Y68.437
X67.8 Y68.043
X67.185 Y67.635
X66.58 Y67.214
X65.985 Y66.778
X65.399 Y66.329
X64.824 Y65.867
X64.259 Y65.392
X63.706 Y64.904
X63.164 Y64.404
X62.633 Y63.891
X62.114 Y63.366
X61.608 Y62.83
X61.113 Y62.282
X60.632 Y61.723
X60.163 Y61.154
X59.707 Y60.574
X59.264 Y59.983
X58.836 Y59.383
X58.42 Y58.773
X58.019 Y58.154
X57.632 Y57.526
X57.259 Y56.889
X56.901 Y56.244
X56.557 Y55.591
X56.228 Y54.931
X55.915 Y54.263
X55.616 Y53.588
X55.333 Y52.907
X55.066 Y52.219
X54.814 Y51.525
X54.578 Y50.826
X54.358 Y50.122
X54.154 Y49.413
X53.967 Y48.699
X53.795 Y47.982
X53.64 Y47.261
X53.501 Y46.536
X53.379 Y45.808
X53.274 Y45.078
X53.185 Y44.346
X53.112 Y43.611
X53.056 Y42.876
X53.017 Y42.139
X52.995 Y41.401
X52.99 Y40.664
X53.001 Y39.926
X53.028 Y39.189
X53.073 Y38.452
X53.134 Y37.717
X53.211 Y36.983
X53.305 Y36.251
X53.416 Y35.522
X53.543 Y34.795
X53.687 Y34.071
X53.847 Y33.351
X54.023 Y32.635
X54.216 Y31.922
X54.425 Y31.215
X54.649 Y30.512
X54.889 Y29.814
X55.145 Y29.122
X55.417 Y28.436
X55.705 Y27.757
X56.007 Y27.084
X56.325 Y26.418
X56.658 Y25.76
X57.006 Y25.109
X57.368 Y24.466
X57.745 Y23.832
X58.136 Y23.206
X58.541 Y22.59
X58.96 Y21.982
X59.392 Y21.384
X59.838 Y20.797
X60.297 Y20.219
X60.769 Y19.652
X61.254 Y19.095
X61.751 Y18.55
X62.26 Y18.016
X62.781 Y17.494
X63.314 Y16.984
X63.859 Y16.486
X64.414 Y16.
X64.98 Y15.527
X65.557 Y15.067
X66.144 Y14.62
X66.741 Y14.187
X67.348 Y13.767
X67.964 Y13.361
X68.59 Y12.97
X69.223 Y12.592
X69.866 Y12.229
X70.516 Y11.88
X71.174 Y11.547
X71.84 Y11.228
X72.512 Y10.925
X73.191 Y10.636
X73.877 Y10.363
X74.568 Y10.106
X75.265 Y9.864
X75.968 Y9.638
X76.675 Y9.428
X77.387 Y9.234
X78.103 Y9.056
X78.823 Y8.894
X79.546 Y8.749
X80.272 Y8.62
X81.002 Y8.508
X81.733 Y8.412
X82.467 Y8.332
X83.202 Y8.27
X83.938 Y8.223
X84.675 Y8.194
X85.413 Y8.181
X86.151 Y8.185
X86.888 Y8.205
X87.625 Y8.243
X88.361 Y8.296
X89.096 Y8.367
X89.828 Y8.454
X90.559 Y8.557
X91.287 Y8.677
X92.012 Y8.814
X92.734 Y8.966
X93.452 Y9.135
X94.166 Y9.32
X94.876 Y9.521
X95.582 Y9.738
X96.282 Y9.97
X96.977 Y10.218
X97.666 Y10.482
X98.349 Y10.761
X99.025 Y11.056
X99.695 Y11.366
X100.357 Y11.69
X101.012 Y12.029
X101.66 Y12.383
X102.299 Y12.752
X102.93 Y13.134
X103.552 Y13.531
X104.165 Y13.941
X104.769 Y14.365
X105.363 Y14.803
X105.947 Y15.254
X106.521 Y15.717
X107.085 Y16.193
X107.637 Y16.682
X108.179 Y17.183
X108.709 Y17.696
X109.228 Y18.221
X109.735 Y18.757
X110.23 Y19.304
X110.713 Y19.862
X111.183 Y20.431
X111.641 Y21.009
X112.085 Y21.598
X112.516 Y22.197
X112.934 Y22.805
X113.339 Y23.422
X113.729 Y24.048
X114.105 Y24.683
X114.468 Y25.326
X114.815 Y25.976
X115.149 Y26.634
X115.468 Y27.3
X115.772 Y27.972
X116.06 Y28.651
X116.334 Y29.336
X116.592 Y30.028
X116.835 Y30.724
X117.062 Y31.426
X117.274 Y32.133
X117.47 Y32.844
X117.65 Y33.56
X117.814 Y34.279
X117.962 Y35.002
X118.094 Y35.728
X118.209 Y36.457
X118.309 Y37.188
X118.392 Y37.921
X118.46 Y38.656
X118.51 Y39.392
X118.545 Y40.129
X118.563 Y40.866
X118.564 Y41.604
X118.549 Y42.342
X118.518 Y43.079
X118.47 Y43.815
X118.406 Y44.55
X118.326 Y45.284
X118.229 Y46.015
X118.116 Y46.744
X117.987 Y47.471
X117.842 Y48.194
X117.68 Y48.914
X117.502 Y49.63
X117.309 Y50.342
X117.1 Y51.049
X116.875 Y51.752
X116.634 Y52.45
X116.378 Y53.142
X116.106 Y53.828
X115.82 Y54.507
X115.518 Y55.181
X115.202 Y55.847
X114.87 Y56.507
X114.525 Y57.158
X114.164 Y57.802
X113.79 Y58.438
X113.402 Y59.065
X112.999 Y59.684
X112.583 Y60.293
X112.154 Y60.893
X111.711 Y61.483
X111.255 Y62.063
X110.787 Y62.633
X110.305 Y63.193
X109.812 Y63.741
X109.307 Y64.279
X108.789 Y64.805
X108.26 Y65.319
X107.72 Y65.822
X107.169 Y66.312
X106.607 Y66.79
X106.034 Y67.255
X105.451 Y67.708
X104.859 Y68.147
X104.256 Y68.573
X103.645 Y68.986
X103.024 Y69.385
X102.395 Y69.77
X101.757 Y70.141
X101.111 Y70.498
X100.458 Y70.841
X99.797 Y71.169
X99.129 Y71.482
X98.454 Y71.781
X97.773 Y72.064
X97.086 Y72.332
X96.392 Y72.585
X95.694 Y72.822
X94.99 Y73.044
X94.282 Y73.25
X93.569 Y73.441
X92.852 Y73.615
X92.132 Y73.774
X91.408 Y73.916
X90.681 Y74.043
X89.951 Y74.153
X89.219 Y74.247
X88.486 Y74.325
X87.75 Y74.387
X87.014 Y74.432
X86.277 Y74.461
X85.539 Y74.474
X84.801 Y74.47
X84.064 Y74.45
X83.327 Y74.414
X82.591 Y74.362
X81.856 Y74.294
X81.123 Y74.209
X80.392 Y74.108
X79.664 Y73.991
X78.938 Y73.858
X78.216 Y73.709
X77.496 Y73.545
X76.781 Y73.364
X76.07 Y73.168
X75.363 Y72.956
X74.661 Y72.729
X73.964 Y72.486
X73.273 Y72.228
X72.588 Y71.955
X71.908 Y71.667
X71.236 Y71.364
X70.57 Y71.046
X69.911 Y70.713
X69.26 Y70.367
X68.617 Y70.006
X67.981 Y69.631
X67.354 Y69.242
X66.736 Y68.839
X66.127 Y68.423
X65.527 Y67.994
X64.936 Y67.551
X64.355 Y67.096
X63.785 Y66.628
X63.225 Y66.148
X62.675 Y65.655
X62.137 Y65.151
X61.609 Y64.635
X61.094 Y64.108
X60.589 Y63.569
X60.097 Y63.019
X59.617 Y62.459
X59.149 Y61.888
X58.694 Y61.308
X58.252 Y60.717
X57.823 Y60.117
X57.407 Y59.508
X57.004 Y58.889
X56.615 Y58.262
X56.24 Y57.627
X55.879 Y56.984
X55.532 Y56.332
X55.2 Y55.674
X54.882 Y55.008
X54.578 Y54.336
X54.289 Y53.657
X54.016 Y52.971
X53.757 Y52.28
X53.513 Y51.584
X53.285 Y50.882
X53.072 Y50.176
X52.874 Y49.465
X52.692 Y48.75
X52.526 Y48.031
X52.375 Y47.309
X52.241 Y46.584
X52.122 Y45.855
X52.019 Y45.125
X51.932 Y44.392
X51.861 Y43.658
X51.806 Y42.922
X51.768 Y42.185
X51.745 Y41.448
X51.738 Y40.71
X51.748 Y39.972
X51.774 Y39.235
X51.816 Y38.498
X51.874 Y37.763
X51.947 Y37.029
X52.037 Y36.296
X52.143 Y35.566
X52.265 Y34.838
X52.403 Y34.113
X52.556 Y33.392
X52.725 Y32.674
X52.91 Y31.959
X53.11 Y31.249
X53.325 Y30.543
X53.556 Y29.843
X53.802 Y29.147
X54.063 Y28.457
X54.34 Y27.773
X54.631 Y27.095
X54.936 Y26.423
X55.257 Y25.759
X55.592 Y25.101
X55.941 Y24.451
X56.304 Y23.809
X56.681 Y23.175
X57.071 Y22.549
X57.476 Y21.932
X57.893 Y21.324
X58.324 Y20.725
X58.768 Y20.135
X59.225 Y19.556
X59.694 Y18.986
X60.175 Y18.427
X60.669 Y17.879
X61.174 Y17.341
X61.691 Y16.815
X62.219 Y16.299
X62.759 Y15.796
X63.309 Y15.304
X63.869 Y14.825
X64.44 Y14.357
X65.021 Y13.903
X65.612 Y13.461
X66.212 Y13.032
X66.822 Y12.616
X67.44 Y12.213
X68.067 Y11.825
X68.703 Y11.449
X69.346 Y11.088
X69.997 Y10.741
X70.656 Y10.408
X71.321 Y10.09
X71.993 Y9.786
X72.672 Y9.497
X73.357 Y9.223
X74.048 Y8.964
X74.744 Y8.72
X75.446 Y8.491
X76.152 Y8.277
X76.863 Y8.079
X77.578 Y7.897
X78.296 Y7.73
X79.019 Y7.578
X79.744 Y7.443
X80.472 Y7.323
X81.202 Y7.219
X81.935 Y7.131
X82.669 Y7.059
X83.405 Y7.003
X84.141 Y6.963
X84.879 Y6.939
X85.617 Y6.931
X86.354 Y6.939
X87.092 Y6.963
X87.829 Y7.003
X88.564 Y7.059
X89.299 Y7.131
X90.031 Y7.219
X90.762 Y7.323
X91.49 Y7.443
X92.215 Y7.578
X92.937 Y7.73
X93.656 Y7.897
X94.37 Y8.08
X95.081 Y8.278
X95.787 Y8.491
X96.489 Y8.72
X97.185 Y8.964
X97.876 Y9.222
X98.561 Y9.496
X99.241 Y9.785
X99.913 Y10.088
X100.579 Y10.405
X101.238 Y10.737
X101.89 Y11.083
X102.534 Y11.443
X103.17 Y11.816
X103.798 Y12.203
X104.418 Y12.604
X105.029 Y13.018
X105.63 Y13.445
X106.222 Y13.885
X106.805 Y14.338
X107.378 Y14.803
X107.941 Y15.28
X108.493 Y15.769
X109.035 Y16.27
X109.565 Y16.783
X110.085 Y17.307
X110.593 Y17.842
X111.09 Y18.387
X111.574 Y18.944
X112.047 Y19.51
X112.507 Y20.087
X112.955 Y20.673
X113.391 Y21.269
X113.813 Y21.873
X114.223 Y22.487
X114.619 Y23.11
X115.002 Y23.74
X115.371 Y24.379
X115.727 Y25.026
X116.068 Y25.68
X116.396 Y26.341
X116.709 Y27.008
X117.008 Y27.683
X117.293 Y28.364
X117.563 Y29.05
X117.818 Y29.743
X118.058 Y30.44
X118.283 Y31.143
X118.494 Y31.85
X118.689 Y32.562
X118.868 Y33.277
X119.033 Y33.997
X119.182 Y34.719
X119.315 Y35.445
X119.432 Y36.173
X119.534 Y36.904
X119.62 Y37.637
X119.691 Y38.371
X119.746 Y39.107
X119.785 Y39.844
X119.808 Y40.581
X119.816 Y41.319
X119.807 Y42.057
X119.783 Y42.794
X119.743 Y43.531
X119.687 Y44.267
X119.616 Y45.001
X119.529 Y45.734
X119.426 Y46.464
X119.308 Y47.193
X119.173 Y47.918
X119.024 Y48.641
X118.859 Y49.36
X118.678 Y50.075
X118.482 Y50.786
X118.271 Y51.493
X118.045 Y52.196
X117.804 Y52.893
X117.548 Y53.585
X117.277 Y54.271
X116.991 Y54.952
X116.691 Y55.626
X116.376 Y56.293
X116.047 Y56.953
X115.704 Y57.606
X115.348 Y58.252
X114.977 Y58.89
X114.593 Y59.52
X114.195 Y60.142
X113.784 Y60.754
X113.36 Y61.358
X112.923 Y61.953
X112.474 Y62.538
X112.012 Y63.113
X111.538 Y63.679
X111.052 Y64.234
X110.555 Y64.779
X110.045 Y65.313
X109.525 Y65.835
X108.993 Y66.347
X108.45 Y66.847
X107.897 Y67.335
X107.334 Y67.811
X106.76 Y68.275
X106.177 Y68.727
X105.584 Y69.166
X104.982 Y69.593
X104.371 Y70.006
X103.751 Y70.406
X103.122 Y70.793
X102.486 Y71.166
X101.842 Y71.526
X101.19 Y71.871
X100.531 Y72.203
X99.865 Y72.52
X99.192 Y72.823
X98.513 Y73.112
X97.828 Y73.386
X97.137 Y73.646
X96.441 Y73.89
X95.74 Y74.12
X95.034 Y74.335
X94.324 Y74.534
X93.609 Y74.719
X92.891 Y74.888
X92.17 Y75.042
X91.445 Y75.18
X90.717 Y75.303
X89.987 Y75.41
X89.255 Y75.502
X88.521 Y75.578
X87.786 Y75.638
X87.05 Y75.683
X86.312 Y75.712
X85.575 Y75.725
X84.837 Y75.723
X84.099 Y75.704
X83.362 Y75.67
X82.626 Y75.62
X81.891 Y75.555
X81.158 Y75.474
X80.426 Y75.377
X79.697 Y75.265
X78.97 Y75.137
X78.247 Y74.994
X77.526 Y74.836
X76.809 Y74.662
X76.096 Y74.474
X75.386 Y74.27
X74.682 Y74.051
X73.982 Y73.818
X73.287 Y73.569
X72.598 Y73.306
X71.914 Y73.029
X71.237 Y72.737
X70.565 Y72.43
X69.901 Y72.11
X69.243 Y71.776
X68.593 Y71.427
X67.95 Y71.065
X67.315 Y70.69
X66.688 Y70.301
X66.069 Y69.899
X65.459 Y69.484
X64.858 Y69.055
X64.267 Y68.615
X63.684 Y68.161
X63.112 Y67.696
X62.549 Y67.219
X61.997 Y66.729
X61.455 Y66.229
X60.924 Y65.717
X60.404 Y65.193
X59.895 Y64.659
X59.397 Y64.115
X58.911 Y63.559
X58.437 Y62.994
X57.975 Y62.419
X57.525 Y61.834
X57.087 Y61.24
X56.662 Y60.637
X56.25 Y60.025
X55.851 Y59.405
X55.465 Y58.776
X55.092 Y58.139
X54.733 Y57.494
X54.388 Y56.843
X54.056 Y56.183
X53.739 Y55.518
X53.435 Y54.845
X53.146 Y54.166
X52.871 Y53.482
X52.611 Y52.791
X52.365 Y52.095
X52.134 Y51.395
X51.918 Y50.689
X51.717 Y49.979
X51.531 Y49.265
X51.36 Y48.548
X51.204 Y47.827
X51.063 Y47.102
X50.938 Y46.375
X50.828 Y45.646
X50.733 Y44.914
X50.654 Y44.18
X50.59 Y43.445
X50.541 Y42.709
X50.508 Y41.972
X50.491 Y41.234
X50.489 Y40.497
X50.503 Y39.759
X50.532 Y39.022
X50.577 Y38.285
X50.637 Y37.55
X50.713 Y36.816
X50.804 Y36.084
X50.91 Y35.354
X51.032 Y34.626
X51.169 Y33.901
X51.321 Y33.179
X51.488 Y32.46
X51.671 Y31.746
X51.869 Y31.035
X52.081 Y30.328
X52.309 Y29.626
X52.551 Y28.929
X52.807 Y28.238
X53.078 Y27.551
X53.364 Y26.871
X53.664 Y26.197
X53.977 Y25.529
X54.305 Y24.868
X54.647 Y24.214
X55.002 Y23.567
X55.371 Y22.928
X55.753 Y22.297
X56.148 Y21.674
X56.556 Y21.059
X56.977 Y20.454
X57.411 Y19.857
X57.857 Y19.269
X58.316 Y18.691
X58.786 Y18.123
X59.268 Y17.564
X59.762 Y17.016
X60.267 Y16.478
X60.784 Y15.951
X61.311 Y15.436
X61.85 Y14.931
X62.398 Y14.438
X62.957 Y13.956
X63.526 Y13.487
X64.105 Y13.029
X64.693 Y12.584
X65.291 Y12.151
X65.897 Y11.73
X66.512 Y11.323
X67.136 Y10.929
X67.768 Y10.547
X68.407 Y10.179
X69.054 Y9.825
X69.709 Y9.484
X70.37 Y9.157
X71.038 Y8.844
X71.713 Y8.545
X72.393 Y8.26
X73.08 Y7.99
X73.772 Y7.734
X74.469 Y7.493
X75.171 Y7.266
X75.878 Y7.054
X76.589 Y6.857
X77.304 Y6.675
X78.023 Y6.508
X78.745 Y6.357
X79.47 Y6.22
X80.198 Y6.099
X80.928 Y5.993
X81.66 Y5.903
X82.382 Y5.829
X82.432 Y5.827
X87.615
X88.352 Y5.864
X89.089 Y5.893
X89.824 Y5.954
X90.557 Y6.04
X91.287 Y6.146
X92.014 Y6.27
X92.739 Y6.411
X93.46 Y6.567
X94.177 Y6.739
X94.891 Y6.925
X95.601 Y7.127
X96.306 Y7.344
X97.007 Y7.575
X97.702 Y7.821
X98.393 Y8.081
X99.078 Y8.356
X99.757 Y8.644
X100.429 Y8.947
X101.096 Y9.264
X101.755 Y9.595
X102.408 Y9.939
X103.053 Y10.297
X103.69 Y10.669
X104.32 Y11.053
X104.941 Y11.451
X105.554 Y11.861
X106.159 Y12.285
X106.754 Y12.72
X107.341 Y13.168
X107.918 Y13.628
X108.485 Y14.1
X109.042 Y14.583
X109.59 Y15.078
X110.127 Y15.584
X110.653 Y16.101
X111.168 Y16.629
X111.673 Y17.168
X112.166 Y17.716
X112.647 Y18.275
X113.117 Y18.844
X113.576 Y19.422
X114.022 Y20.01
X114.456 Y20.607
X114.877 Y21.212
X115.286 Y21.826
X115.682 Y22.449
X115.858 Y22.738
X115.906 Y22.831
X115.94 Y22.93
X115.96 Y23.033
X115.979 Y23.181
X115.981 Y23.192
X116.145 Y23.652
X116.213 Y23.82
X116.286 Y23.987
X116.377 Y24.155
X116.391 Y24.178
X116.399 Y24.189
X116.409 Y24.201
X116.683 Y24.538
X117.099 Y25.148
X117.466 Y25.787
X117.801 Y26.445
X118.112 Y27.114
X118.404 Y27.791
X118.679 Y28.476
X118.939 Y29.167
X119.183 Y29.863
X119.413 Y30.564
X119.628 Y31.27
X119.828 Y31.98
X120.013 Y32.694
X120.184 Y33.412
X120.34 Y34.133
X120.48 Y34.857
X120.606 Y35.585
X120.716 Y36.314
X120.812 Y37.046
X120.892 Y37.779
X120.957 Y38.514
X121.007 Y39.25
X121.042 Y39.987
X121.062 Y40.725
X121.066 Y41.462
X121.055 Y42.2
X121.029 Y42.938
X120.988 Y43.674
X120.931 Y44.41
X120.859 Y45.144
X120.773 Y45.877
X120.671 Y46.608
X120.553 Y47.336
X120.421 Y48.062
X120.273 Y48.785
X120.111 Y49.504
X119.933 Y50.221
X119.741 Y50.933
X119.534 Y51.641
X119.313 Y52.345
X119.077 Y53.044
X118.827 Y53.738
X118.562 Y54.427
X118.283 Y55.11
X117.99 Y55.787
X117.683 Y56.458
X117.362 Y57.122
X117.028 Y57.78
X116.68 Y58.431
X116.318 Y59.074
X115.944 Y59.709
X115.556 Y60.337
X115.156 Y60.957
X114.742 Y61.568
X114.317 Y62.171
X113.879 Y62.764
X113.428 Y63.349
X112.966 Y63.924
X112.492 Y64.489
X112.007 Y65.045
X111.51 Y65.59
X111.001 Y66.125
X110.482 Y66.649
X109.952 Y67.163
X109.412 Y67.665
X108.861 Y68.156
X108.3 Y68.635
X107.729 Y69.103
X107.149 Y69.559
X106.56 Y70.002
X105.961 Y70.434
X105.354 Y70.853
X104.738 Y71.26
X104.114 Y71.653
X103.482 Y72.034
X102.842 Y72.401
X102.195 Y72.755
X101.541 Y73.096
X100.88 Y73.424
X100.212 Y73.737
X99.538 Y74.037
X98.857 Y74.323
X98.171 Y74.595
X97.48 Y74.852
X96.784 Y75.096
X96.082 Y75.324
X95.376 Y75.539
X94.666 Y75.739
X94.474 Y75.789
X94.413 Y75.802
X94.351 Y75.81
X94.288 Y75.812
X77.556
X76.86 Y75.778
X76.129 Y75.682
X75.407 Y75.529
X74.694 Y75.34
X73.988 Y75.126
X73.288 Y74.892
X72.594 Y74.642
X71.906 Y74.375
X71.224 Y74.094
X70.548 Y73.798
X69.878 Y73.489
X69.215 Y73.166
X68.558 Y72.829
X67.909 Y72.479
X67.267 Y72.116
X66.632 Y71.739
X66.005 Y71.35
X65.386 Y70.948
X64.776 Y70.534
X64.174 Y70.106
X63.582 Y69.667
X62.998 Y69.215
X62.424 Y68.752
X61.86 Y68.277
X61.305 Y67.79
X60.76 Y67.293
X60.226 Y66.784
X59.702 Y66.264
X59.189 Y65.734
X58.687 Y65.194
X58.195 Y64.643
X57.715 Y64.083
X57.247 Y63.513
X56.79 Y62.934
X56.345 Y62.345
X55.912 Y61.748
X55.492 Y61.141
X55.083 Y60.527
X54.688 Y59.904
X54.305 Y59.273
X53.935 Y58.635
X53.578 Y57.989
X53.235 Y57.336
X52.904 Y56.677
X52.587 Y56.01
X52.284 Y55.338
X51.995 Y54.659
X51.719 Y53.975
X51.458 Y53.285
X51.211 Y52.589
X50.978 Y51.889
X50.759 Y51.185
X50.555 Y50.475
X50.366 Y49.762
X50.191 Y49.046
X50.03 Y48.326
X49.884 Y47.602
X49.753 Y46.876
X49.637 Y46.148
X49.535 Y45.417
X49.448 Y44.684
X49.376 Y43.95
X49.319 Y43.214
X49.277 Y42.478
X49.25 Y41.74
X49.238 Y41.003
X49.241 Y40.265
X49.259 Y39.527
X49.292 Y38.79
X49.339 Y38.054
X49.402 Y37.319
X49.479 Y36.585
X49.572 Y35.853
X49.679 Y35.123
X49.801 Y34.395
X49.938 Y33.67
X50.089 Y32.948
X50.256 Y32.229
X50.437 Y31.514
X50.633 Y30.803
X50.843 Y30.096
X51.067 Y29.393
X51.306 Y28.695
X51.558 Y28.001
X51.825 Y27.313
X52.106 Y26.631
X52.4 Y25.955
X52.708 Y25.284
X53.03 Y24.62
X53.365 Y23.963
X53.713 Y23.312
X54.074 Y22.669
X54.448 Y22.033
X54.835 Y21.405
X55.235 Y20.785
X55.647 Y20.173
X56.072 Y19.569
X56.508 Y18.975
X56.957 Y18.389
X57.417 Y17.812
X57.889 Y17.245
X58.373 Y16.688
X58.867 Y16.14
X59.373 Y15.603
X59.889 Y15.075
X60.416 Y14.559
X60.953 Y14.054
X61.501 Y13.559
X62.059 Y13.076
X62.626 Y12.605
X63.203 Y12.145
X63.789 Y11.696
X64.384 Y11.26
X64.988 Y10.836
X65.6 Y10.424
X66.221 Y10.025
X66.849 Y9.638
X67.485 Y9.264
X68.129 Y8.903
X68.779 Y8.556
X69.437 Y8.221
X70.101 Y7.9
X70.772 Y7.592
X71.448 Y7.298
X72.131 Y7.018
X72.819 Y6.751
X73.512 Y6.499
X74.21 Y6.26
X74.913 Y6.036
X75.514 Y5.858
X75.583 Y5.841
X75.653 Y5.831
X75.725 Y5.827
X82.432
G3 X82.609 Y6.401 I-0.011 J0.317
G1 X82.552 Y6.443 Z24.666
X82.498 Y6.482 Z24.689
X82.449 Y6.518 Z24.727
X82.409 Y6.548 Z24.778
X82.378 Y6.57 Z24.838
X82.359 Y6.584 Z24.905
X82.353 Y6.589 Z24.975
G0 Z39.657
X115.439 Y23.691
Z25.293
G1 Z24.975 F1016.
X115.447 Y23.694 Z24.905
X115.469 Y23.701 Z24.838
X115.505 Y23.712 Z24.778
X115.553 Y23.727 Z24.727
X115.611 Y23.745 Z24.689
X115.675 Y23.765 Z24.666
X115.742 Y23.787 Z24.658
G3 X116.409 Y24.201 I-0.475 J1.51
G1 X116.818 Y24.657
X117.352 Y25.16
X117.456 Y25.243
X117.84 Y25.495
X117.959 Y25.569
X118.116 Y25.674
X118.288 Y25.812
X118.484 Y25.996
X118.712 Y26.247
X118.972 Y26.586
X119.284 Y27.066
X119.635 Y27.716
X119.938 Y28.388
X120.21 Y29.074
X120.458 Y29.769
X120.687 Y30.47
X120.9 Y31.177
X121.096 Y31.888
X121.278 Y32.603
X121.445 Y33.322
X121.598 Y34.044
X121.736 Y34.768
X121.859 Y35.496
X121.968 Y36.226
X122.062 Y36.957
X122.142 Y37.691
X122.207 Y38.426
X122.257 Y39.162
X122.292 Y39.899
X122.313 Y40.636
X122.319 Y41.374
X122.31 Y42.112
X122.286 Y42.849
X122.248 Y43.586
X122.195 Y44.322
X122.127 Y45.057
X122.045 Y45.79
X121.948 Y46.521
X121.836 Y47.251
X121.71 Y47.978
X121.569 Y48.702
X121.414 Y49.423
X121.244 Y50.141
X121.06 Y50.856
X120.862 Y51.566
X120.649 Y52.273
X120.423 Y52.975
X120.182 Y53.673
X119.928 Y54.365
X119.66 Y55.053
X119.378 Y55.734
X119.082 Y56.41
X118.773 Y57.08
X118.451 Y57.744
X118.116 Y58.401
X117.767 Y59.052
X117.406 Y59.695
X117.032 Y60.331
X116.645 Y60.959
X116.246 Y61.58
X115.834 Y62.192
X115.41 Y62.796
X114.974 Y63.391
X114.526 Y63.977
X114.067 Y64.555
X113.597 Y65.123
X113.115 Y65.682
X112.622 Y66.231
X112.118 Y66.77
X111.603 Y67.298
X111.078 Y67.817
X110.542 Y68.324
X109.997 Y68.821
X109.442 Y69.307
X108.877 Y69.782
X108.303 Y70.245
X107.72 Y70.697
X107.128 Y71.137
X106.527 Y71.566
X105.918 Y71.982
X105.3 Y72.386
X104.675 Y72.778
X104.042 Y73.157
X103.402 Y73.523
X102.754 Y73.877
X102.1 Y74.217
X101.438 Y74.545
X100.771 Y74.859
X100.097 Y75.16
X99.418 Y75.447
X98.732 Y75.721
X98.615 Y75.765
X98.53 Y75.791
X98.442 Y75.807
X98.354 Y75.812
X94.288
G3 X94.111 Y75.239 I0.011 J-0.317
G1 X94.168 Y75.197 Z24.666
X94.223 Y75.158 Z24.689
X94.271 Y75.122 Z24.727
X94.312 Y75.092 Z24.778
X94.342 Y75.07 Z24.838
X94.361 Y75.056 Z24.905
X94.367 Y75.051 Z24.975
G0 Z39.657
X116.882 Y25.366
Z25.293
G1 Z24.975 F1016.
X116.89 Z24.905
X116.914 Y25.367 Z24.838
X116.952 Z24.778
X117.002 Z24.727
X117.062 Y25.368 Z24.689
X117.129 Z24.666
X117.2 Z24.658
G3 X117.959 Y25.569 I-0.011 J1.583
G1 X118.965 Y26.176
X119.133 Y26.272
X119.24 Y26.332
X119.468 Y26.445
X119.567 Y26.5
X119.803 Y26.658
X119.924 Y26.748
X120.114 Y26.916
X120.312 Y27.124
X120.549 Y27.414
X120.806 Y27.784
X121.113 Y28.316
X121.43 Y28.982
X121.701 Y29.668
X121.941 Y30.366
X122.158 Y31.071
X122.356 Y31.782
X122.537 Y32.497
X122.702 Y33.216
X122.852 Y33.939
X122.988 Y34.664
X123.11 Y35.392
X123.218 Y36.121
X123.311 Y36.853
X123.39 Y37.587
X123.455 Y38.322
X123.506 Y39.058
X123.543 Y39.795
X123.565 Y40.532
X123.572 Y41.27
X123.565 Y42.008
X123.544 Y42.745
X123.509 Y43.482
X123.46 Y44.218
X123.396 Y44.954
X123.318 Y45.687
X123.226 Y46.419
X123.12 Y47.149
X123. Y47.877
X122.865 Y48.603
X122.717 Y49.326
X122.555 Y50.045
X122.378 Y50.762
X122.188 Y51.475
X121.985 Y52.184
X121.767 Y52.889
X121.536 Y53.59
X121.292 Y54.286
X121.034 Y54.977
X120.763 Y55.663
X120.479 Y56.344
X120.181 Y57.019
X119.871 Y57.689
X119.548 Y58.352
X119.212 Y59.009
X118.863 Y59.659
X118.502 Y60.303
X118.129 Y60.939
X117.743 Y61.568
X117.345 Y62.189
X116.934 Y62.802
X116.513 Y63.407
X116.079 Y64.005
X115.634 Y64.593
X115.178 Y65.173
X114.711 Y65.744
X114.232 Y66.306
X113.743 Y66.858
X113.244 Y67.401
X112.734 Y67.934
X112.213 Y68.457
X111.683 Y68.97
X111.143 Y69.473
X110.593 Y69.965
X110.034 Y70.447
X109.466 Y70.917
X108.889 Y71.377
X108.303 Y71.825
X107.709 Y72.263
X107.106 Y72.688
X106.495 Y73.102
X105.876 Y73.504
X105.25 Y73.894
X104.616 Y74.272
X103.975 Y74.637
X103.328 Y74.991
X102.673 Y75.331
X102.012 Y75.659
X101.838 Y75.741
X101.737 Y75.781
X101.631 Y75.804
X101.522 Y75.812
X98.354
G3 X98.177 Y75.239 I0.011 J-0.317
G1 X98.234 Y75.197 Z24.666
X98.288 Y75.158 Z24.689
X98.337 Y75.122 Z24.727
X98.377 Y75.092 Z24.778
X98.408 Y75.07 Z24.838
X98.427 Y75.056 Z24.905
X98.433 Y75.051 Z24.975
G0 Z39.657
X118.737 Y26.405
Z25.293
G1 Z24.975 F1016.
X118.745 Z24.905
X118.769 Y26.407 Z24.838
X118.806 Y26.409 Z24.778
X118.857 Y26.411 Z24.727
X118.917 Y26.415 Z24.689
X118.984 Y26.418 Z24.666
X119.054 Y26.422 Z24.658
G3 X119.803 Y26.658 I-0.086 J1.58
G1 X120.066 Y26.835
X120.139 Y26.878
X120.809 Y27.203
X121.088 Y27.337
X121.25 Y27.425
X121.405 Y27.527
X121.571 Y27.655
X121.746 Y27.815
X121.95 Y28.034
X122.165 Y28.304
X122.417 Y28.681
X122.693 Y29.174
X123. Y29.844
X123.257 Y30.536
X123.48 Y31.24
X123.677 Y31.951
X123.854 Y32.667
X124.014 Y33.387
X124.158 Y34.111
X124.287 Y34.837
X124.403 Y35.566
X124.504 Y36.297
X124.591 Y37.029
X124.665 Y37.763
X124.724 Y38.499
X124.77 Y39.235
X124.802 Y39.972
X124.82 Y40.71
X124.824 Y41.448
X124.814 Y42.186
X124.791 Y42.923
X124.754 Y43.66
X124.703 Y44.396
X124.638 Y45.131
X124.559 Y45.865
X124.467 Y46.597
X124.361 Y47.327
X124.242 Y48.055
X124.108 Y48.78
X123.961 Y49.503
X123.8 Y50.224
X123.626 Y50.941
X123.439 Y51.654
X123.238 Y52.364
X123.024 Y53.07
X122.797 Y53.772
X122.557 Y54.47
X122.304 Y55.163
X122.038 Y55.851
X121.759 Y56.534
X121.467 Y57.212
X121.163 Y57.884
X120.846 Y58.55
X120.517 Y59.211
X120.176 Y59.865
X119.822 Y60.512
X119.457 Y61.153
X119.079 Y61.787
X118.689 Y62.414
X118.288 Y63.033
X117.875 Y63.645
X117.451 Y64.248
X117.016 Y64.844
X116.57 Y65.431
X116.112 Y66.01
X115.644 Y66.581
X115.166 Y67.142
X114.677 Y67.695
X114.177 Y68.238
X113.668 Y68.772
X113.149 Y69.296
X112.619 Y69.81
X112.081 Y70.314
X111.533 Y70.808
X110.975 Y71.292
X110.409 Y71.765
X109.835 Y72.227
X109.251 Y72.679
X108.66 Y73.12
X108.06 Y73.55
X107.452 Y73.968
X106.837 Y74.375
X106.214 Y74.771
X105.584 Y75.155
X104.947 Y75.527
X104.605 Y75.718
X104.49 Y75.77
X104.369 Y75.802
X104.243 Y75.812
X101.522
G3 X101.345 Y75.239 I0.011 J-0.317
G1 X101.402 Y75.197 Z24.666
X101.456 Y75.158 Z24.689
X101.505 Y75.122 Z24.727
X101.545 Y75.092 Z24.778
X101.576 Y75.07 Z24.838
X101.595 Y75.056 Z24.905
X101.601 Y75.051 Z24.975
G0 Z39.657
X119.997 Y27.238
Z25.293
G1 Z24.975 F1016.
X120.004 Y27.237 Z24.905
X120.028 Y27.235 Z24.838
X120.066 Y27.232 Z24.778
X120.116 Y27.227 Z24.727
X120.176 Y27.222 Z24.689
X120.242 Y27.216 Z24.666
X120.313 Y27.21 Z24.658
G3 X121.088 Y27.337 I0.139 J1.576
G1 X122.318 Y27.928
X122.493 Y28.007
X122.692 Y28.105
X122.831 Y28.188
X122.993 Y28.303
X123.169 Y28.451
X123.346 Y28.627
X123.554 Y28.868
X123.771 Y29.164
X124.022 Y29.574
X124.295 Y30.11
X124.575 Y30.793
X124.807 Y31.493
X125.007 Y32.203
X125.181 Y32.92
X125.336 Y33.642
X125.473 Y34.367
X125.596 Y35.094
X125.703 Y35.824
X125.797 Y36.556
X125.878 Y37.289
X125.944 Y38.024
X125.997 Y38.76
X126.037 Y39.497
X126.063 Y40.234
X126.076 Y40.972
X126.075 Y41.71
X126.061 Y42.447
X126.034 Y43.185
X125.993 Y43.921
X125.939 Y44.657
X125.871 Y45.392
X125.791 Y46.125
X125.697 Y46.857
X125.589 Y47.587
X125.469 Y48.315
X125.335 Y49.041
X125.188 Y49.764
X125.028 Y50.484
X124.854 Y51.201
X124.668 Y51.915
X124.468 Y52.625
X124.256 Y53.332
X124.031 Y54.035
X123.793 Y54.733
X123.543 Y55.427
X123.28 Y56.116
X123.005 Y56.801
X122.717 Y57.48
X122.418 Y58.155
X122.106 Y58.823
X121.782 Y59.486
X121.446 Y60.143
X121.098 Y60.794
X120.738 Y61.438
X120.367 Y62.076
X119.985 Y62.706
X119.59 Y63.33
X119.185 Y63.947
X118.768 Y64.556
X118.341 Y65.157
X117.903 Y65.75
X117.454 Y66.336
X116.994 Y66.913
X116.524 Y67.482
X116.044 Y68.042
X115.554 Y68.594
X115.054 Y69.136
X114.544 Y69.669
X114.024 Y70.193
X113.495 Y70.708
X112.957 Y71.212
X112.41 Y71.707
X111.853 Y72.192
X111.288 Y72.666
X110.715 Y73.13
X110.133 Y73.584
X109.543 Y74.027
X108.945 Y74.459
X108.34 Y74.881
X107.727 Y75.291
X107.089 Y75.702
X106.967 Y75.762
X106.835 Y75.8
X106.699 Y75.812
X104.243
G3 X104.067 Y75.239 I0.011 J-0.317
G1 X104.124 Y75.197 Z24.666
X104.178 Y75.158 Z24.689
X104.226 Y75.122 Z24.727
X104.267 Y75.092 Z24.778
X104.297 Y75.07 Z24.838
X104.316 Y75.056 Z24.905
X104.323 Y75.051 Z24.975
G0 Z39.657
X121.399 Y27.952
Z25.293
G1 Z24.975 F1016.
X121.407 Y27.951 Z24.905
X121.43 Y27.948 Z24.838
X121.467 Y27.943 Z24.778
X121.517 Y27.937 Z24.727
X121.577 Y27.929 Z24.689
X121.644 Y27.92 Z24.666
X121.714 Y27.911 Z24.658
G3 X122.493 Y28.007 I0.203 J1.57
G1 X122.821 Y28.149
X122.886 Y28.174
X122.989 Y28.214
X123.156 Y28.272
X123.324 Y28.315
X123.492 Y28.34
X123.639 Y28.367
X123.783 Y28.409
X123.922 Y28.464
X124.058 Y28.533
X124.215 Y28.63
X124.386 Y28.755
X124.558 Y28.903
X124.759 Y29.106
X124.969 Y29.355
X125.194 Y29.672
X125.439 Y30.082
X125.714 Y30.638
X125.986 Y31.324
X126.209 Y32.027
X126.398 Y32.74
X126.562 Y33.459
X126.705 Y34.183
X126.831 Y34.91
X126.941 Y35.64
X127.037 Y36.371
X127.119 Y37.105
X127.187 Y37.839
X127.242 Y38.575
X127.284 Y39.312
X127.313 Y40.049
X127.328 Y40.787
X127.331 Y41.524
X127.32 Y42.262
X127.297 Y43.
X127.26 Y43.736
X127.211 Y44.473
X127.149 Y45.208
X127.073 Y45.942
X126.985 Y46.674
X126.884 Y47.405
X126.771 Y48.134
X126.644 Y48.861
X126.504 Y49.586
X126.352 Y50.307
X126.187 Y51.027
X126.01 Y51.743
X125.819 Y52.456
X125.616 Y53.165
X125.401 Y53.871
X125.173 Y54.572
X124.933 Y55.27
X124.681 Y55.964
X124.417 Y56.652
X124.141 Y57.337
X123.852 Y58.016
X123.552 Y58.69
X123.24 Y59.358
X122.917 Y60.021
X122.582 Y60.679
X122.235 Y61.33
X121.877 Y61.975
X121.507 Y62.613
X121.126 Y63.245
X120.734 Y63.87
X120.331 Y64.488
X119.917 Y65.099
X119.493 Y65.703
X119.058 Y66.299
X118.613 Y66.887
X118.157 Y67.467
X117.691 Y68.04
X117.216 Y68.604
X116.73 Y69.159
X116.235 Y69.706
X115.73 Y70.244
X115.216 Y70.774
X114.693 Y71.294
X114.16 Y71.804
X113.619 Y72.305
X113.068 Y72.797
X112.51 Y73.279
X111.942 Y73.751
X111.367 Y74.213
X110.784 Y74.664
X110.192 Y75.106
X109.594 Y75.537
X109.386 Y75.68
X109.256 Y75.753
X109.113 Y75.797
X108.964 Y75.812
X106.699
G3 X106.522 Y75.239 I0.011 J-0.317
G1 X106.579 Y75.197 Z24.666
X106.634 Y75.158 Z24.689
X106.682 Y75.122 Z24.727
X106.723 Y75.092 Z24.778
X106.753 Y75.07 Z24.838
X106.772 Y75.056 Z24.905
X106.778 Y75.051 Z24.975
G0 Z39.657
X122.423 Y28.583
Z25.293
G1 Z24.975 F1016.
X122.431 Y28.579 Z24.905
X122.452 Y28.57 Z24.838
X122.487 Y28.555 Z24.778
X122.533 Y28.536 Z24.727
X122.589 Y28.512 Z24.689
X122.65 Y28.486 Z24.666
X122.715 Y28.458 Z24.658
G3 X123.492 Y28.34 I0.62 J1.456
G1 X123.51 Y28.342
X123.659 Y28.353
X123.827 Y28.355
X123.995 Y28.337
X124.162 Y28.308
X124.31 Y28.282
X124.46
X124.609 Y28.302
X124.755 Y28.336
X124.9 Y28.385
X125.056 Y28.451
X125.22 Y28.538
X125.41 Y28.658
X125.594 Y28.797
X125.81 Y28.988
X126.026 Y29.214
X126.265 Y29.507
X126.514 Y29.868
X126.787 Y30.342
X127.069 Y30.934
X127.331 Y31.624
X127.547 Y32.33
X127.729 Y33.045
X127.886 Y33.765
X128.023 Y34.491
X128.141 Y35.219
X128.244 Y35.949
X128.333 Y36.682
X128.407 Y37.416
X128.469 Y38.151
X128.517 Y38.887
X128.552 Y39.624
X128.575 Y40.362
X128.584 Y41.1
X128.582 Y41.837
X128.566 Y42.575
X128.538 Y43.312
X128.497 Y44.049
X128.444 Y44.785
X128.378 Y45.52
X128.3 Y46.253
X128.209 Y46.986
X128.106 Y47.716
X127.99 Y48.445
X127.862 Y49.172
X127.722 Y49.896
X127.569 Y50.618
X127.403 Y51.337
X127.226 Y52.053
X127.036 Y52.766
X126.834 Y53.475
X126.619 Y54.181
X126.393 Y54.884
X126.154 Y55.582
X125.904 Y56.276
X125.642 Y56.965
X125.368 Y57.651
X125.083 Y58.331
X124.786 Y59.006
X124.478 Y59.677
X124.158 Y60.342
X123.827 Y61.001
X123.484 Y61.655
X123.131 Y62.302
X122.766 Y62.944
X122.391 Y63.579
X122.004 Y64.207
X121.607 Y64.829
X121.2 Y65.444
X120.782 Y66.052
X120.354 Y66.653
X119.915 Y67.246
X119.467 Y67.832
X119.008 Y68.41
X118.54 Y68.981
X118.062 Y69.543
X117.575 Y70.097
X117.078 Y70.642
X116.572 Y71.179
X116.057 Y71.707
X115.533 Y72.227
X115. Y72.737
X114.458 Y73.238
X113.908 Y73.73
X113.35 Y74.212
X112.783 Y74.685
X112.209 Y75.147
X111.626 Y75.6
X111.541 Y75.664
X111.405 Y75.745
X111.254 Y75.795
X111.096 Y75.812
X108.964
G3 X108.788 Y75.239 I0.011 J-0.317
G1 X108.844 Y75.197 Z24.666
X108.899 Y75.158 Z24.689
X108.947 Y75.122 Z24.727
X108.988 Y75.092 Z24.778
X109.018 Y75.07 Z24.838
X109.037 Y75.056 Z24.905
X109.044 Y75.051 Z24.975
G0 Z39.657
X123.257 Y28.926
Z25.293
G1 Z24.975 F1016.
X123.263 Y28.92 Z24.905
X123.28 Y28.904 Z24.838
X123.307 Y28.877 Z24.778
X123.342 Y28.842 Z24.727
X123.385 Y28.8 Z24.689
X123.433 Y28.753 Z24.666
X123.483 Y28.703 Z24.658
G3 X124.162 Y28.308 I1.11 J1.128
G1 X124.33 Y28.267
X124.498 Y28.207
X124.575 Y28.174
X124.665 Y28.128
X124.716 Y28.101
X124.851 Y28.037
X124.996 Y27.997
X125.145 Y27.979
X125.295
X125.444 Y27.993
X125.597 Y28.022
X125.755 Y28.065
X125.933 Y28.129
X126.118 Y28.214
X126.323 Y28.327
X126.535 Y28.469
X126.767 Y28.652
X127.006 Y28.875
X127.269 Y29.161
X127.529 Y29.496
X127.822 Y29.942
X128.105 Y30.459
X128.406 Y31.133
X128.653 Y31.828
X128.861 Y32.536
X129.037 Y33.253
X129.188 Y33.975
X129.319 Y34.701
X129.433 Y35.43
X129.531 Y36.161
X129.614 Y36.894
X129.683 Y37.629
X129.74 Y38.364
X129.783 Y39.101
X129.814 Y39.838
X129.833 Y40.576
X129.839 Y41.313
X129.833 Y42.051
X129.814 Y42.789
X129.784 Y43.526
X129.741 Y44.263
X129.686 Y44.998
X129.618 Y45.733
X129.539 Y46.467
X129.447 Y47.199
X129.343 Y47.929
X129.227 Y48.658
X129.099 Y49.384
X128.959 Y50.109
X128.807 Y50.831
X128.643 Y51.55
X128.467 Y52.267
X128.279 Y52.98
X128.078 Y53.69
X127.867 Y54.397
X127.643 Y55.1
X127.407 Y55.799
X127.161 Y56.495
X126.902 Y57.186
X126.632 Y57.872
X126.351 Y58.554
X126.059 Y59.232
X125.755 Y59.904
X125.441 Y60.572
X125.115 Y61.234
X124.779 Y61.89
X124.431 Y62.541
X124.073 Y63.186
X123.704 Y63.825
X123.324 Y64.458
X122.934 Y65.084
X122.534 Y65.704
X122.124 Y66.317
X121.703 Y66.923
X121.272 Y67.522
X120.832 Y68.114
X120.382 Y68.699
X119.922 Y69.276
X119.453 Y69.845
X118.974 Y70.407
X118.486 Y70.96
X117.989 Y71.506
X117.483 Y72.043
X116.968 Y72.571
X116.445 Y73.091
X115.913 Y73.602
X115.372 Y74.104
X114.823 Y74.597
X114.266 Y75.081
X113.701 Y75.555
X113.588 Y75.647
X113.446 Y75.737
X113.288 Y75.793
X113.121 Y75.812
X111.096
G3 X110.92 Y75.239 I0.011 J-0.317
G1 X110.977 Y75.197 Z24.666
X111.031 Y75.158 Z24.689
X111.079 Y75.122 Z24.727
X111.12 Y75.092 Z24.778
X111.15 Y75.07 Z24.838
X111.169 Y75.056 Z24.905
X111.176 Y75.051 Z24.975
G0 Z39.657
X123.994 Y28.926
Z25.293
G1 Z24.975 F1016.
X123.998 Y28.919 Z24.905
X124.01 Y28.899 Z24.838
X124.03 Y28.866 Z24.778
X124.056 Y28.823 Z24.727
X124.087 Y28.771 Z24.689
X124.121 Y28.714 Z24.666
X124.157 Y28.653 Z24.658
G3 X124.716 Y28.101 I1.357 J0.814
G1 X124.833 Y28.038
X124.88 Y28.007
X125.001 Y27.916
X125.095 Y27.839
X125.135 Y27.8
X125.248 Y27.701
