(SATURNV32TH)
(T1  D=0.792 CR=0.396 - ZMIN=17.197 - BALL END MILL)
G0 G90 G94 G17
G21
G53 G0 Z0.

(MORPHED SPIRAL2)
M5
M9
T1
S16500 M3
G4 P4.
G55
G0 X40.958 Y40.82
Z49.657
Z19.197
G1 Z17.526 F356.
X40.964 Z17.496
X40.981 Z17.47
X41.007 Z17.453
X41.037 Z17.447
X95.129 Y40.754
X95.181 Y40.757
X95.192 Y40.769
X95.196 Y40.82
X95.192 Y40.87
X95.18 Y40.883
X95.081 Y40.886
X41.038 Y40.952
X40.981 Y40.946
X40.961 Y40.944 Z17.452
X40.947 Y40.942 Z17.467
X40.941 Z17.487
X40.944 Y40.936 Z17.516
X40.952 Y40.919 Z17.539
X40.963 Y40.894 Z17.552
X40.976 Y40.867
X40.987 Y40.843 Z17.539
X40.995 Y40.826 Z17.516
X40.998 Y40.82 Z17.487
Z17.237
X41.003 Z17.217
X41.017 Z17.202
X41.037 Z17.197
X95.129 Y40.754
X95.181 Y40.757
X95.192 Y40.769
X95.196 Y40.82
X95.192 Y40.87
X95.18 Y40.883
X95.081 Y40.886
X41.038 Y40.952
X40.981 Y40.946
X40.961 Y40.944 Z17.202
X40.947 Y40.942 Z17.217
X40.941 Z17.237
Z17.487
X40.936 Y40.941 Z17.509
X40.931 Z17.533
X40.939 Z17.557
X40.957 Y40.943 Z17.575
X40.981 Y40.944 Z17.581
X41.005 Y40.946 Z17.575
X41.023 Y40.947 Z17.557
X41.031 Z17.533
X41.026 Z17.509
X41.02 Z17.487
X41.015 Y40.946 Z17.467
X41.001 Z17.452
X40.981 Z17.447
X40.935 Y40.945
X40.912 Y40.922
Y40.836
X40.937 Y40.768
X40.988 Y40.716
X41.055 Y40.689
X41.279 Y40.686
X95.128 Y40.555
X95.24 Y40.567
X95.302 Y40.568
X95.327
X95.349 Y40.576
X95.368 Y40.592
X95.383 Y40.63
Y40.71
X95.394 Y40.807
X95.384 Y40.923
Y41.011
X95.362 Y41.054
X95.32 Y41.074
X95.236
X95.128 Y41.085
X41.026 Y41.216
X40.911 Y41.206
X40.827 Y41.193
X40.754 Y41.2
X40.708 Y41.186
X40.673 Y41.153
X40.657 Y41.107
X40.662 Y41.031
X40.642 Y40.885
X40.643 Y40.74
X40.661 Y40.616
X40.675 Y40.545
X40.717 Y40.486
X40.757 Y40.459
X40.794 Y40.446
X40.997 Y40.427
X41.295 Y40.419
X95.13 Y40.291
X95.25 Y40.298
X95.398 Y40.321
X95.499 Y40.314
X95.547 Y40.322
X95.589 Y40.346
X95.619 Y40.384
X95.636 Y40.44
X95.629 Y40.523
X95.639 Y40.614
X95.658 Y40.759
X95.657 Y40.905
X95.634 Y41.074
X95.641 Y41.179
X95.633 Y41.226
X95.611 Y41.27
X95.577 Y41.304
X95.534 Y41.325
X95.464 Y41.329
X95.405 Y41.324
X95.246 Y41.345
X95.029 Y41.353
X41.018 Y41.48
X40.92 Y41.476
X40.84 Y41.466
X40.707 Y41.443
X40.619 Y41.448
X40.554 Y41.453
X40.485 Y41.43
X40.432 Y41.381
X40.405 Y41.314
Y41.254
X40.411 Y41.157
X40.38 Y40.945
X40.375 Y40.751
X40.398 Y40.564
X40.406 Y40.467
X40.387 Y40.311
X40.392 Y40.263
X40.414 Y40.22
X40.45 Y40.188
X40.495 Y40.171
X40.593 Y40.177
X40.669 Y40.187
X40.717
X40.879 Y40.163
X41.033 Y40.153
X95.126 Y40.027
X95.321 Y40.038
X95.494 Y40.067
X95.591 Y40.07
X95.788 Y40.046
X95.845 Y40.055
X95.883 Y40.085
X95.904 Y40.135
X95.899 Y40.222
X95.88 Y40.349
X95.882 Y40.444
X95.918 Y40.672
X95.925 Y40.866
X95.907 Y41.06
X95.888 Y41.204
X95.897 Y41.341
X95.91 Y41.485
X95.901 Y41.532
X95.873 Y41.572
X95.836 Y41.594
X95.788 Y41.601
X95.678 Y41.592
X95.568 Y41.577
X95.484 Y41.579
X95.256 Y41.613
X94.93 Y41.62
X41.03 Y41.745
X40.836 Y41.734
X40.595 Y41.694
X40.499 Y41.693
X40.321 Y41.72
X40.214 Y41.722
X40.17 Y41.701
X40.154 Y41.684
X40.137 Y41.653
X40.132 Y41.597
X40.146 Y41.467
X40.162 Y41.331
X40.155 Y41.234
X40.118 Y41.005
X40.108 Y40.811
X40.119 Y40.617
X40.15 Y40.414
X40.154 Y40.316
X40.127 Y40.098
X40.128 Y39.998
X40.148 Y39.954
X40.181 Y39.924
X40.24 Y39.907
X40.392 Y39.917
X40.551 Y39.935
X40.681 Y39.922
X40.874 Y39.894
X41.08 Y39.886
X95.126 Y39.762
X95.369 Y39.776
X95.599 Y39.813
X95.744 Y39.819
X95.939 Y39.793
X96.071 Y39.783
X96.118 Y39.791
X96.154 Y39.824
X96.163 Y39.848
X96.16 Y39.977
X96.132 Y40.176
X96.129 Y40.273
X96.143 Y40.379
X96.176 Y40.574
X96.191 Y40.817
X96.178 Y41.06
X96.143 Y41.3
X96.144 Y41.446
X96.168 Y41.636
X96.171 Y41.786
X96.151 Y41.83
X96.133 Y41.846
X96.103 Y41.861
X96.008 Y41.862
X95.861 Y41.849
X95.73 Y41.83
X95.633
X95.369 Y41.871
X95.131 Y41.886
X42.777 Y42.005
X40.979 Y42.009
X40.737 Y41.99
X40.482 Y41.946
X40.385 Y41.94
X40.284 Y41.95
X40.117 Y41.977
X39.974 Y41.986
X39.927 Y41.979
X39.889 Y41.949
X39.871 Y41.902
X39.881 Y41.717
X39.911 Y41.505
X39.904 Y41.36
X39.862 Y41.113
X39.843 Y40.871
X39.85 Y40.628
X39.874 Y40.435
X39.9 Y40.263
X39.897 Y40.118
X39.868 Y39.906
X39.864 Y39.732
X39.882 Y39.687
X39.915 Y39.658
X39.954 Y39.645
X40.136 Y39.651
X40.384 Y39.681
X40.528 Y39.675
X40.772 Y39.635
X40.966 Y39.621
X43.17 Y39.614
X95.125 Y39.498
X95.368 Y39.509
X95.609 Y39.542
X95.752 Y39.566
X95.898 Y39.569
X96.018 Y39.555
X96.142 Y39.536
X96.325 Y39.524
X96.369 Y39.529
X96.408 Y39.556
X96.426 Y39.597
X96.419 Y39.759
X96.391 Y39.955
X96.378 Y40.1
X96.391 Y40.245
X96.433 Y40.477
X96.454 Y40.719
X96.453 Y40.962
X96.429 Y41.204
X96.399 Y41.396
X96.394 Y41.542
X96.417 Y41.744
X96.431 Y41.939
X96.433 Y42.043
X96.418 Y42.089
X96.381 Y42.12
X96.354 Y42.128
X96.228 Y42.122
X96.043 Y42.107
X95.844 Y42.081
X95.704 Y42.089
X95.441 Y42.133
X95.186 Y42.152
X86.907 Y42.171
X45.647 Y42.263
X41.026 Y42.274
X40.783 Y42.263
X40.542 Y42.231
X40.37 Y42.198
X40.224 Y42.19
X40.116 Y42.202
X39.912 Y42.234
X39.738 Y42.245
X39.648 Y42.251
X39.626 Y42.242
X39.609 Y42.225
X39.601 Y42.203
X39.613 Y42.119
X39.625 Y41.917
X39.659 Y41.679
Y41.533
X39.641 Y41.413
X39.6 Y41.173
X39.58 Y40.931
Y40.688
X39.601 Y40.445
X39.64 Y40.209
X39.65 Y40.064
X39.645 Y39.967
X39.61 Y39.714
X39.602 Y39.509
X39.608 Y39.441
X39.635 Y39.401
X39.682 Y39.38
X39.818 Y39.385
X39.981 Y39.395
X40.217 Y39.428
X40.363 Y39.426
X40.573 Y39.392
X40.815 Y39.362
X41.076 Y39.353
X95.132 Y39.234
X95.391 Y39.244
X95.606 Y39.271
X95.858 Y39.313
X96.003 Y39.321
X96.149 Y39.31
X96.389 Y39.275
X96.575 Y39.265
X96.632 Y39.259
X96.655 Y39.265
X96.675 Y39.279
X96.695 Y39.32
X96.683 Y39.403
X96.669 Y39.624
X96.636 Y39.83
X96.628 Y39.975
X96.641 Y40.115
X96.69 Y40.379
X96.718 Y40.67
X96.719 Y40.961
X96.693 Y41.252
X96.65 Y41.54
X96.649 Y41.735
X96.674 Y41.929
X96.689 Y42.069
X96.694 Y42.248
X96.699 Y42.343
X96.691 Y42.366
X96.676 Y42.385
X96.639 Y42.399
X96.538 Y42.385
X96.35 Y42.378
X96.178 Y42.357
X96.006 Y42.334
X95.861 Y42.337
X95.513 Y42.394
X95.271 Y42.416
X94.743 Y42.42
X48.312 Y42.522
X41.025 Y42.538
X40.733 Y42.525
X40.444 Y42.486
X40.257 Y42.449
X40.112 Y42.438
X40.014 Y42.443
X39.756 Y42.485
X39.52 Y42.502
X39.424 Y42.509
X39.4 Y42.512
X39.377 Y42.505
X39.357 Y42.491
X39.339 Y42.451
X39.354 Y42.355
X39.368 Y42.116
X39.407 Y41.853
X39.411 Y41.707
X39.395 Y41.562
X39.338 Y41.233
X39.314 Y40.942
X39.316 Y40.65
X39.342 Y40.36
X39.391 Y40.059
X39.398 Y39.913
X39.382 Y39.739
X39.351 Y39.522
X39.341 Y39.271
X39.337 Y39.194
X39.335 Y39.17
X39.341 Y39.147
X39.356 Y39.127
X39.395 Y39.109
X39.502 Y39.123
X39.741 Y39.132
X40.002 Y39.168
X40.148 Y39.177
X40.293 Y39.167
X40.616 Y39.114
X40.907 Y39.089
X41.658 Y39.085
X95.132 Y38.969
X95.402 Y38.979
X95.678 Y39.012
X96.011 Y39.066
X96.206 Y39.069
X96.374 Y39.049
X96.595 Y39.018
X96.803 Y39.005
X96.878 Y38.998
X96.923 Y39.014
X96.949 Y39.046
X96.954 Y39.097
X96.942 Y39.167
X96.932 Y39.364
X96.911 Y39.528
X96.883 Y39.705
X96.878 Y39.851
X96.893 Y39.996
X96.938 Y40.233
X96.975 Y40.523
X96.987 Y40.815
X96.977 Y41.106
X96.942 Y41.396
X96.906 Y41.636
X96.9 Y41.83
X96.911 Y41.976
X96.943 Y42.213
X96.954 Y42.468
X96.958 Y42.569
X96.955 Y42.616
X96.924 Y42.652
X96.899 Y42.662
X96.872
X96.772 Y42.646
X96.522 Y42.635
X96.217 Y42.592
X96.072 Y42.584
X95.926 Y42.597
X95.586 Y42.655
X95.295 Y42.681
X94.923 Y42.686
X50.343 Y42.782
X41.102 Y42.802
X40.828 Y42.797
X40.537 Y42.771
X40.28 Y42.729
X40.144 Y42.701
X39.999 Y42.687
X39.853 Y42.693
X39.559 Y42.742
X39.333 Y42.758
X39.197 Y42.765
X39.152 Y42.772
X39.107 Y42.756
X39.083 Y42.724
X39.08 Y42.678
X39.095 Y42.592
X39.104 Y42.388
X39.127 Y42.206
X39.155 Y42.027
X39.162 Y41.881
X39.152 Y41.735
X39.09 Y41.389
X39.057 Y41.099
X39.047 Y40.808
X39.058 Y40.516
X39.091 Y40.226
X39.136 Y39.957
X39.146 Y39.762
X39.127 Y39.572
X39.097 Y39.378
X39.083 Y39.14
X39.08 Y38.965
X39.073 Y38.92
X39.09 Y38.875
X39.107 Y38.859
X39.135 Y38.847
X39.164
X39.266 Y38.863
X39.52 Y38.871
X39.704 Y38.893
X39.884 Y38.919
X40.079 Y38.923
X40.274 Y38.897
X40.611 Y38.845
X40.951 Y38.821
X43.554 Y38.815
X95.133 Y38.705
X95.364 Y38.711
X95.701 Y38.744
X96.068 Y38.807
X96.262 Y38.821
X96.456 Y38.811
X96.749 Y38.766
X97.003 Y38.747
X97.1 Y38.741
X97.154 Y38.731
X97.177 Y38.738
X97.196 Y38.753
X97.212 Y38.796
X97.202 Y38.86
X97.197 Y39.029
X97.182 Y39.226
X97.148 Y39.436
X97.128 Y39.629
X97.137 Y39.823
X97.202 Y40.184
X97.241 Y40.522
X97.253 Y40.863
X97.236 Y41.203
X97.191 Y41.54
X97.157 Y41.78
X97.153 Y41.975
X97.169 Y42.169
X97.206 Y42.453
X97.219 Y42.818
X97.218 Y42.866
X97.191 Y42.906
X97.158 Y42.923
X97.121 Y42.925
X97.007 Y42.907
X96.79 Y42.9
X96.544 Y42.871
X96.331 Y42.84
X96.185 Y42.837
X96.04 Y42.851
X95.692 Y42.911
X95.354 Y42.945
X95.116 Y42.952
X42.885 Y43.063
X40.972 Y43.066
X40.632 Y43.048
X40.294 Y43.004
X39.984 Y42.946
X39.838 Y42.936
X39.692 Y42.943
X39.425 Y42.989
X39.202 Y43.013
X38.992 Y43.024
X38.929 Y43.028
X38.887 Y43.036
X38.863 Y43.03
X38.844 Y43.017
X38.83 Y42.996
X38.824 Y42.972
X38.834 Y42.903
X38.839 Y42.75
X38.854 Y42.515
X38.889 Y42.297
X38.911 Y42.103
X38.906 Y41.909
X38.88 Y41.737
X38.821 Y41.401
X38.789 Y41.062
X38.782 Y40.721
X38.802 Y40.381
X38.848 Y40.044
X38.887 Y39.806
X38.893 Y39.612
X38.882 Y39.466
X38.834 Y39.138
X38.823 Y38.893
X38.82 Y38.741
X38.812 Y38.67
X38.825 Y38.624
X38.857 Y38.594
X38.895 Y38.583
X39.007 Y38.6
X39.25 Y38.607
X39.471 Y38.628
X39.669 Y38.659
X39.863 Y38.672
X40.058 Y38.66
X40.413 Y38.6
X40.751 Y38.564
X41.022 Y38.554
X95.133 Y38.441
X95.473 Y38.453
X95.773 Y38.484
X96.125 Y38.546
X96.318 Y38.569
X96.513
X96.658 Y38.555
X96.884 Y38.518
X97.105 Y38.497
X97.281 Y38.487
X97.346 Y38.482
X97.404 Y38.47
X97.448 Y38.489
X97.469 Y38.522
X97.468 Y38.567
X97.462 Y38.636
X97.455 Y38.823
X97.439 Y39.027
X97.386 Y39.359
X97.377 Y39.553
X97.394 Y39.747
X97.458 Y40.087
X97.5 Y40.425
X97.518 Y40.765
X97.51 Y41.105
X97.477 Y41.444
X97.417 Y41.828
X97.404 Y42.071
X97.421 Y42.313
X97.46 Y42.596
X97.473 Y42.834
X97.477 Y43.002
X97.484 Y43.092
X97.472 Y43.139
X97.439 Y43.174
X97.394 Y43.189
X97.37 Y43.188
X97.241 Y43.168
X96.961 Y43.157
X96.726 Y43.129
X96.542 Y43.099
X96.347 Y43.088
X96.154 Y43.105
X95.751 Y43.174
X95.412 Y43.208
X95.017 Y43.218
X44.758 Y43.323
X41.019 Y43.331
X40.679 Y43.318
X40.34 Y43.282
X39.823 Y43.192
X39.628 Y43.186
X39.447 Y43.206
X39.164 Y43.254
X38.933 Y43.273
X38.751 Y43.283
X38.681 Y43.288
X38.637 Y43.297
X38.592 Y43.281
X38.569 Y43.247
X38.568 Y43.198
X38.574 Y43.126
X38.582 Y42.929
X38.598 Y42.714
X38.651 Y42.374
X38.662 Y42.18
X38.65 Y41.986
X38.581 Y41.605
X38.537 Y41.267
X38.518 Y40.927
X38.521 Y40.587
X38.548 Y40.247
X38.599 Y39.91
X38.633 Y39.704
X38.642 Y39.51
X38.629 Y39.316
X38.581 Y38.994
X38.565 Y38.8
X38.563 Y38.641
X38.559 Y38.496
X38.551 Y38.421
X38.563 Y38.375
X38.597 Y38.343
X38.641 Y38.332
X38.716 Y38.341
X38.861 Y38.344
X39.126 Y38.352
X39.349 Y38.379
X39.6 Y38.415
X39.794 Y38.419
X39.988 Y38.4
X40.407 Y38.33
X40.746 Y38.297
X41.02 Y38.287
X95.134 Y38.176
X95.484 Y38.188
X95.844 Y38.225
X96.093 Y38.266
X96.278 Y38.3
X96.472 Y38.32
X96.667 Y38.319
X96.86 Y38.299
X97.154 Y38.253
X97.383 Y38.237
X97.52 Y38.227
X97.592 Y38.222
X97.653 Y38.209
X97.699 Y38.225
X97.726 Y38.259
X97.732 Y38.298
X97.72 Y38.37
X97.718 Y38.462
X97.704 Y38.747
X97.674 Y38.974
X97.633 Y39.234
X97.627 Y39.429
X97.645 Y39.622
X97.722 Y40.037
X97.767 Y40.424
X97.783 Y40.813
X97.77 Y41.202
X97.727 Y41.589
X97.673 Y41.924
X97.657 Y42.166
X97.667 Y42.409
X97.713 Y42.74
X97.731 Y42.983
X97.737 Y43.2
Y43.292
X97.744 Y43.341
X97.733 Y43.388
X97.701 Y43.424
X97.656 Y43.44
X97.582 Y43.429
X97.464 Y43.427
X97.18 Y43.418
X96.957 Y43.394
X96.655 Y43.347
X96.461 Y43.34
X96.267 Y43.358
X95.905 Y43.424
X95.519 Y43.468
X95.13 Y43.484
X54.244 Y43.568
X41.102 Y43.595
X40.774 Y43.589
X40.386 Y43.557
X40.049 Y43.506
X39.758 Y43.449
X39.564 Y43.434
X39.37 Y43.444
X39.046 Y43.499
X38.841 Y43.524
X38.586 Y43.537
X38.461 Y43.542
X38.387 Y43.558
X38.341 Y43.544
X38.312 Y43.51
X38.304 Y43.469
X38.316 Y43.393
X38.319 Y43.296
X38.328 Y43.054
X38.352 Y42.831
X38.398 Y42.548
X38.412 Y42.354
X38.404 Y42.159
X38.372 Y41.952
X38.304 Y41.569
X38.264 Y41.182
X38.251 Y40.793
X38.266 Y40.404
X38.309 Y40.017
X38.372 Y39.65
X38.389 Y39.457
X38.386 Y39.262
X38.356 Y39.026
X38.317 Y38.754
X38.302 Y38.468
X38.298 Y38.318
Y38.223
X38.289 Y38.172
X38.299 Y38.125
X38.331 Y38.088
X38.376 Y38.071
X38.444 Y38.08
X38.567 Y38.081
X38.856 Y38.088
X39.103 Y38.113
X39.385 Y38.156
X39.579 Y38.168
X39.773 Y38.159
X40.017 Y38.12
X40.402 Y38.06
X40.79 Y38.028
X41.116 Y38.021
X95.134 Y37.912
X95.495 Y37.923
X95.834 Y37.955
X96.189 Y38.01
X96.432 Y38.054
X96.674 Y38.072
X96.917 Y38.061
X97.192 Y38.019
X97.405 Y37.991
X97.676 Y37.974
X97.809 Y37.968
X97.903 Y37.948
X97.95 Y37.961
X97.982 Y37.996
X97.992 Y38.043
X97.979 Y38.125
X97.976 Y38.227
X97.966 Y38.476
X97.94 Y38.715
X97.89 Y39.013
X97.876 Y39.207
X97.884 Y39.401
X97.915 Y39.607
X97.986 Y39.988
X98.03 Y40.375
X98.048 Y40.763
X98.039 Y41.153
X98.004 Y41.54
X97.929 Y42.019
X97.911 Y42.262
X97.916 Y42.505
X97.93 Y42.65
X97.977 Y42.98
X97.993 Y43.282
X97.998 Y43.438
X97.997 Y43.539
X98.006 Y43.59
X97.996 Y43.638
X97.968 Y43.676
X97.925 Y43.699
X97.869
X97.796 Y43.69
X97.697 Y43.688
X97.448 Y43.681
X97.216 Y43.661
X96.866 Y43.607
X96.672 Y43.592
X96.477 Y43.6
X96.251 Y43.637
X95.867 Y43.7
X95.48 Y43.738
X95.063 Y43.751
X41.985 Y43.858
X40.918 Y43.859
X40.53 Y43.839
X40.143 Y43.793
X39.829 Y43.737
X39.597 Y43.694
X39.403 Y43.682
X39.209 Y43.694
X38.856 Y43.754
X38.637 Y43.781
X38.424 Y43.791
X38.27 Y43.801
X38.215
X38.137 Y43.819
X38.09 Y43.807
X38.056 Y43.773
X38.044 Y43.727
X38.056 Y43.668
X38.06 Y43.532
X38.07 Y43.275
X38.084 Y43.113
X38.126 Y42.848
X38.156 Y42.625
X38.162 Y42.43
X38.148 Y42.236
X38.119 Y42.06
X38.049 Y41.677
X38.005 Y41.29
X37.987 Y40.901
X37.993 Y40.512
X38.025 Y40.124
X38.082 Y39.739
X38.117 Y39.548
X38.138 Y39.306
X38.13 Y39.063
X38.087 Y38.776
X38.054 Y38.514
X38.042 Y38.213
X38.037 Y38.08
X38.038 Y37.976
X38.028 Y37.922
X38.036 Y37.875
X38.064 Y37.835
X38.107 Y37.813
X38.164
X38.228 Y37.82
X38.332 Y37.821
X38.586 Y37.825
X38.83 Y37.844
X39.17 Y37.895
X39.413 Y37.915
X39.656 Y37.906
X39.868 Y37.873
X40.252 Y37.809
X40.639 Y37.77
X40.931 Y37.756
X43.061 Y37.751
X95.183 Y37.648
X95.603 Y37.665
X95.987 Y37.706
X96.489 Y37.793
X96.731 Y37.819
X96.974
X97.215 Y37.793
X97.469 Y37.751
X97.655 Y37.73
X97.833 Y37.721
X97.939 Y37.712
X98.053 Y37.709
X98.153 Y37.687
X98.2 Y37.698
X98.236 Y37.73
X98.252 Y37.775
X98.24 Y37.848
X98.239 Y37.956
X98.231 Y38.096
X98.217 Y38.351
X98.195 Y38.524
X98.142 Y38.84
X98.127 Y39.034
X98.13 Y39.228
X98.154 Y39.422
X98.234 Y39.842
X98.284 Y40.228
X98.31 Y40.617
X98.311 Y41.006
X98.288 Y41.395
X98.241 Y41.781
X98.179 Y42.163
X98.163 Y42.406
X98.168 Y42.649
X98.197 Y42.905
X98.235 Y43.172
X98.251 Y43.415
X98.256 Y43.645
X98.257 Y43.755
X98.267 Y43.84
X98.259 Y43.888
X98.233 Y43.928
X98.193 Y43.955
X98.144 Y43.964
X98.071 Y43.951
X97.961
X97.824 Y43.945
X97.522 Y43.932
X97.322 Y43.908
X96.98 Y43.854
X96.785 Y43.843
X96.591 Y43.853
X96.357 Y43.891
X95.974 Y43.956
X95.586 Y43.998
X95.198 Y44.016
X83.333 Y44.04
X42.776 Y44.121
X40.965 Y44.124
X40.528 Y44.104
X40.093 Y44.056
X39.776 Y44.001
X39.485 Y43.946
X39.291 Y43.931
X39.096 Y43.939
X38.849 Y43.977
X38.666 Y44.009
X38.433 Y44.038
X38.229 Y44.049
X38.085 Y44.058
X37.97 Y44.06
X37.87 Y44.084
X37.824 Y44.072
X37.79 Y44.038
X37.778 Y43.991
X37.797 Y43.916
X37.798 Y43.804
X37.805 Y43.658
X37.819 Y43.4
X37.841 Y43.214
X37.894 Y42.895
X37.912 Y42.653
X37.903 Y42.41
X37.865 Y42.168
X37.795 Y41.785
X37.748 Y41.398
X37.724 Y41.01
X37.723 Y40.621
X37.746 Y40.232
X37.792 Y39.845
X37.868 Y39.398
X37.886 Y39.155
X37.877 Y38.912
X37.831 Y38.598
X37.801 Y38.37
X37.784 Y38.128
X37.782 Y37.915
X37.776 Y37.79
X37.777 Y37.729
X37.767 Y37.673
X37.773 Y37.625
X37.798 Y37.584
X37.838 Y37.556
X37.888 Y37.547
X37.951 Y37.559
X38.064 Y37.558
X38.316 Y37.563
X38.559 Y37.577
X38.817 Y37.61
X39.101 Y37.652
X39.343 Y37.663
X39.586 Y37.647
X40.006 Y37.574
X40.44 Y37.518
X40.878 Y37.491
X41.648 Y37.488
X95.121 Y37.383
X95.559 Y37.397
X95.994 Y37.438
X96.427 Y37.508
X96.691 Y37.554
X96.933 Y37.572
X97.176 Y37.566
X97.37 Y37.544
X97.712 Y37.489
X98.025 Y37.464
X98.173 Y37.453
X98.296 Y37.449
X98.397 Y37.425
X98.445 Y37.424
X98.487 Y37.447
X98.514 Y37.487
X98.517 Y37.535
X98.499 Y37.601
X98.498 Y37.717
X98.488 Y37.935
X98.465 Y38.23
X98.428 Y38.468
X98.388 Y38.715
X98.375 Y38.958
X98.391 Y39.201
X98.441 Y39.482
X98.505 Y39.841
X98.556 Y40.276
X98.578 Y40.713
X98.571 Y41.151
X98.536 Y41.588
X98.473 Y42.02
X98.43 Y42.308
X98.415 Y42.599
X98.428 Y42.891
X98.461 Y43.128
X98.493 Y43.364
X98.512 Y43.654
X98.518 Y43.997
X98.53 Y44.091
X98.525 Y44.139
X98.502 Y44.182
X98.464 Y44.212
X98.408 Y44.227
X98.316 Y44.212
X98.196
X97.984 Y44.205
X97.693 Y44.188
X97.457 Y44.157
X97.142 Y44.108
X96.947 Y44.095
X96.753 Y44.102
X96.56 Y44.127
X96.128 Y44.205
X95.693 Y44.257
X95.256 Y44.281
X92.189 Y44.289
X44.359 Y44.382
X41.102 Y44.388
X40.769 Y44.384
X40.332 Y44.353
X39.898 Y44.296
X39.516 Y44.223
X39.324 Y44.191
X39.13 Y44.18
X38.935 Y44.189
X38.682 Y44.229
X38.429 Y44.272
X38.131 Y44.302
X37.886 Y44.313
X37.789 Y44.319
X37.725
X37.573 Y44.36
X37.54 Y44.349
X37.523 Y44.317
X37.53 Y44.286
X37.543 Y44.256
X37.545 Y44.224
X37.54 Y44.039
X37.553 Y43.719
X37.585 Y43.406
X37.647 Y43.021
X37.663 Y42.778
X37.652 Y42.535
X37.615 Y42.294
X37.544 Y41.919
X37.488 Y41.485
X37.46 Y41.048
X37.458 Y40.61
X37.484 Y40.172
X37.537 Y39.738
X37.614 Y39.296
X37.634 Y39.054
X37.629 Y38.81
X37.601 Y38.576
X37.554 Y38.275
X37.527 Y37.984
X37.519 Y37.64
X37.518 Y37.519
X37.51 Y37.447
X37.506 Y37.399
X37.52 Y37.353
X37.55 Y37.315
X37.593 Y37.292
X37.629 Y37.286
X37.704 Y37.298
X37.826 Y37.297
X38.046 Y37.302
X38.338 Y37.316
X38.551 Y37.34
X38.886 Y37.392
X39.128 Y37.41
X39.372 Y37.404
X39.609 Y37.373
X40.049 Y37.296
X40.484 Y37.246
X40.921 Y37.224
X42.619 Y37.22
X95.12 Y37.119
X95.558 Y37.131
X95.994 Y37.17
X96.428 Y37.235
X96.796 Y37.301
X97.038 Y37.321
X97.282 Y37.319
X97.524 Y37.295
X97.955 Y37.227
X98.248 Y37.205
X98.441 Y37.191
X98.54 Y37.19
X98.708 Y37.147
X98.732
X98.754 Y37.157
X98.769 Y37.175
X98.772 Y37.213
X98.753 Y37.257
X98.75 Y37.291
X98.756 Y37.478
X98.744 Y37.762
X98.715 Y38.079
X98.646 Y38.494
X98.626 Y38.736
X98.632 Y38.98
X98.664 Y39.221
X98.738 Y39.599
X98.8 Y40.033
X98.835 Y40.47
X98.844 Y40.907
X98.826 Y41.345
X98.782 Y41.781
X98.697 Y42.307
X98.671 Y42.597
X98.67 Y42.889
X98.697 Y43.18
X98.745 Y43.507
X98.769 Y43.798
X98.776 Y44.116
X98.78 Y44.212
X98.779 Y44.279
X98.797 Y44.363
X98.792 Y44.411
X98.767 Y44.453
X98.729 Y44.482
X98.677 Y44.494
X98.561 Y44.472
X98.431
X98.204 Y44.465
X97.912 Y44.449
X97.591 Y44.406
X97.304 Y44.361
X97.061 Y44.347
X96.818 Y44.36
X96.57 Y44.401
X96.138 Y44.475
X95.703 Y44.524
X95.265 Y44.547
X92.868 Y44.553
X45.544 Y44.644
X41.102 Y44.653
X40.767 Y44.648
X40.33 Y44.62
X39.895 Y44.567
X39.574 Y44.51
X39.308 Y44.457
X39.066 Y44.431
X38.823 Y44.435
X38.61 Y44.462
X38.179 Y44.535
X37.855 Y44.563
X37.613 Y44.576
X37.48 Y44.579
X37.33 Y44.62
X37.306 Y44.622
X37.283 Y44.612
X37.268 Y44.594
X37.264 Y44.556
X37.284 Y44.51
X37.287 Y44.476
X37.28 Y44.285
X37.292 Y43.99
X37.321 Y43.662
X37.389 Y43.243
X37.411 Y43.
X37.409 Y42.757
X37.382 Y42.515
X37.306 Y42.118
X37.242 Y41.684
X37.203 Y41.248
X37.19 Y40.81
X37.203 Y40.372
X37.241 Y39.936
X37.304 Y39.503
X37.359 Y39.194
X37.381 Y38.952
X37.38 Y38.708
X37.355 Y38.466
X37.29 Y38.041
X37.266 Y37.744
X37.259 Y37.405
X37.255 Y37.305
X37.256 Y37.236
X37.244 Y37.149
X37.256 Y37.103
X37.284 Y37.063
X37.324 Y37.036
X37.369 Y37.025
X37.458 Y37.037
X37.589
X37.795 Y37.042
X38.117 Y37.055
X38.462 Y37.097
X38.768 Y37.144
X39.011 Y37.159
X39.254 Y37.151
X39.495 Y37.119
X39.947 Y37.039
X40.382 Y36.987
X40.819 Y36.961
X41.985 Y36.955
X95.12 Y36.854
X95.558 Y36.866
X95.994 Y36.902
X96.428 Y36.963
X96.901 Y37.048
X97.143 Y37.07
X97.387 Y37.071
X97.629 Y37.052
X98.102 Y36.977
X98.421 Y36.949
X98.642 Y36.935
X98.783 Y36.931
X98.957 Y36.885
X98.981 Y36.883
X99.004 Y36.891
X99.021 Y36.908
X99.03 Y36.931
X99.023 Y36.97
X99.011 Y37.002
X99.008 Y37.037
X99.016 Y37.184
X99.006 Y37.415
X98.988 Y37.735
X98.945 Y38.051
X98.892 Y38.369
X98.875 Y38.612
X98.882 Y38.855
X98.914 Y39.096
X99.002 Y39.55
X99.062 Y39.984
X99.098 Y40.42
X99.109 Y40.858
X99.095 Y41.296
X99.057 Y41.732
X98.994 Y42.165
X98.954 Y42.403
X98.925 Y42.693
X98.921 Y42.985
X98.943 Y43.276
X99.009 Y43.748
X99.032 Y44.087
X99.036 Y44.351
X99.038 Y44.494
X99.031 Y44.594
X99.032 Y44.629
X99.049 Y44.686
X99.039 Y44.733
X99.008 Y44.762
X98.973 Y44.771
X98.844 Y44.739
X98.768 Y44.732
X98.668 Y44.733
X98.454 Y44.726
X98.131 Y44.71
X97.822 Y44.671
X97.417 Y44.61
X97.174 Y44.598
X96.932 Y44.613
X96.723 Y44.646
X96.244 Y44.731
X95.761 Y44.786
X95.275 Y44.813
X93.5 Y44.818
X45.939 Y44.908
X41.985 Y44.916
X40.911
X40.425 Y44.894
X39.941 Y44.843
X39.557 Y44.781
X39.195 Y44.708
X38.954 Y44.681
X38.71
X38.517 Y44.701
X38.049 Y44.782
X37.722 Y44.816
X37.42 Y44.831
X37.265 Y44.836
X37.163 Y44.83
X37.127 Y44.832
X37.055 Y44.861
X37.021 Y44.852
X37.005 Y44.821
X37.026 Y44.765
X37.029 Y44.73
X37.02 Y44.579
X37.03 Y44.339
X37.047 Y44.017
X37.091 Y43.683
X37.143 Y43.368
X37.162 Y43.125
X37.158 Y42.882
X37.132 Y42.64
X37.06 Y42.268
X36.992 Y41.835
X36.947 Y41.4
X36.927 Y40.962
X36.93 Y40.524
X36.957 Y40.087
X37.008 Y39.652
X37.08 Y39.236
X37.116 Y38.995
X37.131 Y38.753
X37.124 Y38.509
X37.092 Y38.244
X37.039 Y37.905
X37.007 Y37.552
X37.002 Y37.219
X36.995 Y37.073
X37.005 Y36.918
X37.003 Y36.883
X36.986 Y36.825
X36.99 Y36.802
X37.003 Y36.782
X37.024 Y36.769
X37.046 Y36.766
X37.106 Y36.785
X37.19 Y36.783
X37.342 Y36.776
X37.604 Y36.782
X37.944 Y36.798
X38.279 Y36.84
X38.602 Y36.889
X38.844 Y36.906
X39.088 Y36.901
X39.329 Y36.874
X39.846 Y36.783
X40.329 Y36.724
X40.814 Y36.695
X42.08 Y36.689
X95.12 Y36.59
X95.606 Y36.604
X96.091 Y36.646
X96.573 Y36.715
X97.006 Y36.794
X97.297 Y36.821
X97.589 Y36.819
X97.879 Y36.789
X98.297 Y36.721
X98.641 Y36.691
X98.882 Y36.676
X99.032 Y36.675
X99.101 Y36.679
X99.138 Y36.677
X99.236 Y36.641
X99.271 Y36.649
X99.291 Y36.679
X99.284 Y36.714
X99.27 Y36.748
X99.267 Y36.785
X99.275 Y36.939
X99.264 Y37.147
X99.251 Y37.464
X99.217 Y37.758
X99.15 Y38.148
X99.127 Y38.39
X99.126 Y38.634
X99.149 Y38.876
X99.232 Y39.309
X99.308 Y39.79
X99.355 Y40.274
X99.374 Y40.76
X99.364 Y41.247
X99.325 Y41.732
X99.259 Y42.214
X99.21 Y42.498
X99.179 Y42.789
X99.172 Y43.081
X99.189 Y43.372
X99.219 Y43.6
X99.267 Y43.939
X99.291 Y44.279
X99.293 Y44.534
X99.3 Y44.683
X99.29 Y44.847
X99.292 Y44.883
X99.308 Y44.94
X99.305 Y44.964
X99.294 Y44.986
X99.261 Y45.008
X99.216 Y45.005
X99.161 Y44.986
X99.074 Y44.988
X98.92 Y44.993
X98.721 Y44.986
X98.399 Y44.974
X98.115 Y44.945
X97.628 Y44.868
X97.385 Y44.85
X97.142 Y44.857
X96.901 Y44.887
X96.399 Y44.979
X95.916 Y45.04
X95.43 Y45.074
X95.007 Y45.081
X57.655 Y45.151
X51.992 Y45.161
X42.982 Y45.178
X41.102 Y45.182
X40.763 Y45.177
X40.278 Y45.148
X39.794 Y45.092
X39.458 Y45.036
X39.083 Y44.96
X38.841 Y44.931
X38.598 Y44.928
X38.356 Y44.951
X37.86 Y45.037
X37.518 Y45.073
X37.186 Y45.089
X37.089 Y45.096
X36.913 Y45.089
X36.875 Y45.091
X36.799 Y45.122
X36.764 Y45.114
X36.746 Y45.084
X36.752 Y45.054
X36.767 Y45.019
X36.77 Y44.982
X36.761 Y44.824
X36.772 Y44.608
X36.784 Y44.288
X36.817 Y43.99
X36.884 Y43.59
X36.909 Y43.348
X36.912 Y43.105
X36.894 Y42.862
X36.851 Y42.603
X36.788 Y42.275
X36.718 Y41.793
X36.675 Y41.309
X36.66 Y40.822
X36.673 Y40.336
X36.713 Y39.851
X36.781 Y39.369
X36.849 Y38.99
X36.877 Y38.699
X36.875 Y38.407
X36.852 Y38.165
X36.788 Y37.768
X36.751 Y37.409
X36.735 Y36.838
X36.745 Y36.667
X36.743 Y36.629
X36.725 Y36.57
X36.728 Y36.546
X36.74 Y36.525
X36.76 Y36.511
X36.786 Y36.505
X36.852 Y36.525
X36.939 Y36.523
X37.097 Y36.516
X37.303 Y36.522
X37.626 Y36.53
X37.988 Y36.567
X38.387 Y36.629
X38.678 Y36.653
X38.97 Y36.648
X39.26 Y36.614
X39.696 Y36.534
X40.179 Y36.471
X40.664 Y36.434
X41.203 Y36.425
X95.119 Y36.326
X95.606 Y36.339
X96.091 Y36.378
X96.573 Y36.444
X97.112 Y36.541
X97.402 Y36.569
X97.694 Y36.571
X97.985 Y36.547
X98.444 Y36.472
X98.764 Y36.439
X99.065 Y36.422
X99.162 Y36.415
X99.349 Y36.421
X99.389 Y36.418
X99.48 Y36.384
X99.504 Y36.379
X99.527 Y36.387
X99.544 Y36.404
X99.55 Y36.443
X99.529 Y36.494
X99.525 Y36.533
X99.534 Y36.693
X99.523 Y36.91
X99.509 Y37.243
X99.484 Y37.482
X99.402 Y37.975
X99.378 Y38.217
X99.375 Y38.46
X99.393 Y38.703
X99.444 Y38.994
X99.53 Y39.451
X99.593 Y39.934
X99.629 Y40.419
X99.639 Y40.905
X99.622 Y41.392
X99.577 Y41.876
X99.507 Y42.358
X99.459 Y42.642
X99.431 Y42.933
X99.425 Y43.225
X99.441 Y43.516
X99.485 Y43.838
X99.535 Y44.228
X99.553 Y44.587
X99.557 Y44.821
X99.559 Y44.984
X99.55 Y45.099
X99.552 Y45.137
X99.569 Y45.196
X99.567 Y45.22
X99.557 Y45.242
X99.524 Y45.268
X99.488 Y45.271
X99.413 Y45.246
X99.323 Y45.248
X99.162 Y45.254
X98.989 Y45.245
X98.667 Y45.238
X98.304 Y45.203
X97.79 Y45.122
X97.547 Y45.103
X97.304 Y45.106
X97.062 Y45.133
X96.601 Y45.219
X96.119 Y45.287
X95.634 Y45.33
X95.197 Y45.346
X90.334 Y45.355
X57.753 Y45.415
X52.722 Y45.425
X43.724 Y45.441
X41.102 Y45.446
X40.762 Y45.442
X40.276 Y45.414
X39.792 Y45.361
X39.36 Y45.291
X38.97 Y45.212
X38.729 Y45.182
X38.485 Y45.176
X38.243 Y45.195
X37.965 Y45.242
X37.588 Y45.303
X37.265 Y45.334
X36.964 Y45.347
X36.856 Y45.355
X36.663 Y45.347
X36.623 Y45.35
X36.543 Y45.382
X36.508 Y45.376
X36.487 Y45.347
X36.493 Y45.31
X36.511 Y45.254
X36.502 Y45.07
X36.511 Y44.897
X36.526 Y44.51
X36.563 Y44.171
X36.638 Y43.715
X36.662 Y43.424
X36.657 Y43.132
X36.623 Y42.843
X36.55 Y42.473
X36.473 Y41.993
X36.423 Y41.509
X36.398 Y41.023
X36.399 Y40.536
X36.426 Y40.05
X36.48 Y39.567
X36.55 Y39.134
X36.595 Y38.888
X36.624 Y38.597
X36.625 Y38.306
X36.6 Y38.015
X36.518 Y37.487
X36.487 Y37.12
X36.482 Y36.761
X36.475 Y36.602
X36.486 Y36.416
X36.484 Y36.375
X36.464 Y36.314
X36.466 Y36.29
X36.477 Y36.268
X36.51 Y36.246
X36.541 Y36.245
X36.599 Y36.265
X36.688 Y36.263
X36.853 Y36.255
X37.032 Y36.263
X37.405 Y36.27
X37.777 Y36.306
X38.269 Y36.381
X38.56 Y36.402
X38.852 Y36.395
X39.142 Y36.361
X39.691 Y36.263
X40.174 Y36.203
X40.659 Y36.168
X41.201 Y36.159
X95.119 Y36.061
X95.606 Y36.073
X96.091 Y36.111
X96.573 Y36.173
X97.121 Y36.272
X97.41 Y36.31
X97.702 Y36.324
X97.993 Y36.312
X98.283 Y36.276
X98.638 Y36.217
X98.967 Y36.182
X99.233 Y36.17
X99.436 Y36.155
X99.597 Y36.162
X99.639 Y36.16
X99.736 Y36.123
X99.76 Y36.118
X99.783 Y36.125
X99.801 Y36.14
X99.811 Y36.163
X99.804 Y36.201
X99.784 Y36.26
X99.793 Y36.448
X99.787 Y36.578
X99.777 Y36.875
X99.747 Y37.235
X99.674 Y37.689
X99.637 Y37.947
X99.623 Y38.239
X99.638 Y38.53
X99.674 Y38.771
X99.778 Y39.306
X99.845 Y39.788
X99.887 Y40.273
X99.904 Y40.759
X99.895 Y41.245
X99.861 Y41.731
X99.802 Y42.214
X99.729 Y42.642
X99.689 Y42.98
X99.677 Y43.32
X99.693 Y43.661
X99.729 Y43.947
X99.783 Y44.323
X99.809 Y44.662
X99.815 Y45.04
X99.821 Y45.153
X99.81 Y45.35
X99.812 Y45.39
X99.83 Y45.452
X99.819 Y45.498
X99.786 Y45.527
X99.746 Y45.533
X99.664 Y45.506
X99.572 Y45.508
X99.405 Y45.515
X99.216 Y45.505
X98.886 Y45.498
X98.542 Y45.467
X98.129 Y45.403
X97.903 Y45.369
X97.66 Y45.353
X97.417 Y45.359
X97.175 Y45.386
X96.611 Y45.49
X96.129 Y45.555
X95.644 Y45.596
X95.158 Y45.612
X53.453 Y45.688
X41.492 Y45.71
X40.76 Y45.707
X40.274 Y45.68
X39.79 Y45.63
X39.309 Y45.555
X38.857 Y45.464
X38.616 Y45.433
X38.373 Y45.424
X38.13 Y45.439
X37.797 Y45.493
X37.481 Y45.547
X37.109 Y45.588
X36.786 Y45.601
X36.579 Y45.614
X36.413 Y45.606
X36.371 Y45.609
X36.298 Y45.639
X36.275 Y45.644
X36.251 Y45.638
X36.234 Y45.622
X36.227 Y45.582
X36.249 Y45.528
X36.253 Y45.486
X36.243 Y45.316
X36.255 Y45.067
X36.267 Y44.731
X36.308 Y44.363
X36.386 Y43.889
X36.411 Y43.598
X36.409 Y43.306
X36.38 Y43.016
X36.287 Y42.528
X36.211 Y42.047
X36.16 Y41.563
X36.134 Y41.077
X36.132 Y40.591
X36.156 Y40.105
X36.203 Y39.62
X36.275 Y39.139
X36.347 Y38.738
X36.373 Y38.447
Y38.155
X36.348 Y37.864
X36.261 Y37.303
X36.229 Y36.928
X36.223 Y36.581
X36.214 Y36.367
X36.226 Y36.165
X36.224 Y36.122
X36.203 Y36.058
X36.205 Y36.034
X36.215 Y36.012
X36.248 Y35.987
X36.283 Y35.984
X36.346 Y36.005
X36.437 Y36.003
X36.609 Y35.995
X36.803 Y36.003
X37.184 Y36.01
X37.537 Y36.041
X38.103 Y36.127
X38.394 Y36.149
X38.686 Y36.146
X38.976 Y36.116
X39.541 Y36.015
X40.023 Y35.95
X40.508 Y35.91
X41.004 Y35.894
X95.119 Y35.797
X95.654 Y35.811
X96.188 Y35.854
X96.718 Y35.925
X97.274 Y36.027
X97.564 Y36.062
X97.855 Y36.074
X98.147 Y36.062
X98.437 Y36.027
X98.833 Y35.961
X99.169 Y35.925
X99.458 Y35.912
X99.672 Y35.896
X99.845 Y35.903
X99.89 Y35.901
X99.933 Y35.888
X99.992 Y35.862
X100.016 Y35.857
X100.039 Y35.863
X100.058 Y35.877
X100.07 Y35.899
X100.071 Y35.922
X100.046 Y35.985
X100.042 Y36.029
X100.052 Y36.202
X100.039 Y36.459
X100.026 Y36.799
X99.984 Y37.173
X99.9 Y37.678
X99.875 Y37.968
X99.877 Y38.26
X99.908 Y38.551
X100.017 Y39.113
X100.096 Y39.642
X100.147 Y40.175
X100.169 Y40.71
X100.161 Y41.245
X100.124 Y41.779
X100.058 Y42.31
X99.985 Y42.738
X99.944 Y43.076
X99.929 Y43.416
X99.941 Y43.756
X99.981 Y44.095
X100.035 Y44.466
X100.067 Y44.854
X100.072 Y45.172
X100.081 Y45.431
X100.069 Y45.601
X100.071 Y45.644
X100.09 Y45.707
X100.081 Y45.754
X100.048 Y45.787
X100.003 Y45.795
X99.916 Y45.766
X99.822 Y45.768
X99.648 Y45.775
X99.393 Y45.766
X99.008 Y45.752
X98.683 Y45.718
X98.065 Y45.623
X97.774 Y45.604
X97.482 Y45.616
X97.194 Y45.656
X96.669 Y45.753
X96.139 Y45.822
X95.605 Y45.864
X95.1 Y45.878
X48.786 Y45.961
X41.985 Y45.973
X40.807 Y45.972
X40.272 Y45.946
X39.74 Y45.892
X39.211 Y45.81
X38.792 Y45.725
X38.552 Y45.688
X38.309 Y45.673
X38.066 Y45.68
X37.825 Y45.709
X37.243 Y45.809
X36.905 Y45.845
X36.558 Y45.859
X36.341 Y45.873
X36.164 Y45.864
X36.119 Y45.867
X36.042 Y45.899
X36.019 Y45.905
X35.995 Y45.899
X35.977 Y45.884
X35.966 Y45.862
X35.974 Y45.823
X35.994 Y45.761
X35.986 Y45.61
Y45.465
X35.997 Y45.247
X36.012 Y44.905
X36.052 Y44.554
X36.14 Y44.014
X36.162 Y43.723
X36.159 Y43.431
X36.129 Y43.141
X36.041 Y42.678
X35.955 Y42.15
X35.898 Y41.618
X35.869 Y41.083
X35.868 Y40.548
X35.896 Y40.014
X35.952 Y39.481
X36.036 Y38.953
X36.098 Y38.587
X36.122 Y38.296
X36.121 Y38.005
X36.096 Y37.714
X36.019 Y37.227
X35.976 Y36.834
X35.962 Y36.456
X35.958 Y36.229
X35.956 Y36.044
X35.967 Y35.891
X35.949 Y35.826
X35.943 Y35.778
X35.968 Y35.738
X36.005 Y35.722
X36.05 Y35.731
X36.115 Y35.748
X36.365 Y35.734
X36.575 Y35.743
X36.962 Y35.749
X37.205 Y35.767
X37.496 Y35.803
X37.985 Y35.878
X38.276 Y35.898
X38.568 Y35.893
X38.859 Y35.863
X39.2 Y35.8
X39.729 Y35.716
X40.261 Y35.66
X40.795 Y35.631
X42.268 Y35.626
X95.119 Y35.533
X95.654 Y35.546
X96.188 Y35.586
X96.719 Y35.654
X97.15 Y35.73
X97.427 Y35.781
X97.717 Y35.814
X98.009 Y35.824
X98.301 Y35.812
X98.591 Y35.778
X99.076 Y35.699
X99.42 Y35.665
X99.732 Y35.65
X99.904 Y35.637
X100.093 Y35.645
X100.14 Y35.642
X100.185 Y35.628
X100.248 Y35.601
X100.272 Y35.596
X100.295 Y35.601
X100.315 Y35.615
X100.331 Y35.648
X100.323 Y35.688
X100.301 Y35.754
X100.309 Y35.908
Y36.054
X100.297 Y36.28
X100.281 Y36.626
X100.238 Y36.994
X100.152 Y37.505
X100.125 Y37.795
Y38.087
X100.151 Y38.378
X100.213 Y38.711
X100.297 Y39.159
X100.37 Y39.689
X100.416 Y40.223
X100.434 Y40.758
X100.424 Y41.293
X100.387 Y41.827
X100.322 Y42.358
X100.258 Y42.738
X100.208 Y43.074
X100.184 Y43.414
X100.185 Y43.755
X100.212 Y44.094
X100.281 Y44.563
X100.32 Y44.948
X100.333 Y45.293
X100.337 Y45.526
X100.339 Y45.717
X100.329 Y45.853
X100.331 Y45.897
X100.351 Y45.963
X100.343 Y46.01
X100.311 Y46.046
X100.264 Y46.057
X100.213 Y46.04
X100.167 Y46.026
X100.071 Y46.028
X99.89 Y46.036
X99.669 Y46.025
X99.324 Y46.018
X98.929 Y45.983
X98.275 Y45.882
X97.984 Y45.858
X97.692 Y45.861
X97.402 Y45.892
X96.823 Y46.
X96.293 Y46.074
X95.76 Y46.122
X95.225 Y46.143
X85.025 Y46.162
X54.244 Y46.216
X45.94 Y46.231
X43.031 Y46.236
X40.902 Y46.238
X40.367 Y46.218
X39.834 Y46.171
X39.304 Y46.098
X38.778 Y45.998
X38.488 Y45.945
X38.245 Y45.925
X38.002 Y45.924
X37.76 Y45.945
X37.252 Y46.033
X36.846 Y46.089
X36.497 Y46.113
X36.253 Y46.124
X36.059 Y46.131
X35.89 Y46.123
X35.822 Y46.142
X35.763 Y46.165
X35.739 Y46.161
X35.72 Y46.147
X35.708 Y46.126
X35.706 Y46.102
X35.732 Y46.037
X35.736 Y45.99
X35.725 Y45.807
X35.738 Y45.556
X35.747 Y45.223
X35.775 Y44.906
X35.835 Y44.51
X35.894 Y44.139
X35.913 Y43.848
X35.908 Y43.556
X35.879 Y43.266
X35.838 Y43.035
X35.736 Y42.493
X35.664 Y41.963
X35.619 Y41.43
X35.601 Y40.895
X35.609 Y40.36
X35.645 Y39.825
X35.708 Y39.294
X35.797 Y38.766
X35.85 Y38.437
X35.871 Y38.146
X35.869 Y37.854
X35.844 Y37.563
X35.753 Y36.982
X35.715 Y36.594
X35.702 Y36.233
X35.698 Y35.994
X35.696 Y35.8
X35.707 Y35.638
X35.689 Y35.57
X35.682 Y35.523
X35.705 Y35.481
X35.745 Y35.461
X35.794 Y35.47
X35.863 Y35.488
X36.12 Y35.474
X36.346 Y35.483
X36.741 Y35.489
X37.106 Y35.519
X37.626 Y35.597
X37.916 Y35.634
X38.208 Y35.647
X38.499 Y35.637
X38.789 Y35.603
X39.386 Y35.495
X39.917 Y35.424
X40.45 Y35.38
X41.001 Y35.362
X95.167 Y35.268
X95.702 Y35.283
X96.236 Y35.324
X96.767 Y35.391
X97.246 Y35.475
X97.533 Y35.528
X97.871 Y35.565
X98.211 Y35.574
X98.551 Y35.554
X98.793 Y35.521
X99.271 Y35.443
X99.622 Y35.408
X99.957 Y35.392
X100.136 Y35.378
X100.341 Y35.386
X100.39 Y35.383
X100.438 Y35.369
X100.504 Y35.34
X100.527 Y35.335
X100.551 Y35.339
X100.572 Y35.352
X100.591 Y35.386
X100.589 Y35.417
X100.563 Y35.476
X100.559 Y35.525
X100.57 Y35.711
X100.556 Y35.968
X100.546 Y36.307
X100.526 Y36.55
X100.486 Y36.85
X100.397 Y37.38
X100.374 Y37.671
X100.375 Y37.963
X100.402 Y38.254
X100.456 Y38.553
X100.545 Y39.014
X100.622 Y39.544
X100.673 Y40.076
X100.697 Y40.611
X100.695 Y41.146
X100.667 Y41.681
X100.612 Y42.213
X100.531 Y42.743
X100.483 Y43.025
X100.446 Y43.364
X100.434 Y43.704
X100.446 Y44.045
X100.482 Y44.383
X100.544 Y44.796
X100.582 Y45.189
X100.592 Y45.574
X100.597 Y45.761
X100.6 Y45.956
X100.589 Y46.104
X100.591 Y46.151
X100.612 Y46.219
X100.605 Y46.266
X100.574 Y46.303
X100.529 Y46.318
X100.491 Y46.311
X100.421 Y46.286
X100.32 Y46.287
X100.133 Y46.296
X99.896 Y46.285
X99.544 Y46.278
X99.156 Y46.246
X98.628 Y46.165
X98.292 Y46.119
X98. Y46.107
X97.709 Y46.121
X97.42 Y46.162
X96.833 Y46.271
X96.303 Y46.342
X95.77 Y46.388
X95.235 Y46.409
X86.435 Y46.425
X61.361 Y46.468
X58.198 Y46.474
X54.887 Y46.48
X44.114 Y46.498
X40.998 Y46.503
X40.463 Y46.489
X39.929 Y46.449
X39.398 Y46.383
X38.868 Y46.292
X38.471 Y46.212
X38.182 Y46.178
X37.89 Y46.172
X37.599 Y46.195
X37.022 Y46.295
X36.641 Y46.346
X36.276 Y46.371
X36.056 Y46.379
X35.874 Y46.391
X35.664 Y46.381
X35.592 Y46.391
X35.53 Y46.42
X35.507 Y46.426
X35.483 Y46.422
X35.463 Y46.409
X35.446 Y46.376
X35.454 Y46.336
X35.473 Y46.292
X35.478 Y46.243
X35.466 Y46.052
X35.479 Y45.791
X35.489 Y45.445
X35.525 Y45.057
X35.598 Y44.599
X35.647 Y44.265
X35.664 Y43.973
X35.658 Y43.681
X35.628 Y43.391
X35.564 Y43.047
X35.466 Y42.5
X35.397 Y41.969
X35.353 Y41.436
X35.336 Y40.901
X35.344 Y40.365
X35.377 Y39.831
X35.437 Y39.299
X35.522 Y38.771
X35.589 Y38.383
X35.616 Y38.093
X35.621 Y37.801
X35.603 Y37.509
X35.551 Y37.152
X35.483 Y36.693
X35.45 Y36.305
X35.442 Y35.951
X35.438 Y35.759
X35.435 Y35.565
X35.447 Y35.386
X35.428 Y35.314
X35.421 Y35.267
X35.442 Y35.224
X35.484 Y35.201
X35.533 Y35.207
X35.609 Y35.228
X35.876 Y35.213
X36.118 Y35.223
X36.472 Y35.227
X36.86 Y35.255
X37.269 Y35.311
X37.653 Y35.37
X37.944 Y35.392
X38.236
X38.527 Y35.37
X38.854 Y35.317
X39.381 Y35.224
X39.912 Y35.156
X40.446 Y35.114
X40.999 Y35.097
X95.167 Y35.004
X95.702 Y35.018
X96.236 Y35.057
X96.767 Y35.121
X97.295 Y35.21
X97.638 Y35.275
X97.976 Y35.313
X98.317 Y35.325
X98.657 Y35.309
X98.994 Y35.265
X99.466 Y35.188
X99.824 Y35.151
X100.183 Y35.134
X100.367 Y35.119
X100.495 Y35.122
X100.589 Y35.127
X100.638 Y35.125
X100.691 Y35.109
X100.759 Y35.079
X100.783 Y35.074
X100.807 Y35.077
X100.828 Y35.089
X100.85 Y35.124
X100.849 Y35.159
X100.822 Y35.22
X100.817 Y35.273
X100.829 Y35.466
X100.817 Y35.684
X100.807 Y36.037
X100.772 Y36.439
X100.707 Y36.856
X100.649 Y37.207
X100.624 Y37.498
X100.623 Y37.79
X100.646 Y38.081
X100.699 Y38.395
X100.784 Y38.821
X100.866 Y39.35
X100.924 Y39.882
X100.956 Y40.416
X100.964 Y40.951
X100.946 Y41.486
X100.903 Y42.02
X100.835 Y42.551
X100.754 Y43.025
X100.709 Y43.363
X100.688 Y43.703
X100.69 Y44.043
X100.715 Y44.383
X100.75 Y44.641
X100.809 Y45.041
X100.843 Y45.429
X100.852 Y45.8
X100.857 Y45.996
X100.86 Y46.19
X100.848 Y46.38
X100.865 Y46.451
X100.873 Y46.498
X100.855 Y46.543
X100.817 Y46.573
X100.769 Y46.579
X100.675 Y46.547
X100.618 Y46.544
X100.375 Y46.557
X100.122 Y46.545
X99.763 Y46.538
X99.375 Y46.507
X99.002 Y46.453
X98.551 Y46.383
X98.26 Y46.36
X97.968 Y46.363
X97.677 Y46.392
X97.323 Y46.457
X96.747 Y46.555
X96.167 Y46.624
X95.585 Y46.664
X94.999 Y46.676
X47.526 Y46.757
X41.591 Y46.767
X40.704 Y46.763
X40.121 Y46.732
X39.54 Y46.672
X38.963 Y46.583
X38.407 Y46.472
X38.118 Y46.432
X37.826 Y46.419
X37.534 Y46.434
X37.272 Y46.471
X36.674 Y46.574
X36.34 Y46.612
X35.983 Y46.631
X35.787 Y46.641
X35.593 Y46.65
X35.414 Y46.64
X35.366 Y46.643
X35.313 Y46.66
X35.251 Y46.686
X35.227 Y46.683
X35.206 Y46.671
X35.187 Y46.637
X35.188 Y46.607
X35.214 Y46.548
X35.219 Y46.495
X35.207 Y46.249
X35.222 Y45.985
X35.231 Y45.667
X35.268 Y45.256
X35.389 Y44.487
X35.412 Y44.196
Y43.904
X35.39 Y43.613
X35.346 Y43.324
X35.234 Y42.747
X35.151 Y42.169
X35.097 Y41.587
X35.072 Y41.004
X35.076 Y40.42
X35.11 Y39.837
X35.173 Y39.256
X35.265 Y38.68
X35.335 Y38.281
X35.366 Y37.942
X35.367 Y37.602
X35.34 Y37.262
X35.281 Y36.89
X35.225 Y36.501
X35.192 Y36.113
X35.182 Y35.786
X35.181 Y35.569
X35.173 Y35.379
X35.188 Y35.135
X35.171 Y35.065
X35.16 Y35.036
X35.166 Y34.988
X35.197 Y34.951
X35.243 Y34.938
X35.306 Y34.959
X35.385 Y34.968
X35.632 Y34.953
X35.889 Y34.963
X36.251 Y34.967
X36.639 Y34.994
X36.993 Y35.039
X37.487 Y35.116
X37.826 Y35.141
X38.167 Y35.137
X38.506 Y35.104
X38.8 Y35.052
X39.376 Y34.954
X39.956 Y34.884
X40.538 Y34.843
X41.095 Y34.831
X95.167 Y34.74
X95.751 Y34.756
X96.333 Y34.8
X96.912 Y34.873
X97.487 Y34.973
X97.839 Y35.035
X98.178 Y35.068
X98.519 Y35.074
X98.859 Y35.054
X99.196 Y35.008
X99.661 Y34.932
X100.027 Y34.895
X100.359 Y34.879
X100.599 Y34.86
X100.837 Y34.869
X100.886 Y34.867
X100.943 Y34.85
X101.015 Y34.819
X101.039 Y34.813
X101.063 Y34.816
X101.084 Y34.827
X101.109 Y34.862
Y34.901
X101.082 Y34.963
X101.076 Y35.021
X101.088 Y35.269
X101.072 Y35.541
X101.062 Y35.864
X101.028 Y36.239
X100.97 Y36.624
X100.901 Y37.034
X100.875 Y37.325
X100.871 Y37.617
X100.891 Y37.908
X100.934 Y38.197
X101.039 Y38.723
X101.129 Y39.3
X101.191 Y39.881
X101.223 Y40.464
X101.227 Y41.048
X101.203 Y41.631
X101.15 Y42.213
X101.068 Y42.791
X100.995 Y43.217
X100.952 Y43.604
X100.938 Y43.993
X100.954 Y44.382
X100.998 Y44.768
X101.058 Y45.165
X101.095 Y45.523
X101.112 Y45.963
X101.113 Y46.184
X101.122 Y46.377
X101.108 Y46.607
X101.11 Y46.655
X101.133 Y46.73
X101.128 Y46.778
X101.101 Y46.818
X101.058 Y46.839
X101.017 Y46.838
X100.928 Y46.807
X100.867 Y46.803
X100.618 Y46.817
X100.349 Y46.805
X99.982 Y46.798
X99.594 Y46.768
X99.232 Y46.718
X98.761 Y46.642
X98.47 Y46.615
X98.178 Y46.611
X97.887 Y46.632
X97.572 Y46.683
X96.998 Y46.788
X96.419 Y46.866
X95.837 Y46.917
X95.254 Y46.94
X89.645 Y46.95
X55.435 Y47.008
X42.629 Y47.03
X40.848 Y47.031
X40.265 Y47.008
X39.683 Y46.957
X39.104 Y46.879
X38.571 Y46.781
X38.246 Y46.715
X37.957 Y46.679
X37.665 Y46.668
X37.373 Y46.684
X37.057 Y46.731
X36.533 Y46.822
X36.184 Y46.865
X35.833 Y46.887
X35.602 Y46.895
X35.408 Y46.909
X35.164 Y46.899
X35.116 Y46.901
X35.059 Y46.92
X34.995 Y46.947
X34.971 Y46.944
X34.95 Y46.933
X34.928 Y46.899
Y46.865
X34.955 Y46.805
X34.961 Y46.747
X34.948 Y46.494
X34.963 Y46.215
X34.972 Y45.889
X35.006 Y45.503
X35.055 Y45.16
X35.131 Y44.708
X35.161 Y44.369
X35.162 Y44.029
X35.134 Y43.689
X35.077 Y43.359
X34.971 Y42.801
X34.889 Y42.223
X34.835 Y41.642
X34.808 Y41.058
X34.81 Y40.475
X34.839 Y39.891
X34.897 Y39.31
X34.982 Y38.733
X35.073 Y38.228
X35.11 Y37.889
X35.118 Y37.549
X35.099 Y37.209
X35.051 Y36.868
X34.982 Y36.428
X34.943 Y36.067
X34.923 Y35.63
X34.922 Y35.34
X34.913 Y35.144
X34.928 Y34.908
X34.926 Y34.86
X34.9 Y34.78
X34.904 Y34.732
X34.934 Y34.694
X34.979 Y34.678
X35.028 Y34.689
X35.074 Y34.705
X35.134 Y34.708
X35.388 Y34.693
X35.661 Y34.703
X36.03 Y34.707
X36.467 Y34.738
X36.867 Y34.791
X37.321 Y34.862
X37.66 Y34.889
X38.001 Y34.887
X38.34 Y34.858
X38.699 Y34.797
X39.274 Y34.698
X39.854 Y34.626
X40.436 Y34.582
X40.996 Y34.565
X95.167 Y34.475
X95.75 Y34.491
X96.333 Y34.533
X96.913 Y34.603
X97.489 Y34.699
X97.896 Y34.775
X98.235 Y34.813
X98.575 Y34.826
X98.916 Y34.813
X99.254 Y34.775
X99.808 Y34.683
X100.132 Y34.646
X100.474 Y34.625
X100.684 Y34.612
X100.879 Y34.601
X101.085 Y34.61
X101.134 Y34.608
X101.196 Y34.59
X101.271 Y34.558
X101.319 Y34.554
X101.358 Y34.581
X101.372 Y34.621
X101.361 Y34.662
X101.336 Y34.73
X101.342 Y34.873
X101.345 Y35.072
X101.331 Y35.312
X101.32 Y35.642
X101.285 Y36.04
X101.233 Y36.391
X101.159 Y36.813
X101.128 Y37.104
X101.119 Y37.395
X101.133 Y37.687
X101.168 Y37.977
X101.286 Y38.578
X101.379 Y39.155
X101.445 Y39.735
X101.483 Y40.318
X101.494 Y40.901
X101.477 Y41.485
X101.433 Y42.067
X101.362 Y42.647
X101.299 Y43.031
X101.244 Y43.361
X101.203 Y43.748
X101.19 Y44.137
X101.206 Y44.526
X101.249 Y44.913
X101.315 Y45.349
X101.353 Y45.715
X101.371 Y46.136
X101.373 Y46.412
X101.382 Y46.612
X101.367 Y46.858
X101.369 Y46.906
X101.393 Y46.985
X101.39 Y47.033
X101.365 Y47.074
X101.323 Y47.099
X101.277 Y47.101
X101.182 Y47.067
X101.116 Y47.063
X100.86 Y47.078
X100.575 Y47.065
X100.201 Y47.058
X99.764 Y47.023
X99.415 Y46.975
X98.874 Y46.889
X98.583 Y46.864
X98.291 Y46.863
X98. Y46.885
X97.76 Y46.922
X97.248 Y47.019
X96.67 Y47.106
X96.089 Y47.165
X95.506 Y47.199
X94.9 Y47.207
X55.678 Y47.272
X42.982 Y47.294
X40.895 Y47.296
X40.311 Y47.276
X39.729 Y47.23
X39.15 Y47.157
X38.565 Y47.055
X38.086 Y46.959
X37.796 Y46.926
X37.504 Y46.917
X37.212 Y46.934
X37.019 Y46.959
X36.41 Y47.067
X36.112 Y47.108
X35.786 Y47.137
X35.423 Y47.15
X35.175 Y47.168
X34.915 Y47.157
X34.866 Y47.16
X34.805 Y47.179
X34.739 Y47.207
X34.715 Y47.205
X34.693 Y47.195
X34.669 Y47.16
X34.668 Y47.123
X34.696 Y47.061
X34.702 Y46.999
X34.689 Y46.74
X34.705 Y46.444
X34.714 Y46.111
X34.742 Y45.771
X34.79 Y45.415
X34.872 Y44.93
X34.908 Y44.591
X34.915 Y44.251
X34.894 Y43.911
X34.845 Y43.574
X34.724 Y42.952
X34.639 Y42.374
X34.58 Y41.793
X34.547 Y41.21
X34.542 Y40.626
X34.563 Y40.043
X34.611 Y39.461
X34.686 Y38.882
X34.781 Y38.337
X34.832 Y38.029
X34.862 Y37.69
X34.865 Y37.349
X34.841 Y37.01
X34.773 Y36.559
X34.719 Y36.195
X34.682 Y35.827
X34.663 Y35.39
X34.662 Y35.111
X34.653 Y34.909
X34.668 Y34.657
X34.667 Y34.609
X34.639 Y34.524
X34.643 Y34.476
X34.67 Y34.437
X34.714 Y34.417
X34.767 Y34.425
X34.819 Y34.444
X34.884 Y34.449
X35.144 Y34.432
X35.433 Y34.443
X35.809 Y34.447
X36.246 Y34.477
X36.625 Y34.525
X37.106 Y34.601
X37.446 Y34.633
X37.786 Y34.638
X38.126 Y34.616
X38.463 Y34.568
X39.077 Y34.456
X39.655 Y34.379
X40.237 Y34.327
X40.821 Y34.302
X43.67 Y34.295
X95.167 Y34.211
X95.75 Y34.226
X96.333 Y34.267
X96.913 Y34.333
X97.489 Y34.426
X98.002 Y34.522
X98.34 Y34.561
X98.68 Y34.576
X99.021 Y34.566
X99.36 Y34.532
X99.912 Y34.44
X100.237 Y34.398
X100.566 Y34.373
X100.858 Y34.36
X101.061 Y34.343
X101.333 Y34.352
X101.382 Y34.35
X101.449 Y34.331
X101.527 Y34.297
X101.574 Y34.293
X101.615 Y34.318
X101.632 Y34.361
X101.62 Y34.406
X101.595 Y34.474
X101.596 Y34.565
X101.605 Y34.778
X101.59 Y35.026
X101.581 Y35.372
X101.55 Y35.76
X101.507 Y36.086
X101.411 Y36.64
X101.376 Y36.979
X101.37 Y37.32
X101.392 Y37.66
X101.444 Y37.996
X101.576 Y38.673
X101.661 Y39.25
X101.72 Y39.831
X101.752 Y40.414
X101.758 Y40.998
X101.738 Y41.582
X101.691 Y42.164
X101.618 Y42.743
X101.555 Y43.127
X101.499 Y43.456
X101.458 Y43.843
X101.443 Y44.232
X101.455 Y44.621
X101.493 Y45.009
X101.565 Y45.485
X101.607 Y45.858
X101.63 Y46.295
X101.633 Y46.641
X101.643 Y46.847
X101.627 Y47.109
X101.628 Y47.158
X101.653 Y47.241
X101.651 Y47.289
X101.628 Y47.331
X101.587 Y47.358
X101.537 Y47.363
X101.436 Y47.328
X101.365 Y47.323
X101.103 Y47.338
X100.862 Y47.325
X100.469 Y47.32
X100.032 Y47.289
X99.693 Y47.247
X99.036 Y47.142
X98.745 Y47.117
X98.453 Y47.114
X98.162 Y47.133
X97.873 Y47.175
X97.21 Y47.298
X96.631 Y47.38
X96.05 Y47.435
X95.467 Y47.466
X94.899 Y47.473
X61.361 Y47.528
X55.826 Y47.537
X46.535 Y47.552
X44.211 Y47.556
X41.59 Y47.56
X40.699 Y47.557
X40.115 Y47.529
X39.534 Y47.476
X38.955 Y47.397
X38.417 Y47.3
X37.973 Y47.211
X37.683 Y47.176
X37.391 Y47.166
X37.1 Y47.18
X36.81 Y47.217
X36.293 Y47.31
X35.964 Y47.358
X35.678 Y47.387
X35.391 Y47.403
X35.147 Y47.411
X34.942 Y47.427
X34.665 Y47.416
X34.616 Y47.418
X34.551 Y47.439
X34.483 Y47.468
X34.459 Y47.466
X34.437 Y47.457
X34.41 Y47.422
X34.408 Y47.381
X34.437 Y47.318
X34.444 Y47.251
X34.43 Y46.985
X34.445 Y46.734
X34.454 Y46.381
X34.483 Y45.993
X34.527 Y45.654
X34.613 Y45.152
X34.653 Y44.814
X34.666 Y44.473
X34.652 Y44.133
X34.612 Y43.795
X34.487 Y43.15
X34.395 Y42.574
X34.33 Y41.993
X34.29 Y41.411
X34.276 Y40.827
X34.287 Y40.243
X34.325 Y39.66
X34.388 Y39.08
X34.476 Y38.503
X34.564 Y38.024
X34.603 Y37.685
X34.616 Y37.345
X34.603 Y37.005
X34.564 Y36.666
X34.474 Y36.107
X34.436 Y35.781
X34.407 Y35.344
X34.404 Y34.931
X34.392 Y34.674
X34.409 Y34.406
X34.407 Y34.358
X34.379 Y34.269
X34.381 Y34.221
X34.407 Y34.18
X34.45 Y34.158
X34.493
X34.564 Y34.184
X34.633 Y34.189
X34.9 Y34.172
X35.142 Y34.183
X35.588 Y34.187
X36.025 Y34.216
X36.394 Y34.261
X36.94 Y34.347
X37.279 Y34.38
X37.62 Y34.387
X37.96 Y34.368
X38.298 Y34.324
X38.879 Y34.216
X39.457 Y34.133
X40.038 Y34.075
X40.621 Y34.042
X41.381 Y34.034
X95.166 Y33.946
X95.799 Y33.963
X96.43 Y34.009
X97.058 Y34.084
X97.682 Y34.189
X98.107 Y34.269
X98.445 Y34.309
X98.785 Y34.326
X99.126 Y34.319
X99.465 Y34.289
X99.942 Y34.212
X100.294 Y34.159
X100.731 Y34.118
X101.035 Y34.105
X101.293 Y34.084
X101.518 Y34.089
X101.63 Y34.091
X101.701 Y34.072
X101.782 Y34.036
X101.83 Y34.032
X101.872 Y34.056
X101.891 Y34.099
X101.882 Y34.146
X101.854 Y34.217
Y34.314
X101.864 Y34.533
X101.849 Y34.79
X101.839 Y35.15
X101.804 Y35.587
X101.762 Y35.895
X101.663 Y36.468
X101.627 Y36.806
X101.619 Y37.147
X101.638 Y37.487
X101.685 Y37.824
X101.806 Y38.431
X101.898 Y39.008
X101.965 Y39.588
X102.007 Y40.171
X102.024 Y40.754
X102.015 Y41.338
X101.981 Y41.921
X101.921 Y42.502
X101.836 Y43.08
X101.762 Y43.504
X101.716 Y43.891
X101.696 Y44.279
X101.701 Y44.668
X101.732 Y45.057
X101.779 Y45.382
X101.829 Y45.718
X101.865 Y46.049
X101.889 Y46.487
X101.89 Y46.821
X101.903 Y47.081
X101.892 Y47.281
X101.886 Y47.36
X101.888 Y47.409
X101.914 Y47.496
X101.912 Y47.545
X101.89 Y47.587
X101.852 Y47.616
X101.796 Y47.624
X101.736 Y47.603
X101.69 Y47.588
X101.614 Y47.583
X101.345 Y47.598
X101.095 Y47.585
X100.688 Y47.58
X100.251 Y47.55
X99.959 Y47.515
X99.294 Y47.409
X98.956 Y47.372
X98.615 Y47.364
X98.275 Y47.386
X97.938 Y47.437
X97.316 Y47.553
X96.689 Y47.642
X96.06 Y47.702
X95.428 Y47.733
X94.897 Y47.738
X61.361 Y47.793
X55.826 Y47.802
X44.359 Y47.82
X41.985 Y47.824
X40.745 Y47.822
X40.113 Y47.794
X39.483 Y47.738
X38.857 Y47.652
X38.316 Y47.554
X37.86 Y47.463
X37.571 Y47.427
X37.279 Y47.415
X36.987 Y47.425
X36.697 Y47.459
X36.032 Y47.577
X35.718 Y47.62
X35.28 Y47.656
X34.92 Y47.669
X34.708 Y47.685
X34.481 Y47.678
X34.367 Y47.676
X34.296 Y47.698
X34.227 Y47.728
X34.18 Y47.718
X34.151 Y47.683
X34.148 Y47.639
X34.177 Y47.574
X34.186 Y47.503
X34.171 Y47.231
X34.187 Y46.969
X34.195 Y46.603
X34.229 Y46.166
X34.279 Y45.797
X34.368 Y45.277
X34.405 Y44.939
X34.416 Y44.598
X34.402 Y44.258
X34.361 Y43.92
X34.241 Y43.301
X34.14 Y42.676
X34.068 Y42.048
X34.025 Y41.417
X34.011 Y40.784
X34.026 Y40.152
X34.07 Y39.521
X34.143 Y38.892
X34.246 Y38.268
X34.309 Y37.922
X34.349 Y37.583
X34.364 Y37.243
X34.354 Y36.903
X34.32 Y36.564
X34.22 Y35.94
X34.178 Y35.589
X34.149 Y35.152
X34.144 Y34.751
X34.135 Y34.536
X34.136 Y34.332
X34.149 Y34.155
X34.148 Y34.107
X34.126 Y34.036
X34.116 Y33.989
X34.129 Y33.943
X34.163 Y33.909
X34.209 Y33.895
X34.263 Y33.908
X34.309 Y33.924
X34.382 Y33.93
X34.655 Y33.912
X34.907 Y33.923
X35.318 Y33.925
X35.755 Y33.95
X36.054 Y33.982
X36.431 Y34.038
X36.871 Y34.105
X37.21 Y34.132
X37.551 Y34.134
X37.891 Y34.111
X38.228 Y34.063
X38.874 Y33.945
X39.501 Y33.859
X40.131 Y33.801
X40.763 Y33.772
X42.548 Y33.766
X95.166 Y33.682
X95.799 Y33.698
X96.43 Y33.742
X97.058 Y33.815
X97.683 Y33.916
X98.212 Y34.015
X98.599 Y34.06
X98.988 Y34.076
X99.377 Y34.063
X99.764 Y34.02
X100.287 Y33.931
X100.594 Y33.891
X101. Y33.857
X101.308 Y33.844
X101.524 Y33.825
X101.713 Y33.828
X101.878 Y33.833
X101.954 Y33.812
X102.038 Y33.776
X102.086 Y33.77
X102.128 Y33.793
X102.15 Y33.835
X102.145 Y33.883
X102.119 Y33.937
X102.109 Y33.985
X102.123 Y34.238
X102.12 Y34.384
X102.105 Y34.624
X102.097 Y34.929
X102.063 Y35.365
X102.01 Y35.751
X101.915 Y36.295
X101.878 Y36.633
X101.868 Y36.974
X101.884 Y37.314
X101.927 Y37.652
X102.057 Y38.31
X102.162 Y38.957
X102.233 Y39.585
X102.276 Y40.216
X102.29 Y40.816
X102.277 Y41.449
X102.235 Y42.08
X102.164 Y42.709
X102.078 Y43.257
X102.004 Y43.696
X101.963 Y44.083
X101.947 Y44.472
X101.956 Y44.861
X101.99 Y45.249
X102.058 Y45.706
X102.103 Y46.047
X102.14 Y46.484
X102.151 Y46.856
X102.152 Y47.098
X102.163 Y47.316
X102.152 Y47.526
X102.146 Y47.611
X102.147 Y47.66
X102.174 Y47.752
Y47.8
X102.153 Y47.844
X102.116 Y47.874
X102.075 Y47.886
X102.02 Y47.877
X101.943 Y47.848
X101.863 Y47.842
X101.636 Y47.858
X101.49 Y47.856
X101.327 Y47.845
X100.907 Y47.839
X100.47 Y47.811
X100.148 Y47.773
X99.577 Y47.682
X99.263 Y47.637
X98.923 Y47.616
X98.582 Y47.622
X98.244 Y47.657
X97.853 Y47.73
X97.23 Y47.839
X96.602 Y47.92
X95.972 Y47.974
X95.34 Y48.
X92.706 Y48.007
X61.361 Y48.057
X56.049 Y48.066
X42.776 Y48.087
X40.841 Y48.088
X40.209 Y48.066
X39.578 Y48.015
X38.95 Y47.937
X38.327 Y47.831
X37.748 Y47.715
X37.458 Y47.678
X37.167 Y47.664
X36.875 Y47.672
X36.584 Y47.702
X35.929 Y47.818
X35.57 Y47.87
X35.124 Y47.911
X34.791 Y47.923
X34.572 Y47.939
X34.427 Y47.945
X34.165 Y47.933
X34.117 Y47.935
X34.042 Y47.958
X33.971 Y47.989
X33.924 Y47.98
X33.892 Y47.945
X33.888 Y47.897
X33.918 Y47.831
X33.927 Y47.783
X33.913 Y47.525
X33.915 Y47.379
X33.928 Y47.205
X33.937 Y46.825
X33.97 Y46.388
X34.023 Y45.989
X34.115 Y45.451
X34.153 Y45.112
X34.167 Y44.772
X34.155 Y44.432
X34.118 Y44.093
X34.054 Y43.743
X33.973 Y43.329
X33.875 Y42.718
X33.803 Y42.09
X33.759 Y41.459
X33.744 Y40.83
X33.757 Y40.197
X33.798 Y39.566
X33.867 Y38.937
X33.959 Y38.338
X34.062 Y37.772
X34.099 Y37.433
X34.113 Y37.093
X34.102 Y36.752
X34.068 Y36.413
X33.975 Y35.841
X33.925 Y35.446
X33.892 Y35.009
X33.884 Y34.594
X33.883 Y34.425
X33.872 Y34.204
X33.883 Y33.991
X33.89 Y33.904
X33.889 Y33.855
X33.866 Y33.781
X33.855 Y33.734
X33.867 Y33.687
X33.9 Y33.651
X33.945 Y33.634
X34. Y33.644
X34.053 Y33.664
X34.131 Y33.67
X34.363 Y33.653
X34.509 Y33.654
X34.673 Y33.663
X35.097 Y33.665
X35.535 Y33.69
X35.978 Y33.74
X36.56 Y33.832
X36.899 Y33.87
X37.239 Y33.884
X37.579 Y33.875
X37.918 Y33.841
X38.294 Y33.775
X38.917 Y33.667
X39.544 Y33.585
X40.175 Y33.532
X40.807 Y33.506
X43.762 Y33.499
X95.166 Y33.418
X95.799 Y33.433
X96.43 Y33.476
X97.059 Y33.546
X97.684 Y33.643
X98.317 Y33.762
X98.704 Y33.808
X99.093 Y33.826
X99.482 Y33.816
X99.869 Y33.778
X100.201 Y33.723
X100.587 Y33.66
X101.038 Y33.611
X101.365 Y33.593
X101.534 Y33.586
X101.755 Y33.567
X102.006 Y33.572
X102.126 Y33.574
X102.207 Y33.553
X102.294 Y33.515
X102.342 Y33.509
X102.385 Y33.53
X102.409 Y33.572
X102.407 Y33.619
X102.378 Y33.68
X102.368 Y33.728
X102.382 Y33.993
X102.379 Y34.139
X102.365 Y34.319
X102.357 Y34.658
X102.326 Y35.095
X102.265 Y35.56
X102.175 Y36.074
X102.133 Y36.412
X102.117 Y36.752
X102.127 Y37.093
X102.162 Y37.431
X102.236 Y37.83
X102.338 Y38.36
X102.422 Y38.886
X102.494 Y39.515
X102.538 Y40.146
X102.554 Y40.706
X102.546 Y41.339
X102.511 Y41.97
X102.447 Y42.6
X102.356 Y43.226
X102.267 Y43.744
X102.222 Y44.13
X102.201 Y44.519
X102.204 Y44.908
X102.231 Y45.297
X102.289 Y45.729
X102.348 Y46.135
X102.392 Y46.578
X102.41 Y47.021
X102.411 Y47.327
X102.423 Y47.551
X102.412 Y47.77
X102.405 Y47.863
X102.406 Y47.911
X102.427 Y47.984
X102.437 Y48.031
X102.427 Y48.079
X102.399 Y48.118
X102.357 Y48.142
X102.316 Y48.148
X102.243 Y48.124
X102.197 Y48.109
X102.112 Y48.102
X101.879 Y48.118
X101.733 Y48.117
X101.56 Y48.105
X101.174 Y48.101
X100.737 Y48.075
X100.289 Y48.024
X99.618 Y47.915
X99.279 Y47.877
X98.939 Y47.866
X98.599 Y47.882
X98.261 Y47.925
X97.528 Y48.063
X96.902 Y48.154
X96.273 Y48.219
X95.641 Y48.257
X94.992 Y48.269
X61.361 Y48.322
X56.439 Y48.33
X53.951 Y48.334
X50.685 Y48.339
X43.42 Y48.35
X40.985 Y48.354
X40.353 Y48.338
X39.722 Y48.296
X39.093 Y48.226
X38.468 Y48.13
X37.779 Y47.993
X37.442 Y47.939
X37.103 Y47.914
X36.762 Y47.918
X36.423 Y47.952
X35.746 Y48.072
X35.421 Y48.12
X34.968 Y48.165
X34.636 Y48.18
X34.466 Y48.185
X34.242 Y48.203
X33.99 Y48.196
X33.867 Y48.193
X33.788 Y48.217
X33.715 Y48.249
X33.668 Y48.241
X33.634 Y48.207
X33.627 Y48.16
X33.659 Y48.087
X33.669 Y48.04
X33.654 Y47.77
X33.659 Y47.581
X33.67 Y47.44
X33.677 Y47.095
X33.706 Y46.658
X33.76 Y46.228
X33.87 Y45.576
X33.906 Y45.237
X33.917 Y44.897
X33.904 Y44.557
X33.868 Y44.218
X33.791 Y43.803
X33.726 Y43.471
X33.634 Y42.92
X33.557 Y42.306
X33.505 Y41.675
X33.481 Y41.037
X33.484 Y40.404
X33.515 Y39.773
X33.573 Y39.143
X33.658 Y38.516
X33.792 Y37.766
X33.837 Y37.428
X33.859 Y37.088
X33.858 Y36.748
X33.834 Y36.408
X33.802 Y36.167
X33.72 Y35.664
X33.672 Y35.303
X33.636 Y34.866
X33.624 Y34.446
Y34.197
X33.612 Y33.969
X33.623 Y33.746
X33.63 Y33.653
X33.629 Y33.604
X33.606 Y33.525
X33.594 Y33.478
X33.605 Y33.431
X33.636 Y33.394
X33.68 Y33.375
X33.713 Y33.374
X33.798 Y33.404
X33.881 Y33.411
X34.119 Y33.393
X34.265
X34.438 Y33.403
X34.828 Y33.404
X35.265 Y33.425
X35.672 Y33.467
X36.029 Y33.519
X36.539 Y33.598
X36.878 Y33.626
X37.219 Y33.632
X37.559 Y33.615
X37.897 Y33.574
X38.384 Y33.484
X39.008 Y33.382
X39.636 Y33.308
X40.267 Y33.26
X40.899 Y33.239
X53.64 Y33.218
X95.166 Y33.153
X95.799 Y33.168
X96.43 Y33.21
X97.059 Y33.277
X97.685 Y33.371
X98.423 Y33.508
X98.809 Y33.556
X99.198 Y33.576
X99.587 Y33.569
X99.975 Y33.535
X100.379 Y33.471
X100.758 Y33.408
X101.192 Y33.358
X101.587 Y33.335
X101.759 Y33.328
X101.986 Y33.308
X102.25 Y33.313
X102.374 Y33.316
X102.459 Y33.293
X102.573 Y33.248
X102.621 Y33.255
X102.657 Y33.286
X102.671 Y33.332
X102.658 Y33.38
X102.637 Y33.424
X102.627 Y33.471
X102.636 Y33.646
X102.64 Y33.845
X102.624 Y34.084
X102.613 Y34.485
X102.58 Y34.922
X102.528 Y35.321
X102.412 Y35.997
X102.377 Y36.336
X102.366 Y36.677
X102.381 Y37.017
X102.42 Y37.355
X102.479 Y37.672
X102.577 Y38.169
X102.662 Y38.68
X102.74 Y39.298
X102.792 Y39.929
X102.817 Y40.547
X102.816 Y41.18
X102.788 Y41.812
X102.734 Y42.442
X102.653 Y43.07
X102.563 Y43.599
X102.497 Y44.032
X102.46 Y44.469
X102.452 Y44.906
X102.474 Y45.344
X102.524 Y45.779
X102.593 Y46.223
X102.642 Y46.673
X102.668 Y47.158
X102.671 Y47.555
X102.683 Y47.786
X102.676 Y47.966
X102.665 Y48.114
Y48.162
X102.687 Y48.24
X102.698 Y48.287
X102.689 Y48.334
X102.662 Y48.375
X102.621 Y48.401
X102.576 Y48.409
X102.53 Y48.399
X102.451 Y48.369
X102.361 Y48.362
X102.121 Y48.378
X101.975 Y48.377
X101.793 Y48.365
X101.393 Y48.36
X100.956 Y48.336
X100.574 Y48.294
X99.731 Y48.161
X99.392 Y48.126
X99.052 Y48.117
X98.712 Y48.135
X98.374 Y48.178
X97.73 Y48.301
X97.105 Y48.397
X96.476 Y48.468
X95.845 Y48.514
X95.213 Y48.533
X76.352 Y48.563
X61.361 Y48.587
X56.731 Y48.594
X54.243 Y48.598
X51.432 Y48.602
X47.917 Y48.608
X45.598 Y48.612
X41.59 Y48.618
X40.643 Y48.613
X40.011 Y48.584
X39.381 Y48.529
X38.753 Y48.448
X38.13 Y48.341
X37.523 Y48.218
X37.185 Y48.175
X36.844 Y48.161
X36.504 Y48.175
X36.166 Y48.217
X35.444 Y48.345
X34.958 Y48.406
X34.506 Y48.436
X34.239 Y48.443
X34.009 Y48.462
X33.745 Y48.455
X33.617 Y48.451
X33.57 Y48.462
X33.483 Y48.502
X33.435 Y48.51
X33.392 Y48.489
X33.368 Y48.448
X33.372 Y48.4
X33.399 Y48.344
X33.41 Y48.296
X33.4 Y48.119
X33.395 Y47.918
X33.411 Y47.676
X33.419 Y47.317
X33.448 Y46.88
X33.495 Y46.485
X33.618 Y45.75
X33.654 Y45.411
X33.667 Y45.071
X33.657 Y44.73
X33.624 Y44.391
X33.567 Y44.055
X33.453 Y43.47
X33.382 Y43.047
X33.302 Y42.425
X33.247 Y41.795
X33.219 Y41.196
X33.216 Y40.563
X33.239 Y39.931
X33.288 Y39.3
X33.364 Y38.672
X33.463 Y38.062
X33.553 Y37.568
X33.596 Y37.181
X33.61 Y36.792
X33.595 Y36.403
X33.551 Y36.016
X33.44 Y35.321
X33.391 Y34.869
X33.366 Y34.383
X33.364 Y33.968
X33.352 Y33.685
X33.371 Y33.402
X33.37 Y33.353
X33.36 Y33.306
X33.337 Y33.247
X33.336 Y33.198
X33.356 Y33.155
X33.393 Y33.124
X33.435 Y33.112
X33.489 Y33.123
X33.543 Y33.143
X33.591 Y33.151
X33.875 Y33.133
X34.021
X34.247 Y33.144
X34.656 Y33.146
X35.141 Y33.173
X35.611 Y33.226
X36.325 Y33.338
X36.712 Y33.373
X37.101 Y33.38
X37.49 Y33.358
X37.876 Y33.306
X38.618 Y33.17
X39.244 Y33.082
X39.874 Y33.02
X40.505 Y32.983
X41.18 Y32.972
X95.166 Y32.889
X95.799 Y32.903
X96.43 Y32.943
X97.059 Y33.009
X97.685 Y33.099
X98.384 Y33.23
X98.769 Y33.289
X99.157 Y33.321
X99.546 Y33.326
X99.935 Y33.305
X100.321 Y33.258
X100.977 Y33.149
X101.443 Y33.098
X101.81 Y33.077
X102.028 Y33.066
X102.266 Y33.048
X102.573 Y33.059
X102.622 Y33.058
X102.712 Y33.034
X102.829 Y32.987
X102.876 Y32.993
X102.914 Y33.023
X102.931 Y33.068
X102.925 Y33.108
X102.896 Y33.167
X102.885 Y33.215
X102.891 Y33.354
X102.899 Y33.6
X102.881 Y33.892
X102.869 Y34.312
X102.834 Y34.749
X102.79 Y35.082
X102.671 Y35.776
X102.631 Y36.115
X102.616 Y36.455
X102.624 Y36.795
X102.657 Y37.134
X102.713 Y37.47
X102.825 Y38.027
X102.906 Y38.505
X102.99 Y39.131
X103.047 Y39.761
X103.077 Y40.344
X103.085 Y40.827
X103.072 Y41.459
X103.034 Y42.091
X102.97 Y42.72
X102.88 Y43.346
X102.779 Y43.935
X102.728 Y44.37
X102.705 Y44.807
X102.71 Y45.245
X102.744 Y45.682
X102.809 Y46.142
X102.882 Y46.67
X102.92 Y47.155
X102.93 Y47.526
Y47.784
X102.943 Y48.069
X102.924 Y48.365
X102.925 Y48.413
X102.947 Y48.495
X102.958 Y48.542
X102.95 Y48.59
X102.925 Y48.631
X102.886 Y48.659
X102.838 Y48.67
X102.785 Y48.66
X102.704 Y48.629
X102.656 Y48.621
X102.464 Y48.632
X102.266 Y48.639
X101.98 Y48.623
X101.612 Y48.62
X101.126 Y48.592
X100.619 Y48.532
X99.845 Y48.408
X99.505 Y48.376
X99.165 Y48.369
X98.825 Y48.387
X98.487 Y48.431
X97.74 Y48.572
X97.066 Y48.672
X96.388 Y48.743
X95.709 Y48.786
X95.039 Y48.8
X61.361 Y48.852
X57.023 Y48.858
X51.871 Y48.866
X48.313 Y48.872
X46.097 Y48.875
X44.358 Y48.878
X41.986 Y48.881
X40.738 Y48.88
X40.058 Y48.853
X39.379 Y48.796
X38.703 Y48.71
X38.031 Y48.596
X37.41 Y48.47
X37.072 Y48.426
X36.732 Y48.41
X36.392 Y48.421
X36.053 Y48.459
X35.334 Y48.587
X34.834 Y48.655
X34.414 Y48.688
X34.012 Y48.702
X33.727 Y48.722
X33.416 Y48.708
X33.368 Y48.71
X33.32 Y48.72
X33.227 Y48.762
X33.179 Y48.771
X33.135 Y48.751
X33.11 Y48.711
Y48.663
X33.14 Y48.6
X33.151 Y48.553
X33.145 Y48.414
X33.136 Y48.164
X33.155 Y47.866
X33.163 Y47.49
X33.194 Y47.053
X33.257 Y46.563
X33.372 Y45.875
X33.409 Y45.487
X33.417 Y45.098
X33.395 Y44.71
X33.344 Y44.324
X33.214 Y43.66
X33.102 Y42.978
X33.026 Y42.35
X32.976 Y41.72
X32.951 Y41.063
X32.954 Y40.43
X32.981 Y39.798
X33.034 Y39.168
X33.112 Y38.54
X33.215 Y37.924
X33.298 Y37.466
X33.342 Y37.079
X33.358 Y36.69
X33.346 Y36.301
X33.306 Y35.914
X33.19 Y35.184
X33.137 Y34.726
X33.109 Y34.24
X33.105 Y33.916
X33.102 Y33.692
X33.092 Y33.451
X33.111 Y33.151
Y33.102
X33.101 Y33.055
X33.076 Y32.991
X33.075 Y32.943
X33.094 Y32.899
X33.13 Y32.866
X33.172 Y32.852
X33.214 Y32.855
X33.288 Y32.883
X33.336 Y32.892
X33.525 Y32.88
X33.728 Y32.871
X34.016 Y32.885
X34.435 Y32.886
X34.921 Y32.912
X35.427 Y32.969
X36.159 Y33.084
X36.546 Y33.12
X36.935 Y33.129
X37.324 Y33.109
X37.71 Y33.061
X38.469 Y32.923
X39.143 Y32.825
X39.821 Y32.757
X40.501 Y32.717
X41.178 Y32.707
X95.166 Y32.625
X95.847 Y32.641
X96.527 Y32.685
X97.204 Y32.759
X97.878 Y32.86
X98.585 Y32.994
X98.971 Y33.046
X99.359 Y33.074
X99.748 Y33.075
X100.137 Y33.051
X100.523 Y33.002
X101.172 Y32.894
X101.645 Y32.841
X102.032 Y32.819
X102.256 Y32.808
X102.498 Y32.789
X102.821 Y32.8
X102.87 Y32.799
X102.918 Y32.791
X103.061 Y32.733
X103.109 Y32.725
X103.153 Y32.743
X103.183 Y32.781
X103.191 Y32.828
X103.177 Y32.867
X103.156 Y32.911
X103.144 Y32.958
X103.146 Y33.054
X103.159 Y33.305
X103.144 Y33.564
X103.137 Y33.786
X103.118 Y34.236
X103.072 Y34.696
X102.994 Y35.196
X102.916 Y35.652
X102.879 Y35.99
X102.865 Y36.331
X102.874 Y36.671
X102.907 Y37.01
X102.963 Y37.346
X103.089 Y37.98
X103.195 Y38.626
X103.275 Y39.302
X103.327 Y39.982
X103.348 Y40.619
X103.343 Y41.301
X103.309 Y41.981
X103.246 Y42.659
X103.154 Y43.334
X103.058 Y43.887
X102.997 Y44.32
X102.963 Y44.757
X102.956 Y45.195
X102.977 Y45.632
X103.026 Y46.067
X103.113 Y46.64
X103.162 Y47.104
X103.187 Y47.59
X103.188 Y47.964
X103.203 Y48.256
X103.192 Y48.503
X103.184 Y48.664
X103.193 Y48.712
X103.215 Y48.774
X103.217 Y48.822
X103.202 Y48.868
X103.17 Y48.904
X103.127 Y48.926
X103.079 Y48.931
X103.004 Y48.905
X102.958 Y48.889
X102.91 Y48.881
X102.761 Y48.888
X102.508 Y48.899
X102.21 Y48.883
X101.831 Y48.88
X101.345 Y48.852
X100.856 Y48.796
X100.006 Y48.661
X99.667 Y48.628
X99.327 Y48.62
X98.987 Y48.636
X98.648 Y48.676
X98.324 Y48.738
X97.654 Y48.858
X96.979 Y48.952
X96.301 Y49.017
X95.621 Y49.055
X94.892 Y49.065
X56.536 Y49.124
X54.243 Y49.127
X51.773 Y49.131
X45.94 Y49.14
X44.358 Y49.142
X41.986 Y49.146
X40.736 Y49.144
X40.056 Y49.118
X39.377 Y49.063
X38.7 Y48.98
X38.028 Y48.869
X37.393 Y48.739
X37.057 Y48.687
X36.717 Y48.662
X36.376
X36.037 Y48.69
X35.766 Y48.731
X35.152 Y48.841
X34.637 Y48.911
X34.21 Y48.945
X33.834 Y48.957
X33.542 Y48.979
X33.303 Y48.976
X33.166 Y48.967
X33.118 Y48.968
X33.07 Y48.978
X32.971 Y49.023
X32.923 Y49.031
X32.879 Y49.013
X32.851 Y48.974
X32.849 Y48.926
X32.881 Y48.857
X32.892 Y48.81
X32.887 Y48.666
X32.877 Y48.409
X32.896 Y48.098
X32.905 Y47.711
X32.94 Y47.226
X33.002 Y46.754
X33.113 Y46.097
X33.155 Y45.71
X33.168 Y45.321
X33.153 Y44.932
X33.109 Y44.545
X33.022 Y44.079
X32.916 Y43.515
X32.829 Y42.953
X32.752 Y42.276
X32.704 Y41.596
X32.687 Y41.075
X32.689 Y40.394
X32.721 Y39.713
X32.781 Y39.035
X32.869 Y38.359
X32.985 Y37.69
X33.044 Y37.364
X33.089 Y36.977
X33.107 Y36.588
X33.097 Y36.199
X33.061 Y35.812
X32.979 Y35.302
X32.914 Y34.855
X32.868 Y34.389
X32.846 Y33.903
X32.845 Y33.511
X32.832 Y33.216
X32.852 Y32.9
Y32.851
X32.842 Y32.804
X32.816 Y32.736
X32.814 Y32.688
X32.831 Y32.643
X32.866 Y32.609
X32.91 Y32.592
X32.957 Y32.594
X33.032 Y32.623
X33.08 Y32.632
X33.484 Y32.611
X33.783 Y32.625
X34.165
X34.651 Y32.648
X35.098 Y32.693
X35.738 Y32.79
X36.089 Y32.842
X36.477 Y32.872
X36.867 Y32.876
X37.255 Y32.852
X37.641 Y32.801
X38.319 Y32.675
X38.993 Y32.575
X39.671 Y32.502
X40.35 Y32.458
X41.03 Y32.442
X95.166 Y32.36
X95.847 Y32.376
X96.527 Y32.419
X97.205 Y32.49
X97.879 Y32.589
X98.476 Y32.7
X98.883 Y32.77
X99.27 Y32.811
X99.659 Y32.828
X100.048 Y32.819
X100.436 Y32.786
X100.725 Y32.745
X101.272 Y32.652
X101.75 Y32.593
X102.087 Y32.568
X102.434 Y32.554
X102.729 Y32.53
X103.029 Y32.539
X103.118 Y32.541
X103.166 Y32.532
X103.317 Y32.472
X103.364 Y32.464
X103.41 Y32.481
X103.441 Y32.517
X103.451 Y32.564
X103.437 Y32.611
X103.415 Y32.655
X103.403 Y32.702
X103.405 Y32.802
X103.418 Y33.06
X103.407 Y33.28
X103.396 Y33.477
X103.388 Y33.82
X103.351 Y34.306
X103.286 Y34.796
X103.175 Y35.431
X103.134 Y35.769
X103.115 Y36.109
X103.119 Y36.45
X103.146 Y36.789
X103.195 Y37.126
X103.337 Y37.837
X103.445 Y38.492
X103.521 Y39.086
X103.58 Y39.765
X103.609 Y40.412
X103.613 Y41.093
X103.588 Y41.774
X103.536 Y42.453
X103.455 Y43.13
X103.346 Y43.803
X103.283 Y44.174
X103.233 Y44.61
X103.21 Y45.047
X103.213 Y45.485
X103.242 Y45.922
X103.29 Y46.308
X103.376 Y46.872
X103.424 Y47.344
X103.447 Y47.83
X103.448 Y48.192
X103.463 Y48.49
X103.452 Y48.748
X103.443 Y48.916
X103.452 Y48.963
X103.475 Y49.029
X103.478 Y49.077
X103.463 Y49.123
X103.433 Y49.161
X103.391 Y49.185
X103.343 Y49.193
X103.294 Y49.182
X103.212 Y49.15
X103.164 Y49.141
X103.01 Y49.147
X102.751 Y49.159
X102.442 Y49.143
X102.05 Y49.139
X101.564 Y49.112
X101.141 Y49.067
X100.6 Y48.985
X100.216 Y48.921
X99.878 Y48.884
X99.537 Y48.87
X99.197 Y48.881
X98.858 Y48.915
X98.478 Y48.982
X97.808 Y49.105
X97.133 Y49.202
X96.456 Y49.272
X95.776 Y49.315
X95.143 Y49.33
X57.607 Y49.387
X51.871 Y49.395
X48.98 Y49.4
X45.099 Y49.406
X42.776 Y49.409
X40.881 Y49.411
X40.2 Y49.391
X39.52 Y49.343
X38.843 Y49.269
X38.169 Y49.167
X37.52 Y49.041
X37.089 Y48.958
X36.75 Y48.92
X36.41 Y48.907
X36.07 Y48.921
X35.731 Y48.959
X34.875 Y49.11
X34.393 Y49.172
X33.906 Y49.207
X33.558 Y49.218
X33.261 Y49.239
X32.96 Y49.228
X32.868 Y49.226
X32.82 Y49.236
X32.715 Y49.283
X32.668 Y49.292
X32.623 Y49.275
X32.593 Y49.237
X32.588 Y49.189
X32.622 Y49.113
X32.633 Y49.066
X32.632 Y48.967
X32.618 Y48.703
X32.628 Y48.48
X32.639 Y48.279
X32.646 Y47.933
X32.681 Y47.448
X32.746 Y46.945
X32.861 Y46.27
X32.904 Y45.883
X32.919 Y45.494
X32.906 Y45.105
X32.866 Y44.718
X32.797 Y44.33
X32.677 Y43.706
X32.582 Y43.12
X32.501 Y42.443
X32.447 Y41.764
X32.422 Y41.088
X32.424 Y40.407
X32.454 Y39.726
X32.511 Y39.047
X32.596 Y38.371
X32.692 Y37.791
X32.796 Y37.214
X32.839 Y36.827
X32.855 Y36.438
X32.845 Y36.049
X32.809 Y35.661
X32.725 Y35.136
X32.663 Y34.719
X32.613 Y34.246
X32.588 Y33.76
X32.585 Y33.464
X32.583 Y33.234
X32.572 Y32.981
X32.593 Y32.649
X32.592 Y32.6
X32.583 Y32.553
X32.556 Y32.48
X32.553 Y32.432
X32.569 Y32.387
X32.602 Y32.351
X32.647 Y32.332
X32.695
X32.777 Y32.363
X32.825 Y32.372
X32.975 Y32.365
X33.24 Y32.351
X33.549 Y32.365
X33.944
X34.43 Y32.388
X34.81 Y32.423
X35.369 Y32.503
X35.875 Y32.582
X36.263 Y32.617
X36.652 Y32.626
X37.041 Y32.608
X37.427 Y32.564
X38.026 Y32.454
X38.699 Y32.345
X39.375 Y32.262
X40.054 Y32.207
X40.735 Y32.18
X42.683 Y32.174
X95.166 Y32.096
X95.847 Y32.111
X96.527 Y32.153
X97.205 Y32.222
X97.88 Y32.318
X98.502 Y32.43
X98.892 Y32.503
X99.278 Y32.551
X99.667 Y32.575
X100.056
X100.444 Y32.552
X100.831 Y32.504
X101.507 Y32.39
X102.001 Y32.332
X102.467 Y32.303
X102.659 Y32.296
X102.96 Y32.271
X103.224 Y32.278
X103.366 Y32.282
X103.414 Y32.274
X103.514 Y32.236
X103.596 Y32.204
X103.644 Y32.208
X103.684 Y32.234
X103.708 Y32.276
X103.707 Y32.329
X103.674 Y32.398
X103.659 Y32.473
X103.675 Y32.766
X103.669 Y33.009
X103.654 Y33.248
X103.646 Y33.599
X103.61 Y34.084
X103.548 Y34.557
X103.468 Y35.019
X103.42 Y35.306
X103.377 Y35.693
X103.364 Y36.082
X103.378 Y36.471
X103.422 Y36.858
X103.5 Y37.28
X103.609 Y37.839
X103.704 Y38.413
X103.776 Y38.967
X103.837 Y39.646
X103.872 Y40.326
X103.879 Y40.934
X103.862 Y41.616
X103.817 Y42.295
X103.745 Y42.973
X103.646 Y43.647
X103.546 Y44.222
X103.492 Y44.657
X103.464 Y45.094
X103.462 Y45.532
X103.485 Y45.969
X103.534 Y46.404
X103.638 Y47.105
X103.685 Y47.584
X103.707 Y48.07
Y48.421
X103.723 Y48.725
X103.712 Y48.992
X103.702 Y49.167
X103.711 Y49.214
X103.735 Y49.284
X103.739 Y49.333
X103.725 Y49.379
X103.696 Y49.418
X103.655 Y49.444
X103.608 Y49.454
X103.549 Y49.443
X103.465 Y49.41
X103.418 Y49.401
X103.308 Y49.403
X103.042 Y49.42
X102.821 Y49.411
X102.614 Y49.402
X102.22 Y49.397
X101.735 Y49.368
X101.234 Y49.311
X100.675 Y49.223
X100.233 Y49.155
X99.894 Y49.127
X99.553 Y49.123
X99.213 Y49.141
X98.875 Y49.182
X98.202 Y49.31
X97.529 Y49.419
X96.853 Y49.502
X96.174 Y49.559
X95.493 Y49.59
X94.598 Y49.596
X55.826 Y49.654
X53.999 Y49.657
X51.286 Y49.661
X42.532 Y49.674
X40.83 Y49.675
X40.149 Y49.653
X39.47 Y49.605
X38.792 Y49.531
X38.119 Y49.43
X37.467 Y49.306
X37.024 Y49.217
X36.686 Y49.175
X36.346 Y49.157
X36.006 Y49.164
X35.667 Y49.196
X35.432 Y49.233
X34.637 Y49.372
X34.141 Y49.434
X33.687 Y49.465
X33.331 Y49.476
X33.027 Y49.498
X32.763 Y49.49
X32.618 Y49.485
X32.571 Y49.494
X32.517 Y49.514
X32.436 Y49.551
X32.388 Y49.548
X32.348 Y49.52
X32.328 Y49.477
X32.332 Y49.432
X32.362 Y49.37
X32.377 Y49.295
X32.36 Y48.997
X32.366 Y48.754
X32.381 Y48.509
X32.388 Y48.155
X32.422 Y47.67
X32.476 Y47.233
X32.563 Y46.717
X32.616 Y46.395
X32.656 Y46.008
X32.669 Y45.619
X32.655 Y45.23
X32.615 Y44.843
X32.558 Y44.507
X32.437 Y43.896
X32.333 Y43.266
X32.261 Y42.708
X32.199 Y42.029
X32.163 Y41.349
X32.155 Y40.663
X32.174 Y39.982
X32.22 Y39.302
X32.292 Y38.625
X32.391 Y37.951
X32.534 Y37.16
X32.581 Y36.774
X32.603 Y36.385
X32.599 Y35.996
X32.569 Y35.607
X32.504 Y35.162
X32.406 Y34.535
X32.355 Y34.055
X32.329 Y33.569
X32.326 Y33.238
Y33.054
X32.312 Y32.746
X32.333 Y32.398
Y32.349
X32.325 Y32.302
X32.295 Y32.225
X32.292 Y32.177
X32.307 Y32.131
X32.339 Y32.094
X32.383 Y32.073
X32.431 Y32.07
X32.522 Y32.103
X32.57 Y32.112
X32.676 Y32.109
X32.947 Y32.091
X33.168 Y32.098
X33.378 Y32.106
X33.723
X34.21 Y32.127
X34.715 Y32.177
X35.336 Y32.271
X35.709 Y32.328
X36.097 Y32.364
X36.486 Y32.375
X36.875 Y32.359
X37.262 Y32.318
X37.686 Y32.244
X38.357 Y32.125
X39.032 Y32.032
X39.71 Y31.965
X40.39 Y31.925
X41.075 Y31.911
X95.166 Y31.831
X95.847 Y31.846
X96.527 Y31.887
X97.205 Y31.954
X97.88 Y32.047
X98.551 Y32.165
X98.949 Y32.241
X99.335 Y32.294
X99.723 Y32.322
X100.112 Y32.328
X100.501 Y32.31
X100.888 Y32.269
X101.598 Y32.15
X102.106 Y32.085
X102.521 Y32.053
X102.884 Y32.038
X103.192 Y32.012
X103.468 Y32.019
X103.614 Y32.024
X103.662 Y32.016
X103.767 Y31.977
X103.851 Y31.943
X103.9 Y31.947
X103.941 Y31.971
X103.966 Y32.013
X103.968 Y32.069
X103.934 Y32.142
X103.917 Y32.219
X103.934 Y32.521
X103.928 Y32.764
X103.912 Y33.019
X103.904 Y33.377
X103.868 Y33.862
X103.822 Y34.244
X103.714 Y34.883
X103.652 Y35.278
X103.619 Y35.666
X103.614 Y36.055
X103.637 Y36.444
X103.687 Y36.83
X103.841 Y37.6
X103.956 Y38.286
X104.03 Y38.848
X104.095 Y39.526
X104.133 Y40.206
X104.144 Y40.922
X104.128 Y41.603
X104.085 Y42.283
X104.016 Y42.961
X103.92 Y43.635
X103.817 Y44.222
X103.757 Y44.655
X103.722 Y45.092
X103.712 Y45.53
X103.727 Y45.967
X103.766 Y46.404
X103.869 Y47.096
X103.931 Y47.63
X103.961 Y48.116
X103.968 Y48.512
Y48.698
X103.983 Y49.009
X103.961 Y49.369
X103.962 Y49.418
X103.969 Y49.466
X103.996 Y49.54
X104. Y49.588
X103.987 Y49.635
X103.959 Y49.674
X103.919 Y49.702
X103.873 Y49.715
X103.825 Y49.711
X103.719 Y49.67
X103.638 Y49.659
X103.284 Y49.68
X103.054 Y49.671
X102.84 Y49.662
X102.488 Y49.658
X102.002 Y49.633
X101.471 Y49.575
X100.636 Y49.442
X100.249 Y49.393
X99.861 Y49.373
X99.472 Y49.382
X99.084 Y49.421
X98.737 Y49.481
X98.02 Y49.615
X97.298 Y49.72
X96.572 Y49.796
X95.843 Y49.843
X95.162 Y49.861
X58.34 Y49.915
X53.452 Y49.922
X50.685 Y49.926
X48.116 Y49.93
X42.678 Y49.938
X40.877 Y49.94
X40.196 Y49.921
X39.516 Y49.876
X38.839 Y49.805
X38.164 Y49.709
X37.509 Y49.59
X36.912 Y49.469
X36.574 Y49.426
X36.234 Y49.406
X35.893 Y49.411
X35.554 Y49.44
X35.169 Y49.501
X34.448 Y49.627
X33.985 Y49.686
X33.5 Y49.721
X33.104 Y49.734
X32.794 Y49.757
X32.518 Y49.749
X32.369 Y49.743
X32.291 Y49.761
X32.203 Y49.803
X32.156 Y49.813
X32.11 Y49.798
X32.078 Y49.763
X32.067 Y49.716
X32.081 Y49.67
X32.103 Y49.626
X32.119 Y49.549
X32.101 Y49.243
X32.107 Y49.
X32.122 Y48.738
X32.13 Y48.377
X32.164 Y47.891
X32.221 Y47.424
X32.309 Y46.902
X32.364 Y46.569
X32.404 Y46.182
X32.419 Y45.793
X32.408 Y45.404
X32.371 Y45.016
X32.308 Y44.632
X32.19 Y44.039
X32.082 Y43.392
X32.012 Y42.875
X31.945 Y42.197
X31.904 Y41.517
X31.89 Y40.87
X31.9 Y40.189
X31.937 Y39.509
X31.999 Y38.83
X32.087 Y38.155
X32.188 Y37.563
X32.287 Y37.01
X32.332 Y36.623
X32.352 Y36.234
X32.347 Y35.845
X32.317 Y35.457
X32.278 Y35.168
X32.166 Y34.469
X32.106 Y33.96
X32.074 Y33.474
X32.066 Y33.013
X32.067 Y32.825
X32.052 Y32.511
X32.074 Y32.147
Y32.098
X32.056 Y32.021
X32.031 Y31.946
X32.036 Y31.898
X32.059 Y31.855
X32.096 Y31.824
X32.142 Y31.809
X32.19 Y31.812
X32.267 Y31.843
X32.346 Y31.855
X32.703 Y31.831
X32.934 Y31.839
X33.15 Y31.846
X33.503
X33.989 Y31.867
X34.476 Y31.913
X35.063 Y31.999
X35.495 Y32.068
X35.882 Y32.108
X36.271 Y32.123
X36.66 Y32.113
X37.048 Y32.078
X37.433 Y32.019
X38.063 Y31.901
X38.737 Y31.799
X39.414 Y31.723
X40.094 Y31.673
X40.774 Y31.648
X43.556 Y31.642
X95.166 Y31.567
X95.896 Y31.583
X96.624 Y31.629
X97.351 Y31.703
X98.073 Y31.807
X98.79 Y31.939
X99.198 Y32.011
X99.634 Y32.059
X100.071 Y32.079
X100.509 Y32.069
X100.945 Y32.032
X101.397 Y31.962
X101.951 Y31.871
X102.405 Y31.819
X102.857 Y31.789
X103.109 Y31.78
X103.423 Y31.754
X103.663 Y31.757
X103.862 Y31.765
X103.943 Y31.749
X104.084 Y31.69
X104.131 Y31.681
X104.178 Y31.695
X104.213 Y31.727
X104.23 Y31.773
X104.223 Y31.826
X104.193 Y31.885
X104.176 Y31.965
X104.193 Y32.275
X104.187 Y32.518
X104.171 Y32.789
X104.162 Y33.155
X104.127 Y33.641
X104.066 Y34.126
X103.931 Y34.912
X103.883 Y35.299
X103.863 Y35.688
X103.87 Y36.077
X103.903 Y36.465
X103.963 Y36.849
X104.105 Y37.553
X104.207 Y38.16
X104.279 Y38.681
X104.348 Y39.358
X104.391 Y40.038
X104.407 Y40.568
X104.405 Y41.25
X104.376 Y41.93
X104.322 Y42.609
X104.243 Y43.286
X104.134 Y43.978
X104.043 Y44.51
X103.993 Y44.945
X103.968 Y45.382
X103.966 Y45.82
X103.989 Y46.257
X104.036 Y46.693
X104.146 Y47.425
X104.197 Y47.918
X104.224 Y48.453
X104.226 Y48.829
X104.238 Y49.097
X104.241 Y49.341
X104.221 Y49.62
Y49.669
X104.228 Y49.717
X104.256 Y49.795
X104.26 Y49.843
X104.248 Y49.89
X104.222 Y49.931
X104.183 Y49.96
X104.137 Y49.975
X104.085 Y49.973
X103.972 Y49.93
X103.889 Y49.918
X103.526 Y49.94
X103.286 Y49.931
X103.066 Y49.921
X102.707 Y49.918
X102.221 Y49.893
X101.757 Y49.845
X101.064 Y49.74
X100.556 Y49.661
X100.168 Y49.629
X99.779 Y49.626
X99.391 Y49.651
X99.005 Y49.704
X98.222 Y49.853
X97.5 Y49.963
X96.775 Y50.045
X96.047 Y50.099
X95.317 Y50.124
X93.622 Y50.129
X50.685 Y50.191
X48.262 Y50.194
X42.726 Y50.202
X40.875 Y50.204
X40.146 Y50.183
X39.417 Y50.133
X38.692 Y50.055
X37.969 Y49.948
X37.313 Y49.824
X36.799 Y49.721
X36.461 Y49.677
X36.121 Y49.656
X35.781 Y49.658
X35.441 Y49.684
X35.097 Y49.735
X34.307 Y49.875
X33.849 Y49.935
X33.392 Y49.974
X33.065 Y49.987
X32.877 Y49.992
X32.561 Y50.016
X32.321 Y50.011
X32.168 Y50.001
X32.119
X32.039 Y50.02
X31.947 Y50.064
X31.9 Y50.074
X31.854 Y50.06
X31.82 Y50.026
X31.807 Y49.979
X31.822 Y49.926
X31.844 Y49.882
X31.861 Y49.804
X31.842 Y49.488
X31.848 Y49.245
X31.864 Y48.992
X31.87 Y48.647
X31.901 Y48.161
X31.954 Y47.7
X32.046 Y47.134
X32.118 Y46.694
X32.157 Y46.307
X32.17 Y45.918
X32.158 Y45.529
X32.121 Y45.141
X32.058 Y44.757
X31.942 Y44.181
X31.837 Y43.567
X31.764 Y43.043
X31.688 Y42.317
X31.642 Y41.588
X31.625 Y40.883
X31.636 Y40.153
X31.677 Y39.424
X31.746 Y38.698
X31.844 Y37.974
X31.949 Y37.377
X32.04 Y36.86
X32.082 Y36.473
X32.101 Y36.084
X32.095 Y35.695
X32.065 Y35.307
X32.004 Y34.879
X31.899 Y34.214
X31.844 Y33.72
X31.812 Y33.186
X31.807 Y32.787
Y32.597
X31.792 Y32.277
X31.811 Y31.939
X31.815 Y31.847
X31.797 Y31.767
X31.77 Y31.69
X31.775 Y31.642
X31.797 Y31.599
X31.833 Y31.566
X31.878 Y31.549
X31.926 Y31.55
X32.012 Y31.582
X32.093 Y31.595
X32.459 Y31.571
X32.699 Y31.579
X32.922 Y31.586
X33.282
X33.817 Y31.611
X34.236 Y31.65
X34.79 Y31.727
X35.377 Y31.82
X35.765 Y31.858
X36.154 Y31.872
X36.543 Y31.861
X36.931 Y31.826
X37.315 Y31.767
X38.058 Y31.629
X38.781 Y31.524
X39.506 Y31.448
X40.235 Y31.4
X40.916 Y31.381
X64.821 Y31.346
X95.215 Y31.303
X95.945 Y31.321
X96.673 Y31.367
X97.399 Y31.441
X98.122 Y31.543
X98.84 Y31.674
X99.256 Y31.75
X99.69 Y31.803
X100.128 Y31.827
X100.565 Y31.824
X101.002 Y31.793
X101.436 Y31.734
X102.021 Y31.634
X102.462 Y31.577
X102.956 Y31.537
X103.286 Y31.525
X103.605 Y31.497
X103.824 Y31.495
X104.061 Y31.507
X104.158 Y31.5
X104.272 Y31.458
X104.363 Y31.422
X104.411 Y31.424
X104.454 Y31.446
X104.482 Y31.485
X104.491 Y31.529
X104.474 Y31.585
X104.452 Y31.629
X104.434 Y31.71
X104.45 Y31.981
Y32.225
X104.429 Y32.533
X104.422 Y32.885
X104.39 Y33.371
X104.334 Y33.846
X104.248 Y34.37
X104.162 Y34.884
X104.123 Y35.272
X104.111 Y35.661
X104.126 Y36.05
X104.166 Y36.437
X104.232 Y36.82
X104.361 Y37.459
X104.459 Y38.033
X104.527 Y38.513
X104.604 Y39.239
X104.653 Y39.967
X104.673 Y40.653
X104.666 Y41.383
X104.63 Y42.112
X104.566 Y42.839
X104.473 Y43.563
X104.355 Y44.269
X104.28 Y44.75
X104.233 Y45.234
X104.216 Y45.721
X104.228 Y46.207
X104.269 Y46.692
X104.321 Y47.068
X104.408 Y47.658
X104.459 Y48.158
X104.484 Y48.693
X104.486 Y49.058
X104.498 Y49.332
X104.501 Y49.575
X104.48 Y49.871
Y49.92
X104.496 Y49.998
X104.52 Y50.074
X104.517 Y50.123
X104.499 Y50.167
X104.467 Y50.204
X104.425 Y50.228
X104.377 Y50.237
X104.313 Y50.225
X104.226 Y50.191
X104.141 Y50.178
X103.768 Y50.2
X103.519 Y50.19
X103.293 Y50.181
X102.974 Y50.179
X102.44 Y50.153
X102.052 Y50.116
X101.696 Y50.069
X100.814 Y49.926
X100.427 Y49.887
X100.038 Y49.875
X99.649 Y49.89
X99.262 Y49.934
X98.949 Y49.989
X98.232 Y50.124
X97.51 Y50.232
X96.784 Y50.312
X96.056 Y50.364
X95.327 Y50.389
X90.993 Y50.398
X48.313 Y50.459
X46.73 Y50.461
X45.149 Y50.463
X41.741 Y50.468
X40.679 Y50.466
X39.949 Y50.438
X39.222 Y50.382
X38.496 Y50.298
X37.775 Y50.187
X37.116 Y50.059
X36.638 Y49.965
X36.3 Y49.923
X35.96 Y49.904
X35.62 Y49.908
X35.28 Y49.934
X34.93 Y49.986
X34.144 Y50.126
X33.652 Y50.192
X33.237 Y50.228
X32.841 Y50.245
X32.65 Y50.25
X32.328 Y50.275
X32.076 Y50.269
X31.918 Y50.259
X31.869 Y50.26
X31.787 Y50.278
X31.691 Y50.324
X31.644 Y50.334
X31.598 Y50.322
X31.563 Y50.288
X31.548 Y50.243
X31.55 Y50.211
X31.584 Y50.139
X31.602 Y50.058
X31.586 Y49.782
X31.585 Y49.539
X31.606 Y49.227
X31.612 Y48.869
X31.642 Y48.383
X31.697 Y47.899
X31.775 Y47.414
X31.866 Y46.868
X31.905 Y46.48
X31.92 Y46.091
X31.91 Y45.702
X31.876 Y45.315
X31.818 Y44.93
X31.669 Y44.18
X31.551 Y43.456
X31.465 Y42.775
X31.402 Y42.048
X31.369 Y41.367
X31.36 Y40.798
X31.374 Y40.068
X31.417 Y39.34
X31.487 Y38.613
X31.586 Y37.89
X31.683 Y37.335
X31.778 Y36.806
X31.825 Y36.42
X31.848 Y36.031
X31.847 Y35.642
X31.823 Y35.253
X31.775 Y34.867
X31.642 Y34.029
X31.586 Y33.529
X31.553 Y32.994
X31.547 Y32.561
X31.548 Y32.368
X31.532 Y32.042
X31.548 Y31.743
X31.555 Y31.597
X31.538 Y31.514
X31.51 Y31.435
X31.514 Y31.387
X31.534 Y31.343
X31.569 Y31.309
X31.614 Y31.29
X31.662 Y31.288
X31.757 Y31.322
X31.84 Y31.336
X32.216 Y31.311
X32.465 Y31.319
X32.694 Y31.327
X33.012 Y31.326
X33.547 Y31.347
X34.093 Y31.398
X34.613 Y31.471
X35.26 Y31.572
X35.647 Y31.608
X36.036 Y31.62
X36.426 Y31.608
X36.813 Y31.573
X37.198 Y31.515
X37.957 Y31.374
X38.679 Y31.268
X39.405 Y31.19
X40.133 Y31.139
X40.863 Y31.116
X49.1 Y31.104
X95.166 Y31.038
X95.896 Y31.054
X96.625 Y31.097
X97.351 Y31.167
X98.075 Y31.265
X98.794 Y31.39
X99.361 Y31.497
X99.795 Y31.55
X100.233 Y31.577
X100.671 Y31.576
X101.108 Y31.548
X101.542 Y31.493
X102.257 Y31.372
X102.713 Y31.315
X103.173 Y31.28
X103.511 Y31.267
X103.837 Y31.239
X103.983 Y31.234
X104.309 Y31.249
X104.406 Y31.242
X104.48 Y31.218
X104.618 Y31.161
X104.667 Y31.162
X104.71 Y31.184
X104.74 Y31.222
X104.751 Y31.267
X104.743 Y31.31
X104.712 Y31.372
X104.693 Y31.456
X104.705 Y31.668
X104.711 Y31.931
X104.689 Y32.249
X104.681 Y32.615
X104.653 Y33.101
X104.597 Y33.599
X104.519 Y34.09
X104.42 Y34.663
X104.378 Y35.05
X104.361 Y35.439
X104.37 Y35.828
X104.404 Y36.216
X104.463 Y36.601
X104.608 Y37.316
X104.723 Y37.998
X104.81 Y38.636
X104.881 Y39.362
X104.924 Y40.091
X104.939 Y40.835
X104.925 Y41.565
X104.883 Y42.293
X104.814 Y43.02
X104.717 Y43.744
X104.569 Y44.605
X104.508 Y45.087
X104.474 Y45.573
X104.469 Y46.059
X104.493 Y46.545
X104.544 Y47.029
X104.653 Y47.746
X104.704 Y48.204
X104.739 Y48.738
X104.746 Y49.19
Y49.383
X104.763 Y49.713
X104.751 Y49.969
X104.739 Y50.171
X104.755 Y50.251
X104.781 Y50.329
X104.778 Y50.378
X104.761 Y50.423
X104.73 Y50.46
X104.689 Y50.486
X104.642 Y50.498
X104.604 Y50.497
X104.525 Y50.467
X104.432 Y50.441
X104.351 Y50.438
X104.011 Y50.46
X103.816 Y50.455
X103.557 Y50.44
X103.193 Y50.438
X102.658 Y50.413
X102.135 Y50.36
X101.494 Y50.264
X100.928 Y50.173
X100.54 Y50.136
X100.151 Y50.126
X99.762 Y50.143
X99.375 Y50.186
X98.96 Y50.263
X98.242 Y50.395
X97.519 Y50.5
X96.794 Y50.578
X96.065 Y50.63
X95.336 Y50.655
X91.284 Y50.662
X44.515 Y50.729
X42.776 Y50.731
X41.053 Y50.733
X40.336 Y50.721
X39.608 Y50.681
X38.881 Y50.614
X38.157 Y50.52
X37.437 Y50.398
X36.622 Y50.233
X36.236 Y50.179
X35.848 Y50.153
X35.459 Y50.157
X35.071 Y50.19
X34.667 Y50.255
X34.011 Y50.372
X33.552 Y50.437
X33.129 Y50.478
X32.687 Y50.502
X32.423 Y50.508
X32.095 Y50.533
X31.915 Y50.532
X31.668 Y50.518
X31.571 Y50.526
X31.5 Y50.552
X31.412 Y50.592
X31.364
X31.322 Y50.569
X31.294 Y50.529
X31.287 Y50.488
X31.303 Y50.439
X31.325 Y50.395
X31.344 Y50.312
X31.331 Y50.097
X31.324 Y49.882
X31.329 Y49.736
X31.346 Y49.512
X31.35 Y49.213
X31.372 Y48.75
X31.416 Y48.291
X31.485 Y47.806
X31.607 Y47.089
X31.65 Y46.702
X31.67 Y46.314
X31.665 Y45.924
X31.637 Y45.536
X31.584 Y45.15
X31.43 Y44.371
X31.315 Y43.684
X31.226 Y43.039
X31.155 Y42.313
X31.111 Y41.584
X31.095 Y40.86
X31.107 Y40.13
X31.146 Y39.401
X31.212 Y38.674
X31.306 Y37.95
X31.39 Y37.436
X31.524 Y36.704
X31.575 Y36.269
X31.598 Y35.832
X31.591 Y35.394
X31.556 Y34.958
X31.504 Y34.596
X31.385 Y33.845
X31.333 Y33.386
X31.297 Y32.851
X31.287 Y32.388
X31.286 Y32.091
X31.272 Y31.807
X31.284 Y31.547
X31.296 Y31.346
X31.278 Y31.261
X31.25 Y31.18
X31.253 Y31.131
X31.272 Y31.087
X31.306 Y31.052
X31.349 Y31.031
X31.398 Y31.026
X31.457 Y31.044
X31.549 Y31.073
X31.625 Y31.076
X31.972 Y31.051
X32.166 Y31.055
X32.425 Y31.067
X32.889 Y31.068
X33.424 Y31.094
X33.95 Y31.146
X34.484 Y31.224
X35.094 Y31.319
X35.53 Y31.358
X35.968 Y31.368
X36.405 Y31.349
X36.841 Y31.302
X37.199 Y31.24
X37.904 Y31.111
X38.626 Y31.005
X39.352 Y30.927
X40.08 Y30.876
X40.809 Y30.852
X44.767 Y30.845
X95.166 Y30.774
X95.896 Y30.789
X96.625 Y30.831
X97.352 Y30.9
X98.075 Y30.995
X98.795 Y31.117
X99.418 Y31.236
X99.852 Y31.293
X100.289 Y31.324
X100.727 Y31.329
X101.164 Y31.307
X101.6 Y31.258
X102.169 Y31.162
X102.583 Y31.098
X102.964 Y31.054
X103.303 Y31.027
X103.59 Y31.013
X103.785 Y31.006
X104.117 Y30.978
X104.372 Y30.98
X104.606 Y30.99
X104.694 Y30.973
X104.851 Y30.907
X104.898 Y30.898
X104.945 Y30.909
X104.984 Y30.939
X105.006 Y30.981
X105.009 Y31.028
X104.993 Y31.073
X104.971 Y31.116
X104.951 Y31.202
X104.964 Y31.421
X104.97 Y31.637
X104.965 Y31.782
X104.947 Y32.013
X104.942 Y32.319
X104.918 Y32.782
X104.882 Y33.17
X104.824 Y33.601
X104.686 Y34.394
X104.637 Y34.78
X104.613 Y35.169
Y35.558
X104.639 Y35.947
X104.688 Y36.333
X104.793 Y36.872
X104.916 Y37.509
X105.027 Y38.227
X105.112 Y38.952
X105.169 Y39.68
X105.197 Y40.336
X105.202 Y41.065
X105.18 Y41.795
X105.131 Y42.523
X105.055 Y43.249
X104.952 Y43.972
X104.811 Y44.797
X104.754 Y45.28
X104.724 Y45.766
X104.723 Y46.252
X104.748 Y46.738
X104.802 Y47.222
X104.916 Y47.978
X104.966 Y48.444
X104.999 Y48.978
X105.006 Y49.416
X105.01 Y49.709
X105.023 Y49.947
X105.014 Y50.165
X104.999 Y50.373
X105.005 Y50.47
X105.036 Y50.561
X105.042 Y50.609
X105.032 Y50.657
X105.009 Y50.699
X104.974 Y50.732
X104.93 Y50.753
X104.863 Y50.758
X104.779 Y50.728
X104.686 Y50.701
X104.6 Y50.698
X104.253 Y50.72
X104.058 Y50.716
X103.79 Y50.7
X103.363 Y50.697
X102.829 Y50.669
X102.324 Y50.617
X101.772 Y50.536
X101.089 Y50.426
X100.702 Y50.388
X100.313 Y50.377
X99.924 Y50.391
X99.537 Y50.432
X99.249 Y50.48
X98.635 Y50.599
X97.915 Y50.716
X97.19 Y50.807
X96.463 Y50.871
X95.734 Y50.91
X94.982 Y50.922
X42.777 Y50.996
X41.394 Y50.997
X40.529 Y50.991
X39.8 Y50.959
X39.072 Y50.901
X38.347 Y50.816
X37.626 Y50.705
X36.962 Y50.578
X36.461 Y50.476
X36.075 Y50.425
X35.687 Y50.402
X35.298 Y50.407
X34.91 Y50.44
X34.595 Y50.488
X33.767 Y50.635
X33.306 Y50.698
X32.925 Y50.735
X32.514 Y50.758
X32.148 Y50.769
X31.862 Y50.792
X31.604 Y50.788
X31.418 Y50.776
X31.322 Y50.784
X31.246 Y50.811
X31.157 Y50.853
X31.108
X31.065 Y50.831
X31.036 Y50.792
X31.028 Y50.75
X31.044 Y50.695
X31.066 Y50.652
X31.085 Y50.566
X31.073 Y50.359
X31.065 Y50.127
X31.07 Y49.981
X31.087 Y49.747
X31.098 Y49.263
X31.134 Y48.729
X31.178 Y48.345
X31.241 Y47.927
X31.355 Y47.263
X31.399 Y46.876
X31.419 Y46.487
X31.417 Y46.098
X31.391 Y45.71
X31.342 Y45.323
X31.229 Y44.739
X31.102 Y44.056
X30.984 Y43.255
X30.907 Y42.529
X30.856 Y41.801
X30.832 Y41.067
X30.836 Y40.337
X30.866 Y39.608
X30.923 Y38.88
X31.007 Y38.155
X31.118 Y37.433
X31.254 Y36.698
X31.312 Y36.264
X31.343 Y35.827
X31.345 Y35.39
X31.319 Y34.952
X31.265 Y34.518
X31.135 Y33.709
X31.079 Y33.243
X31.04 Y32.709
X31.028 Y32.294
X31.029 Y31.911
X31.012 Y31.572
X31.021 Y31.352
X31.037 Y31.143
X31.03 Y31.047
X30.994 Y30.948
X30.988 Y30.9
X30.999 Y30.853
X31.025 Y30.812
X31.063 Y30.782
X31.109 Y30.767
X31.163 Y30.769
X31.247 Y30.802
X31.334 Y30.817
X31.679 Y30.793
X31.922 Y30.794
X32.191 Y30.808
X32.668 Y30.809
X33.203 Y30.834
X33.663 Y30.876
X34.152 Y30.943
X34.88 Y31.059
X35.315 Y31.102
X35.753 Y31.117
X36.191 Y31.104
X36.627 Y31.062
X37.059 Y30.992
X37.802 Y30.855
X38.525 Y30.749
X39.25 Y30.669
X39.978 Y30.615
X40.708 Y30.588
X42.283 Y30.583
X95.166 Y30.51
X95.896 Y30.524
X96.625 Y30.565
X97.352 Y30.632
X98.076 Y30.725
X98.796 Y30.844
X99.523 Y30.982
X99.957 Y31.041
X100.394 Y31.073
X100.832 Y31.08
X101.269 Y31.061
X101.705 Y31.016
X102.299 Y30.918
X102.631 Y30.863
X103.021 Y30.813
X103.554 Y30.767
X104.01 Y30.748
X104.348 Y30.719
X104.615 Y30.721
X104.805 Y30.732
X104.902 Y30.725
X104.985 Y30.7
X105.13 Y30.639
X105.178 Y30.64
X105.222 Y30.659
X105.255 Y30.695
X105.27 Y30.741
X105.265 Y30.789
X105.23 Y30.86
X105.209 Y30.948
X105.216 Y31.087
X105.229 Y31.343
X105.221 Y31.585
X105.203 Y31.872
X105.191 Y32.318
X105.151 Y32.851
X105.103 Y33.249
X105.035 Y33.674
X104.924 Y34.318
X104.88 Y34.704
X104.86 Y35.093
X104.865 Y35.483
X104.894 Y35.871
X104.947 Y36.256
X105.09 Y36.969
X105.228 Y37.749
X105.33 Y38.494
X105.403 Y39.221
X105.449 Y39.949
X105.468 Y40.712
X105.459 Y41.442
X105.424 Y42.171
X105.363 Y42.898
X105.275 Y43.623
X105.162 Y44.338
X105.059 Y44.94
X105.004 Y45.424
X104.976 Y45.91
X104.975 Y46.396
X105. Y46.882
X105.052 Y47.366
X105.166 Y48.114
X105.215 Y48.539
X105.253 Y49.072
X105.264 Y49.453
X105.265 Y49.84
X105.283 Y50.182
X105.278 Y50.36
X105.258 Y50.624
X105.264 Y50.721
X105.296 Y50.816
X105.3 Y50.888
X105.271 Y50.955
X105.217 Y51.002
X105.147 Y51.021
X105.077 Y51.007
X104.986 Y50.971
X104.894 Y50.956
X104.592 Y50.976
X104.349 Y50.979
X104.071 Y50.961
X103.631 Y50.957
X103.096 Y50.932
X102.612 Y50.887
X102.194 Y50.83
X101.299 Y50.685
X100.912 Y50.644
X100.523 Y50.628
X100.134 Y50.637
X99.746 Y50.672
X99.362 Y50.733
X98.55 Y50.887
X97.78 Y51.005
X97.006 Y51.093
X96.23 Y51.153
X95.452 Y51.183
X93.716 Y51.189
X40.965 Y51.262
X40.236 Y51.246
X39.507 Y51.205
X38.78 Y51.138
X38.056 Y51.045
X37.336 Y50.926
X36.671 Y50.792
X36.349 Y50.728
X35.963 Y50.676
X35.574 Y50.651
X35.185 Y50.654
X34.797 Y50.684
X34.428 Y50.739
X33.646 Y50.879
X33.206 Y50.943
X32.672 Y50.995
X32.244 Y51.018
X31.921 Y51.027
X31.628 Y51.051
X31.429 Y51.05
X31.169 Y51.035
X31.072 Y51.042
X30.992 Y51.07
X30.901 Y51.113
X30.852 Y51.114
X30.809 Y51.093
X30.779 Y51.055
X30.768 Y51.012
X30.775 Y50.97
X30.806 Y50.908
X30.827 Y50.821
X30.82 Y50.682
X30.806 Y50.421
X30.814 Y50.178
X30.831 Y49.934
X30.84 Y49.485
X30.875 Y48.951
X30.928 Y48.496
X30.987 Y48.112
X31.103 Y47.436
X31.151 Y47.001
X31.171 Y46.564
X31.162 Y46.126
X31.125 Y45.689
X31.059 Y45.257
X30.91 Y44.512
X30.792 Y43.804
X30.701 Y43.132
X30.63 Y42.406
X30.585 Y41.677
X30.567 Y40.982
X30.573 Y40.253
X30.606 Y39.523
X30.664 Y38.796
X30.749 Y38.071
X30.86 Y37.349
X30.991 Y36.644
X31.053 Y36.211
X31.088 Y35.774
X31.096 Y35.336
X31.076 Y34.899
X31.028 Y34.464
X30.892 Y33.618
X30.832 Y33.148
X30.787 Y32.614
X30.769 Y32.073
Y31.683
X30.752 Y31.338
X30.757 Y31.156
X30.777 Y30.892
X30.771 Y30.796
X30.734 Y30.693
X30.728 Y30.645
X30.737 Y30.597
X30.762 Y30.556
X30.799 Y30.525
X30.845 Y30.507
X30.903 Y30.508
X30.992 Y30.542
X31.082 Y30.558
X31.319 Y30.542
X31.533 Y30.531
X31.679 Y30.534
X31.908 Y30.548
X32.35 Y30.547
X32.885 Y30.567
X33.418 Y30.613
X33.872 Y30.671
X34.666 Y30.798
X35.101 Y30.845
X35.538 Y30.865
X35.976 Y30.857
X36.413 Y30.821
X36.846 Y30.758
X37.701 Y30.6
X38.471 Y30.487
X39.245 Y30.402
X40.022 Y30.347
X40.8 Y30.321
X44.228 Y30.315
X95.166 Y30.245
X95.945 Y30.262
X96.722 Y30.307
X97.497 Y30.381
X98.269 Y30.484
X99.036 Y30.615
X99.677 Y30.737
X100.111 Y30.793
X100.548 Y30.824
X100.986 Y30.83
X101.423 Y30.811
X101.859 Y30.766
X102.148 Y30.723
X102.77 Y30.616
X103.166 Y30.563
X103.708 Y30.513
X104.138 Y30.495
X104.385 Y30.477
X104.628 Y30.459
X104.882 Y30.463
X105.053 Y30.473
X105.15 Y30.467
X105.238 Y30.44
X105.385 Y30.379
X105.434 Y30.378
X105.478 Y30.397
X105.512 Y30.432
X105.529 Y30.477
X105.527 Y30.526
X105.49 Y30.603
X105.468 Y30.693
X105.474 Y30.835
X105.488 Y31.097
X105.48 Y31.34
X105.462 Y31.591
X105.452 Y32.047
X105.414 Y32.581
X105.352 Y33.098
X105.272 Y33.585
X105.175 Y34.145
X105.131 Y34.532
X105.11 Y34.92
X105.113 Y35.31
X105.139 Y35.698
X105.189 Y36.084
X105.232 Y36.324
X105.353 Y36.917
X105.486 Y37.67
X105.59 Y38.424
X105.663 Y39.15
X105.711 Y39.878
X105.73 Y40.456
X105.729 Y41.235
X105.7 Y42.013
X105.641 Y42.789
X105.553 Y43.563
X105.436 Y44.332
X105.315 Y45.036
X105.259 Y45.519
X105.229 Y46.005
X105.226 Y46.492
X105.248 Y46.978
X105.297 Y47.462
X105.405 Y48.174
X105.457 Y48.585
X105.503 Y49.118
X105.524 Y49.674
Y50.069
X105.543 Y50.417
X105.53 Y50.702
X105.517 Y50.875
X105.523 Y50.972
X105.556 Y51.071
X105.56 Y51.144
X105.533 Y51.211
X105.48 Y51.26
X105.411 Y51.282
X105.339 Y51.271
X105.24 Y51.231
X105.145 Y51.216
X104.904 Y51.231
X104.689 Y51.24
X104.401 Y51.226
X104.149 Y51.219
X103.752 Y51.214
X103.218 Y51.185
X102.653 Y51.126
X102.184 Y51.056
X101.461 Y50.938
X101.074 Y50.896
X100.685 Y50.879
X100.296 Y50.887
X99.908 Y50.919
X99.523 Y50.977
X98.655 Y51.142
X97.886 Y51.26
X97.112 Y51.35
X96.336 Y51.412
X95.558 Y51.446
X94.445 Y51.453
X40.964 Y51.526
X40.185 Y51.509
X39.408 Y51.463
X38.633 Y51.389
X37.861 Y51.286
X37.094 Y51.154
X36.475 Y51.027
X36.092 Y50.957
X35.705 Y50.914
X35.316 Y50.898
X34.927 Y50.908
X34.54 Y50.946
X34.261 Y50.99
X33.464 Y51.133
X32.961 Y51.205
X32.42 Y51.256
X31.974 Y51.277
X31.645 Y51.289
X31.395 Y51.309
X31.186
X30.919 Y51.293
X30.822 Y51.3
X30.738 Y51.33
X30.645 Y51.373
X30.597 Y51.374
X30.552 Y51.355
X30.521 Y51.318
X30.508 Y51.273
X30.515 Y51.228
X30.547 Y51.164
X30.568 Y51.075
X30.562 Y50.934
X30.547 Y50.666
X30.555 Y50.423
X30.572 Y50.169
X30.582 Y49.707
X30.617 Y49.173
X30.678 Y48.647
X30.749 Y48.2
X30.851 Y47.61
X30.9 Y47.175
X30.921 Y46.737
X30.914 Y46.299
X30.88 Y45.863
X30.817 Y45.429
X30.654 Y44.606
X30.542 Y43.936
X30.452 Y43.299
X30.373 Y42.525
X30.323 Y41.748
X30.302 Y40.995
X30.309 Y40.217
X30.345 Y39.439
X30.41 Y38.663
X30.504 Y37.89
X30.619 Y37.166
X30.76 Y36.398
X30.814 Y35.964
X30.842 Y35.527
Y35.089
X30.815 Y34.652
X30.762 Y34.217
X30.636 Y33.441
X30.579 Y33.005
X30.532 Y32.472
X30.511 Y31.937
Y31.503
X30.493 Y31.152
X30.497 Y30.912
X30.518 Y30.642
X30.512 Y30.545
X30.474 Y30.437
X30.467 Y30.389
X30.476 Y30.342
X30.5 Y30.3
X30.536 Y30.267
X30.581 Y30.248
X30.644 Y30.247
X30.737 Y30.282
X30.829 Y30.298
X31.068 Y30.282
X31.289 Y30.271
X31.576 Y30.283
X31.83 Y30.288
X32.227 Y30.289
X32.762 Y30.313
X33.329 Y30.367
X33.785 Y30.429
X34.548 Y30.551
X34.984 Y30.596
X35.421 Y30.614
X35.859 Y30.605
X36.295 Y30.569
X36.729 Y30.506
X37.504 Y30.361
X38.274 Y30.243
X39.047 Y30.153
X39.823 Y30.092
X40.601 Y30.06
X41.501 Y30.054
X95.167 Y29.981
X95.945 Y29.997
X96.722 Y30.041
X97.498 Y30.113
X98.27 Y30.214
X99.038 Y30.342
X99.734 Y30.476
X100.168 Y30.535
X100.604 Y30.57
X101.042 Y30.581
X101.48 Y30.567
X101.916 Y30.529
X102.349 Y30.466
X103.054 Y30.347
X103.619 Y30.28
X104.043 Y30.249
X104.46 Y30.233
X104.81 Y30.202
X105.031 Y30.201
X105.301 Y30.215
X105.398 Y30.209
X105.49 Y30.181
X105.641 Y30.118
X105.689 Y30.117
X105.734 Y30.135
X105.769 Y30.169
X105.788 Y30.214
Y30.262
X105.771 Y30.304
X105.749 Y30.347
X105.734 Y30.393
X105.726 Y30.486
X105.745 Y30.803
X105.742 Y31.046
X105.72 Y31.356
X105.71 Y31.826
X105.673 Y32.36
X105.608 Y32.899
X105.535 Y33.353
X105.434 Y33.924
X105.382 Y34.359
X105.359 Y34.796
X105.365 Y35.234
X105.4 Y35.671
X105.464 Y36.104
X105.626 Y36.912
X105.745 Y37.591
X105.85 Y38.353
X105.928 Y39.128
X105.977 Y39.905
X105.997 Y40.638
X105.99 Y41.417
X105.955 Y42.194
X105.891 Y42.97
X105.798 Y43.743
X105.685 Y44.465
X105.571 Y45.132
X105.514 Y45.615
X105.483 Y46.101
X105.477 Y46.587
X105.497 Y47.073
X105.542 Y47.558
X105.595 Y47.934
X105.685 Y48.531
X105.743 Y49.067
X105.776 Y49.601
X105.785 Y50.029
Y50.346
X105.802 Y50.651
X105.794 Y50.897
X105.776 Y51.126
X105.782 Y51.223
X105.816 Y51.327
X105.821 Y51.399
X105.795 Y51.467
X105.744 Y51.517
X105.675 Y51.542
X105.603 Y51.535
X105.493 Y51.492
X105.398 Y51.475
X105.152 Y51.49
X104.931 Y51.5
X104.682 Y51.489
X104.424 Y51.478
X104.02 Y51.475
X103.485 Y51.449
X102.952 Y51.397
X102.558 Y51.343
X101.719 Y51.205
X101.332 Y51.157
X100.944 Y51.133
X100.555 Y51.132
X100.166 Y51.157
X99.78 Y51.205
X99.288 Y51.299
X98.521 Y51.436
X97.751 Y51.547
X96.976 Y51.63
X96.2 Y51.686
X95.422 Y51.714
X93.325 Y51.72
X40.962 Y51.791
X40.183 Y51.774
X39.406 Y51.729
X38.631 Y51.656
X37.859 Y51.555
X37.091 Y51.427
X36.171 Y51.241
X35.786 Y51.183
X35.398 Y51.152
X35.009 Y51.148
X34.62 Y51.169
X34.234 Y51.217
X33.282 Y51.387
X32.812 Y51.455
X32.264 Y51.509
X31.801 Y51.534
X31.467 Y51.543
X31.162 Y51.568
X30.943 Y51.567
X30.669 Y51.552
X30.573 Y51.558
X30.484 Y51.589
X30.389 Y51.634
X30.341 Y51.635
X30.296 Y51.616
X30.263 Y51.581
X30.249 Y51.535
X30.254 Y51.487
X30.288 Y51.421
X30.303 Y51.375
X30.31 Y51.283
X30.29 Y50.961
X30.292 Y50.717
X30.314 Y50.405
X30.322 Y49.977
X30.354 Y49.443
X30.409 Y48.943
X30.478 Y48.48
X30.598 Y47.783
X30.648 Y47.348
X30.671 Y46.911
X30.666 Y46.473
X30.634 Y46.036
X30.575 Y45.602
X30.422 Y44.824
X30.321 Y44.26
X30.211 Y43.515
X30.125 Y42.741
X30.068 Y41.965
X30.043 Y41.349
X30.037 Y40.57
X30.06 Y39.792
X30.111 Y39.015
X30.19 Y38.24
X30.297 Y37.469
X30.425 Y36.741
X30.52 Y36.2
X30.569 Y35.765
X30.592 Y35.328
X30.589 Y34.89
X30.559 Y34.453
X30.503 Y34.018
X30.387 Y33.312
X30.322 Y32.813
X30.271 Y32.232
X30.251 Y31.697
X30.25 Y31.226
X30.232 Y30.868
X30.241 Y30.619
X30.259 Y30.391
X30.253 Y30.294
X30.223 Y30.205
X30.208 Y30.158
X30.209 Y30.11
X30.225 Y30.064
X30.254 Y30.025
X30.294 Y29.998
X30.362 Y29.983
X30.425 Y29.998
X30.482 Y30.022
X30.576 Y30.039
X30.818 Y30.023
X31.045 Y30.011
X31.293 Y30.02
X31.487 Y30.029
X31.957
X32.492 Y30.05
X33.026 Y30.096
X33.601 Y30.172
X34.334 Y30.291
X34.769 Y30.339
X35.207 Y30.361
X35.644 Y30.357
X36.081 Y30.327
X36.516 Y30.27
X37.355 Y30.114
X38.124 Y29.994
X38.897 Y29.901
X39.673 Y29.836
X40.451 Y29.798
X41.11 Y29.789
X95.167 Y29.717
X95.945 Y29.732
X96.723 Y29.775
X97.498 Y29.846
X98.27 Y29.944
X99.039 Y30.069
X99.839 Y30.222
X100.273 Y30.282
X100.709 Y30.319
X101.147 Y30.331
X101.585 Y30.32
X102.021 Y30.285
X102.455 Y30.225
X103.241 Y30.093
X103.773 Y30.028
X104.26 Y29.991
X104.685 Y29.975
X105.042 Y29.943
X105.273 Y29.942
X105.549 Y29.956
X105.646 Y29.951
X105.743 Y29.922
X105.897 Y29.857
X105.945 Y29.856
X105.99 Y29.873
X106.026 Y29.906
X106.046 Y29.95
X106.049 Y29.998
X106.031 Y30.047
X106.008 Y30.091
X105.993 Y30.137
X105.985 Y30.185
X105.991 Y30.331
X106.005 Y30.606
X105.998 Y30.85
X105.979 Y31.12
X105.969 Y31.556
X105.936 Y32.09
X105.885 Y32.556
X105.822 Y32.981
X105.694 Y33.703
