;FLAVOR:Marlin
;TIME:6881
;Filament used: 13.0107m
;Layer height: 0.3
;Generated with Cura_SteamEngine 1.2.1
M190 S35
M104 S220
M109 S220
G28
G1 Z50.00 F400
G92 E0
G1 F200 E3
G92 E0
M132 X Y Z A
M907 X100 Y100 Z50 A100
;LAYER_COUNT:83
;LAYER:0
M107
G0 F3000 X-8.052 Y-8.247 Z0.3
;TYPE:SKIRT
G1 F1500 X-10.795 Y-49.95 E2.08507
G1 X-10.796 Y-50.069 E2.091
G1 X-10.739 Y-51.138 E2.14441
G1 X-10.727 Y-51.244 E2.14973
G1 X-10.56 Y-52.279 E2.20204
G1 X-10.538 Y-52.382 E2.20729
G1 X-10.258 Y-53.412 E2.26055
G1 X-10.225 Y-53.512 E2.2658
G1 X-9.846 Y-54.488 E2.31803
G1 X-9.802 Y-54.586 E2.32339
G1 X-9.307 Y-55.542 E2.3771
G1 X-9.253 Y-55.634 E2.38242
G1 X-8.668 Y-56.518 E2.43531
G1 X-8.606 Y-56.602 E2.44052
G1 X-7.937 Y-57.414 E2.49301
G1 X-7.864 Y-57.493 E2.49837
G1 X-7.101 Y-58.238 E2.55158
G1 X-7.022 Y-58.307 E2.55681
G1 X-6.189 Y-58.966 E2.6098
G1 X-6.101 Y-59.029 E2.6152
G1 X-5.199 Y-59.596 E2.66835
G1 X-5.107 Y-59.647 E2.6736
G1 X-4.167 Y-60.108 E2.72584
G1 X-4.07 Y-60.149 E2.73109
G1 X-3.061 Y-60.518 E2.78469
G1 X-2.959 Y-60.55 E2.79002
G1 X-1.935 Y-60.804 E2.84266
G1 X-1.831 Y-60.824 E2.84794
G1 X-.779 Y-60.97 E2.90093
G1 X-.674 Y-60.978 E2.90618
G1 X0.391 Y-61.012 E2.95934
G1 X0.498 Y-61.01 E2.96468
G1 X1.545 Y-60.931 E3.01707
G1 X1.649 Y-60.918 E3.02229
G1 X2.69 Y-60.729 E3.07508
G1 X2.794 Y-60.704 E3.08042
G1 X3.812 Y-60.404 E3.13336
G1 X3.912 Y-60.369 E3.13865
G1 X4.9 Y-59.959 E3.19202
G1 X4.996 Y-59.913 E3.19733
G1 X5.935 Y-59.401 E3.25069
G1 X6.025 Y-59.345 E3.25597
G1 X6.881 Y-58.752 E3.30793
G1 X6.963 Y-58.689 E3.31309
G1 X7.766 Y-58 E3.36587
G1 X7.844 Y-57.925 E3.37127
G1 X8.57 Y-57.151 E3.42422
G1 X8.638 Y-57.071 E3.42945
G1 X9.288 Y-56.213 E3.48316
G1 X9.347 Y-56.126 E3.4884
G1 X9.889 Y-55.228 E3.54073
G1 X9.94 Y-55.133 E3.54611
G1 X10.388 Y-54.17 E3.5991
G1 X10.428 Y-54.07 E3.60447
G1 X10.769 Y-53.069 E3.65723
G1 X10.797 Y-52.968 E3.66246
G1 X11.034 Y-51.922 E3.71597
G1 X11.052 Y-51.816 E3.72133
G1 X11.175 Y-50.756 E3.77457
G1 X11.182 Y-50.651 E3.77982
G1 X11.193 Y-49.602 E3.83216
G1 X11.191 Y-49.526 E3.83595
G1 X8.457 Y-8.247 E5.89988
G1 X50.038 Y-10.991 E7.97888
G1 X50.145 Y-10.992 E7.98421
G1 X51.206 Y-10.948 E8.03719
G1 X51.315 Y-10.938 E8.04265
G1 X52.372 Y-10.778 E8.09599
G1 X52.476 Y-10.756 E8.10129
G1 X53.51 Y-10.485 E8.15462
G1 X53.611 Y-10.453 E8.15991
G1 X54.612 Y-10.073 E8.21332
G1 X54.71 Y-10.03 E8.21866
G1 X55.65 Y-9.553 E8.27125
G1 X55.742 Y-9.5 E8.27655
G1 X56.646 Y-8.913 E8.33033
G1 X56.733 Y-8.849 E8.33571
G1 X57.553 Y-8.181 E8.38848
G1 X57.631 Y-8.11 E8.39374
G1 X58.387 Y-7.348 E8.44729
G1 X58.458 Y-7.268 E8.45263
G1 X59.12 Y-6.44 E8.50552
G1 X59.182 Y-6.353 E8.51085
G1 X59.761 Y-5.444 E8.56462
G1 X59.814 Y-5.352 E8.56991
G1 X60.284 Y-4.405 E8.62266
G1 X60.326 Y-4.307 E8.62798
G1 X60.633 Y-3.477 E8.67213
G1 X60.692 Y-3.201 E8.68621
G1 X60.673 Y-2.92 E8.70026
G1 X60.512 Y-2.553 E8.72026
G1 X60.392 Y-2.383 E8.73064
G1 X60.198 Y-2.178 E8.74472
G1 X59.955 Y-2.035 E8.75879
G1 X59.568 Y-1.96 E8.77845
G1 X54.195 Y-1.998 E9.04652
G1 X53.916 Y-2.04 E9.06059
G1 X53.66 Y-2.158 E9.07466
G1 X53.467 Y-2.32 E9.08723
G1 X52.845 Y-2.994 E9.13299
G1 X52.14 Y-3.491 E9.17602
G1 X51.353 Y-3.821 E9.2186
G1 X50.513 Y-3.978 E9.26123
G1 X49.658 Y-3.95 E9.30391
G1 X48.829 Y-3.743 E9.34654
G1 X48.059 Y-3.36 E9.38944
G1 X47.387 Y-2.822 E9.43239
G1 X46.851 Y-2.158 E9.47496
G1 X46.465 Y-1.392 E9.51776
G1 X46.254 Y-.561 E9.56053
G1 X46.223 Y0.324 E9.60471
G1 X46.27 Y0.69 E9.62312
G1 X46.37 Y1.12 E9.64515
G1 X46.707 Y1.93 E9.68891
G1 X47.2 Y2.634 E9.73179
G1 X47.827 Y3.213 E9.77437
G1 X48.568 Y3.647 E9.81721
G1 X49.374 Y3.912 E9.85954
G1 X50.23 Y3.999 E9.90247
G1 X51.113 Y3.898 E9.94681
G1 X51.507 Y3.789 E9.96721
G1 X51.876 Y3.639 E9.98708
G1 X52.615 Y3.191 E10.03019
G1 X53.684 Y2.115 E10.10586
G1 X53.909 Y1.945 E10.11993
G1 X54.173 Y1.845 E10.13402
G1 X54.393 Y1.82 E10.14506
G1 X59.625 Y1.82 E10.40609
G1 X59.904 Y1.86 E10.42015
G1 X60.161 Y1.976 E10.43422
G1 X60.443 Y2.244 E10.45363
G1 X60.562 Y2.413 E10.46394
G1 X60.69 Y2.665 E10.47804
G1 X60.743 Y2.942 E10.49211
G1 X60.687 Y3.323 E10.51132
G1 X60.381 Y4.188 E10.5571
G1 X60.339 Y4.288 E10.56251
G1 X59.872 Y5.258 E10.61622
G1 X59.819 Y5.354 E10.62169
G1 X59.237 Y6.285 E10.67647
G1 X59.177 Y6.371 E10.6817
G1 X58.517 Y7.215 E10.73515
G1 X58.442 Y7.3 E10.74081
G1 X57.673 Y8.083 E10.79556
G1 X57.595 Y8.154 E10.80082
G1 X56.757 Y8.843 E10.85495
G1 X56.669 Y8.908 E10.86041
G1 X55.776 Y9.491 E10.91361
G1 X55.682 Y9.545 E10.91902
G1 X54.699 Y10.045 E10.97404
G1 X54.599 Y10.09 E10.97951
G1 X53.584 Y10.473 E11.03364
G1 X53.483 Y10.505 E11.03892
G1 X52.438 Y10.777 E11.09279
G1 X52.328 Y10.799 E11.09839
G1 X51.244 Y10.955 E11.15303
G1 X51.138 Y10.964 E11.15834
G1 X50.057 Y11.003 E11.2123
G1 X49.955 Y11.002 E11.21739
G1 X8.458 Y8.259 E13.2922
G1 X11.178 Y49.307 E15.34459
G1 X11.18 Y49.36 E15.34723
G1 X11.194 Y50.414 E15.39982
G1 X11.19 Y50.52 E15.40512
G1 X11.092 Y51.57 E15.45773
G1 X11.077 Y51.673 E15.46292
G1 X10.873 Y52.695 E15.51491
G1 X10.846 Y52.799 E15.52027
G1 X10.53 Y53.805 E15.57288
G1 X10.494 Y53.902 E15.57804
G1 X10.069 Y54.884 E15.63143
G1 X10.022 Y54.977 E15.63663
G1 X9.511 Y55.885 E15.68861
G1 X9.454 Y55.976 E15.69396
G1 X8.842 Y56.834 E15.74654
G1 X8.776 Y56.917 E15.75183
G1 X8.072 Y57.71 E15.80474
G1 X7.998 Y57.784 E15.80996
G1 X7.214 Y58.5 E15.86293
G1 X7.133 Y58.567 E15.86817
G1 X6.293 Y59.185 E15.9202
G1 X6.204 Y59.244 E15.92553
G1 X5.281 Y59.783 E15.97886
G1 X5.188 Y59.831 E15.98408
G1 X4.233 Y60.261 E16.03633
G1 X4.133 Y60.3 E16.04168
G1 X3.123 Y60.63 E16.09469
G1 X3.021 Y60.657 E16.09996
G1 X1.98 Y60.88 E16.15307
G1 X1.876 Y60.896 E16.15832
G1 X0.827 Y61.007 E16.21095
G1 X0.721 Y61.013 E16.21625
G1 X-.331 Y61.012 E16.26873
G1 X-.435 Y61.006 E16.27393
G1 X-1.482 Y60.895 E16.32646
G1 X-1.588 Y60.879 E16.3318
G1 X-2.619 Y60.657 E16.38442
G1 X-2.719 Y60.63 E16.38959
G1 X-3.729 Y60.3 E16.4426
G1 X-3.829 Y60.261 E16.44795
G1 X-4.784 Y59.831 E16.5002
G1 X-4.877 Y59.782 E16.50545
G1 X-5.798 Y59.244 E16.55866
G1 X-5.887 Y59.186 E16.56396
G1 X-6.728 Y58.567 E16.61606
G1 X-6.809 Y58.501 E16.62127
G1 X-7.593 Y57.786 E16.67421
G1 X-7.667 Y57.711 E16.67947
G1 X-8.372 Y56.917 E16.73244
G1 X-8.438 Y56.834 E16.73773
G1 X-9.051 Y55.975 E16.79038
G1 X-9.108 Y55.885 E16.7957
G1 X-9.62 Y54.976 E16.84774
G1 X-9.667 Y54.882 E16.85299
G1 X-10.09 Y53.903 E16.90619
G1 X-10.126 Y53.805 E16.9114
G1 X-10.442 Y52.798 E16.96406
G1 X-10.469 Y52.695 E16.96937
G1 X-10.673 Y51.673 E17.02136
G1 X-10.688 Y51.57 E17.02656
G1 X-10.786 Y50.522 E17.07907
G1 X-10.79 Y50.416 E17.08436
G1 X-10.776 Y49.36 E17.13705
G1 X-10.774 Y49.307 E17.1397
G1 X-8.054 Y8.259 E19.19208
G1 X-49.56 Y11.002 E21.26734
G1 X-49.661 Y11.003 E21.27238
G1 X-50.715 Y10.966 E21.325
G1 X-50.819 Y10.957 E21.3302
G1 X-51.865 Y10.81 E21.3829
G1 X-51.97 Y10.79 E21.38824
G1 X-52.991 Y10.533 E21.44076
G1 X-53.092 Y10.501 E21.44605
G1 X-54.084 Y10.136 E21.49878
G1 X-54.18 Y10.095 E21.50399
G1 X-55.134 Y9.626 E21.55703
G1 X-55.227 Y9.575 E21.56232
G1 X-56.117 Y9.013 E21.61483
G1 X-56.203 Y8.952 E21.62009
G1 X-57.034 Y8.296 E21.67291
G1 X-57.114 Y8.226 E21.67822
G1 X-57.873 Y7.483 E21.73121
G1 X-57.945 Y7.404 E21.73654
G1 X-58.606 Y6.602 E21.78839
G1 X-58.668 Y6.518 E21.7936
G1 X-59.258 Y5.627 E21.84691
G1 X-59.312 Y5.535 E21.85223
G1 X-59.799 Y4.594 E21.9051
G1 X-59.842 Y4.499 E21.9103
G1 X-60.225 Y3.523 E21.96261
G1 X-60.258 Y3.424 E21.96781
G1 X-60.541 Y2.398 E22.02091
G1 X-60.564 Y2.292 E22.02632
G1 X-60.731 Y1.259 E22.07853
G1 X-60.742 Y1.155 E22.08375
G1 X-60.801 Y0.094 E22.13676
G1 X-60.802 Y-0.011 E22.142
G1 X-60.75 Y-1.067 E22.19475
G1 X-60.739 Y-1.173 E22.20006
G1 X-60.574 Y-2.228 E22.25334
G1 X-60.552 Y-2.331 E22.25859
G1 X-60.285 Y-3.33 E22.31018
G1 X-60.253 Y-3.43 E22.31542
G1 X-59.869 Y-4.43 E22.36886
G1 X-59.825 Y-4.528 E22.37422
G1 X-59.346 Y-5.464 E22.42668
G1 X-59.293 Y-5.555 E22.43193
G1 X-58.711 Y-6.446 E22.48503
G1 X-58.65 Y-6.53 E22.49021
G1 X-57.99 Y-7.342 E22.54241
G1 X-57.917 Y-7.422 E22.54782
G1 X-57.162 Y-8.169 E22.6008
G1 X-57.084 Y-8.238 E22.606
G1 X-56.258 Y-8.9 E22.65881
G1 X-56.172 Y-8.962 E22.6641
G1 X-55.299 Y-9.521 E22.71582
G1 X-55.208 Y-9.573 E22.72105
G1 X-54.242 Y-10.057 E22.77495
G1 X-54.145 Y-10.099 E22.78022
G1 X-53.169 Y-10.465 E22.83223
G1 X-53.068 Y-10.497 E22.83751
G1 X-52.038 Y-10.763 E22.89059
G1 X-51.934 Y-10.784 E22.89588
G1 X-50.887 Y-10.939 E22.94868
G1 X-50.782 Y-10.949 E22.95395
G1 X-49.731 Y-10.992 E23.00643
G1 X-49.624 Y-10.991 E23.01176
G1 X-8.052 Y-8.247 E25.09031
G0 F3000 X-7.623 Y-7.818
G1 F1500 X-10.396 Y-49.977 E27.19818
G1 X-10.396 Y-50.048 E27.20172
G1 X-10.339 Y-51.117 E27.25513
G1 X-10.332 Y-51.181 E27.25834
G1 X-10.165 Y-52.216 E27.31065
G1 X-10.152 Y-52.277 E27.31376
G1 X-9.872 Y-53.307 E27.36701
G1 X-9.852 Y-53.367 E27.37016
G1 X-9.473 Y-54.343 E27.4224
G1 X-9.447 Y-54.402 E27.42562
G1 X-8.952 Y-55.358 E27.47933
G1 X-8.919 Y-55.413 E27.48253
G1 X-8.334 Y-56.297 E27.53541
G1 X-8.297 Y-56.348 E27.53855
G1 X-7.628 Y-57.16 E27.59104
G1 X-7.584 Y-57.207 E27.59426
G1 X-6.821 Y-57.952 E27.64746
G1 X-6.774 Y-57.994 E27.6506
G1 X-5.941 Y-58.653 E27.70359
G1 X-5.888 Y-58.69 E27.70682
G1 X-4.986 Y-59.257 E27.75997
G1 X-4.931 Y-59.288 E27.76312
G1 X-3.991 Y-59.749 E27.81535
G1 X-3.933 Y-59.774 E27.81851
G1 X-2.924 Y-60.143 E27.87211
G1 X-2.862 Y-60.161 E27.87533
G1 X-1.838 Y-60.415 E27.92796
G1 X-1.776 Y-60.427 E27.93111
G1 X-.724 Y-60.573 E27.9841
G1 X-.661 Y-60.579 E27.98726
G1 X0.404 Y-60.613 E28.04042
G1 X0.468 Y-60.611 E28.04361
G1 X1.515 Y-60.532 E28.096
G1 X1.577 Y-60.524 E28.09911
G1 X2.618 Y-60.335 E28.1519
G1 X2.681 Y-60.321 E28.15512
G1 X3.699 Y-60.021 E28.20807
G1 X3.759 Y-59.999 E28.21126
G1 X4.747 Y-59.589 E28.26462
G1 X4.804 Y-59.562 E28.26777
G1 X5.743 Y-59.05 E28.32113
G1 X5.798 Y-59.016 E28.32435
G1 X6.654 Y-58.423 E28.37631
G1 X6.703 Y-58.385 E28.3794
G1 X7.506 Y-57.696 E28.43219
G1 X7.553 Y-57.651 E28.43543
G1 X8.279 Y-56.877 E28.48838
G1 X8.319 Y-56.829 E28.49149
G1 X8.969 Y-55.971 E28.5452
G1 X9.005 Y-55.919 E28.54835
G1 X9.547 Y-55.021 E28.60068
G1 X9.577 Y-54.964 E28.60389
G1 X10.025 Y-54.001 E28.65688
G1 X10.049 Y-53.941 E28.66011
G1 X10.39 Y-52.94 E28.71287
G1 X10.407 Y-52.88 E28.71598
G1 X10.644 Y-51.834 E28.76949
G1 X10.655 Y-51.77 E28.77272
G1 X10.778 Y-50.71 E28.82596
G1 X10.782 Y-50.647 E28.82911
G1 X10.793 Y-49.598 E28.88145
G1 X10.792 Y-49.552 E28.88375
G1 X8.028 Y-7.818 E30.97043
G1 X50.064 Y-10.592 E33.07217
G1 X50.129 Y-10.592 E33.07541
G1 X51.19 Y-10.548 E33.12839
G1 X51.255 Y-10.542 E33.13165
G1 X52.312 Y-10.382 E33.18498
G1 X52.374 Y-10.369 E33.18814
G1 X53.408 Y-10.098 E33.24147
G1 X53.469 Y-10.079 E33.24466
G1 X54.47 Y-9.699 E33.29808
G1 X54.529 Y-9.673 E33.3013
G1 X55.469 Y-9.196 E33.35388
G1 X55.524 Y-9.164 E33.35706
G1 X56.428 Y-8.577 E33.41083
G1 X56.48 Y-8.539 E33.41405
G1 X57.3 Y-7.871 E33.46681
G1 X57.347 Y-7.829 E33.46996
G1 X58.103 Y-7.067 E33.52351
G1 X58.146 Y-7.019 E33.52673
G1 X58.808 Y-6.191 E33.57961
G1 X58.845 Y-6.138 E33.58284
G1 X59.424 Y-5.229 E33.63661
G1 X59.455 Y-5.174 E33.63976
G1 X59.925 Y-4.227 E33.6925
G1 X59.951 Y-4.168 E33.69572
G1 X60.258 Y-3.338 E33.73987
G1 X60.295 Y-3.123 E33.75075
G1 X60.253 Y-2.909 E33.76163
G1 X60.185 Y-2.784 E33.76873
G1 X60.065 Y-2.614 E33.77911
G1 X59.909 Y-2.462 E33.78998
G1 X59.709 Y-2.375 E33.80086
G1 X59.571 Y-2.36 E33.80779
G1 X54.198 Y-2.398 E34.07585
G1 X53.984 Y-2.439 E34.08673
G1 X53.761 Y-2.591 E34.10019
G1 X53.11 Y-3.296 E34.14806
G1 X52.334 Y-3.843 E34.19543
G1 X51.468 Y-4.206 E34.24228
G1 X50.546 Y-4.378 E34.28907
G1 X49.599 Y-4.348 E34.33634
G1 X48.686 Y-4.119 E34.3833
G1 X47.843 Y-3.701 E34.43024
G1 X47.106 Y-3.109 E34.47741
G1 X46.513 Y-2.376 E34.52444
G1 X46.089 Y-1.534 E34.57148
G1 X45.857 Y-.619 E34.61857
G1 X45.823 Y0.349 E34.66689
G1 X45.875 Y0.763 E34.68771
G1 X45.987 Y1.24 E34.71216
G1 X46.354 Y2.121 E34.75977
G1 X46.899 Y2.901 E34.80724
G1 X47.587 Y3.536 E34.85395
G1 X48.404 Y4.014 E34.90118
G1 X49.29 Y4.305 E34.9477
G1 X50.235 Y4.402 E34.9951
G1 X51.184 Y4.293 E35.04275
G1 X51.641 Y4.167 E35.0664
G1 X52.057 Y3.997 E35.08882
G1 X52.862 Y3.509 E35.13579
G1 X53.967 Y2.397 E35.214
G1 X54.147 Y2.273 E35.22491
G1 X54.393 Y2.22 E35.23746
G1 X59.625 Y2.22 E35.49849
G1 X59.84 Y2.26 E35.5094
G1 X60.026 Y2.373 E35.52025
G1 X60.116 Y2.475 E35.52704
G1 X60.235 Y2.644 E35.53735
G1 X60.326 Y2.842 E35.54822
G1 X60.34 Y3.06 E35.55912
G1 X60.31 Y3.189 E35.56573
G1 X60.004 Y4.054 E35.61151
G1 X59.979 Y4.114 E35.61475
G1 X59.512 Y5.084 E35.66846
G1 X59.48 Y5.142 E35.67176
G1 X58.898 Y6.073 E35.72654
G1 X58.862 Y6.125 E35.7297
G1 X58.202 Y6.969 E35.78315
G1 X58.157 Y7.019 E35.78651
G1 X57.388 Y7.802 E35.84126
G1 X57.341 Y7.845 E35.84444
G1 X56.503 Y8.534 E35.89856
G1 X56.45 Y8.573 E35.90184
G1 X55.557 Y9.156 E35.95505
G1 X55.501 Y9.189 E35.95829
G1 X54.518 Y9.689 E36.01331
G1 X54.458 Y9.715 E36.01658
G1 X53.443 Y10.098 E36.0707
G1 X53.382 Y10.118 E36.0739
G1 X52.337 Y10.39 E36.12778
G1 X52.271 Y10.403 E36.13113
G1 X51.187 Y10.559 E36.18577
G1 X51.124 Y10.565 E36.18893
G1 X50.043 Y10.604 E36.24289
G1 X49.981 Y10.603 E36.24599
G1 X8.028 Y7.83 E38.3436
G1 X10.779 Y49.333 E40.41874
G1 X10.78 Y49.365 E40.42033
G1 X10.794 Y50.419 E40.47292
G1 X10.791 Y50.483 E40.47612
G1 X10.693 Y51.533 E40.52873
G1 X10.684 Y51.594 E40.53181
G1 X10.48 Y52.616 E40.5838
G1 X10.464 Y52.679 E40.58704
G1 X10.148 Y53.685 E40.63965
G1 X10.127 Y53.743 E40.64273
G1 X9.702 Y54.725 E40.69611
G1 X9.674 Y54.781 E40.69923
G1 X9.163 Y55.689 E40.75122
G1 X9.128 Y55.743 E40.75443
G1 X8.516 Y56.601 E40.80701
G1 X8.477 Y56.651 E40.81017
G1 X7.773 Y57.444 E40.86307
G1 X7.729 Y57.489 E40.86621
G1 X6.945 Y58.205 E40.91918
G1 X6.896 Y58.245 E40.92234
G1 X6.056 Y58.863 E40.97437
G1 X6.003 Y58.898 E40.97754
G1 X5.08 Y59.437 E41.03086
G1 X5.023 Y59.466 E41.03405
G1 X4.068 Y59.896 E41.0863
G1 X4.008 Y59.919 E41.08951
G1 X2.998 Y60.249 E41.14252
G1 X2.938 Y60.266 E41.14563
G1 X1.897 Y60.489 E41.19875
G1 X1.834 Y60.499 E41.20193
G1 X0.785 Y60.61 E41.25456
G1 X0.721 Y60.613 E41.25775
G1 X-.331 Y60.612 E41.31024
G1 X-.393 Y60.609 E41.31333
G1 X-1.44 Y60.498 E41.36586
G1 X-1.503 Y60.488 E41.36904
G1 X-2.534 Y60.266 E41.42166
G1 X-2.594 Y60.249 E41.42477
G1 X-3.604 Y59.919 E41.47778
G1 X-3.664 Y59.896 E41.48099
G1 X-4.619 Y59.466 E41.53324
G1 X-4.676 Y59.437 E41.53643
G1 X-5.597 Y58.899 E41.58964
G1 X-5.65 Y58.864 E41.59281
G1 X-6.491 Y58.245 E41.64491
G1 X-6.539 Y58.205 E41.64803
G1 X-7.323 Y57.49 E41.70096
G1 X-7.368 Y57.445 E41.70414
G1 X-8.073 Y56.651 E41.75711
G1 X-8.112 Y56.602 E41.76024
G1 X-8.725 Y55.743 E41.81289
G1 X-8.76 Y55.688 E41.81614
G1 X-9.272 Y54.779 E41.86819
G1 X-9.3 Y54.723 E41.87131
G1 X-9.723 Y53.744 E41.92452
G1 X-9.744 Y53.686 E41.9276
G1 X-10.06 Y52.679 E41.98025
G1 X-10.076 Y52.616 E41.98349
G1 X-10.28 Y51.594 E42.03549
G1 X-10.289 Y51.533 E42.03856
G1 X-10.387 Y50.485 E42.09108
G1 X-10.39 Y50.421 E42.09427
G1 X-10.376 Y49.365 E42.14696
G1 X-10.375 Y49.333 E42.14856
G1 X-7.624 Y7.83 E44.2237
G1 X-49.586 Y10.603 E46.32176
G1 X-49.647 Y10.604 E46.3248
G1 X-50.701 Y10.567 E46.37742
G1 X-50.764 Y10.561 E46.38057
G1 X-51.81 Y10.414 E46.43327
G1 X-51.872 Y10.402 E46.43642
G1 X-52.893 Y10.145 E46.48895
G1 X-52.954 Y10.126 E46.49214
G1 X-53.946 Y9.761 E46.54487
G1 X-54.004 Y9.736 E46.54802
G1 X-54.958 Y9.267 E46.60106
G1 X-55.013 Y9.236 E46.60421
G1 X-55.903 Y8.674 E46.65672
G1 X-55.955 Y8.638 E46.65988
G1 X-56.786 Y7.982 E46.7127
G1 X-56.834 Y7.94 E46.71588
G1 X-57.593 Y7.197 E46.76887
G1 X-57.636 Y7.15 E46.77205
G1 X-58.297 Y6.348 E46.8239
G1 X-58.334 Y6.297 E46.82704
G1 X-58.924 Y5.406 E46.88036
G1 X-58.957 Y5.351 E46.88356
G1 X-59.444 Y4.41 E46.93642
G1 X-59.47 Y4.353 E46.93954
G1 X-59.853 Y3.377 E46.99185
G1 X-59.872 Y3.318 E46.99494
G1 X-60.155 Y2.292 E47.04804
G1 X-60.169 Y2.228 E47.05131
G1 X-60.336 Y1.195 E47.10352
G1 X-60.343 Y1.132 E47.10668
G1 X-60.402 Y0.071 E47.15969
G1 X-60.402 Y0.008 E47.16284
G1 X-60.35 Y-1.048 E47.21558
G1 X-60.344 Y-1.111 E47.21874
G1 X-60.179 Y-2.166 E47.27202
G1 X-60.166 Y-2.228 E47.27518
G1 X-59.899 Y-3.227 E47.32677
G1 X-59.879 Y-3.287 E47.32992
