;FLAVOR:Marlin
;TIME:981
;Filament used: 1.44011m
;Layer height: 0.3
;Generated with Cura_SteamEngine 1.2.1
M190 S35
M104 S220
M109 S220
G28
G1 Z50.00 F400
G92 E0
G1 F200 E3
G92 E0
M132 X Y Z A
M907 X100 Y100 Z50 A100
;LAYER_COUNT:72
;LAYER:0
M107
G0 F3000 X6.176 Y11.6 Z0.3
G0 X6.041 Y11.727
;TYPE:SKIRT
G1 F1500 X5.981 Y11.878 E0.00811
G1 X5.994 Y12.108 E0.0196
G1 X6.248 Y12.789 E0.05586
G1 X6.305 Y13.025 E0.06797
G1 X6.387 Y13.746 E0.10418
G1 X6.39 Y13.933 E0.11351
G1 X6.303 Y15.108 E0.17229
G1 X6.272 Y15.291 E0.18155
G1 X5.83 Y16.952 E0.2673
G1 X5.785 Y17.086 E0.27435
G1 X5.371 Y18.062 E0.32724
G1 X5.312 Y18.179 E0.33378
G1 X4.497 Y19.562 E0.41387
G1 X4.32 Y19.782 E0.42796
G1 X4.09 Y19.945 E0.44202
G1 X3.753 Y20.047 E0.45959
G1 X3.141 Y20.12 E0.49034
G1 X2.859 Y20.114 E0.50441
G1 X2.59 Y20.029 E0.51848
G1 X2.371 Y19.886 E0.53153
G1 X1.209 Y18.888 E0.60795
G1 X1.099 Y18.776 E0.61578
G1 X-.189 Y17.259 E0.71507
G1 X-.297 Y17.105 E0.72445
G1 X-1.007 Y15.852 E0.7963
G1 X-1.084 Y15.681 E0.80566
G1 X-1.389 Y14.785 E0.85288
G1 X-1.439 Y14.534 E0.86565
G1 X-1.528 Y13.278 E0.92847
G1 X-1.606 Y13.14 E0.93637
G1 X-1.73 Y13.049 E0.94405
G1 X-1.893 Y13.016 E0.95234
G1 X-2.042 Y13.054 E0.96002
G1 X-2.174 Y13.16 E0.96846
G1 X-2.297 Y13.411 E0.98241
G1 X-2.468 Y14.031 E1.01449
G1 X-2.565 Y14.263 E1.02704
G1 X-2.932 Y14.902 E1.0638
G1 X-3.037 Y15.051 E1.0729
G1 X-3.783 Y15.93 E1.13042
G1 X-3.915 Y16.06 E1.13966
G1 X-5.257 Y17.149 E1.22588
G1 X-5.372 Y17.229 E1.23287
G1 X-6.273 Y17.771 E1.28533
G1 X-6.392 Y17.832 E1.292
G1 X-7.863 Y18.467 E1.37193
G1 X-8.135 Y18.541 E1.386
G1 X-8.417 Y18.536 E1.40007
G1 X-8.744 Y18.423 E1.41733
G1 X-9.283 Y18.124 E1.44808
G1 X-9.508 Y17.954 E1.46215
G1 X-9.676 Y17.728 E1.4762
G1 X-9.771 Y17.479 E1.4895
G1 X-10.12 Y15.998 E1.56541
G1 X-10.144 Y15.847 E1.57303
G1 X-10.298 Y13.866 E1.67216
G1 X-10.295 Y13.677 E1.6816
G1 X-10.134 Y12.236 E1.75393
G1 X-10.095 Y12.051 E1.76337
G1 X-9.813 Y11.141 E1.8109
G1 X-9.696 Y10.891 E1.82467
G1 X-9.045 Y9.892 E1.88416
G1 X-9.019 Y9.8 E1.88893
G1 X-9.037 Y9.616 E1.89815
G1 X-9.122 Y9.47 E1.90658
G1 X-9.274 Y9.364 E1.91582
G1 X-9.339 Y9.35 E1.91914
G1 X-9.528 Y9.38 E1.92869
G1 X-10.562 Y10.079 E1.99096
G1 X-10.794 Y10.196 E2.00392
G1 X-11.697 Y10.51 E2.05162
G1 X-11.878 Y10.554 E2.06091
G1 X-13.298 Y10.765 E2.13253
G1 X-13.486 Y10.775 E2.14192
G1 X-15.467 Y10.694 E2.24084
G1 X-15.645 Y10.671 E2.24979
G1 X-17.218 Y10.318 E2.33022
G1 X-17.482 Y10.218 E2.34431
G1 X-17.707 Y10.048 E2.35838
G1 X-17.907 Y9.762 E2.37579
G1 X-18.165 Y9.204 E2.40646
G1 X-18.246 Y8.933 E2.42057
G1 X-18.248 Y8.651 E2.43464
G1 X-18.179 Y8.397 E2.44777
G1 X-17.589 Y6.99 E2.52389
G1 X-17.519 Y6.853 E2.53156
G1 X-16.476 Y5.156 E2.63094
G1 X-16.361 Y5.005 E2.64041
G1 X-15.39 Y3.945 E2.71213
G1 X-15.253 Y3.82 E2.72138
G1 X-14.487 Y3.246 E2.76913
G1 X-14.262 Y3.119 E2.78202
G1 X-13.099 Y2.649 E2.8446
G1 X-12.995 Y2.536 E2.85227
G1 X-12.954 Y2.411 E2.85883
G1 X-13.004 Y2.133 E2.87292
G1 X-13.142 Y2.019 E2.88185
G1 X-13.371 Y1.96 E2.89365
G1 X-14.107 Y1.987 E2.93039
G1 X-14.343 Y1.968 E2.94221
G1 X-15.053 Y1.824 E2.97835
G1 X-15.232 Y1.77 E2.98768
G1 X-16.32 Y1.326 E3.0463
G1 X-16.486 Y1.239 E3.05565
G1 X-17.923 Y0.308 E3.14108
G1 X-18.033 Y0.225 E3.14795
G1 X-18.842 Y-.475 E3.20132
G1 X-18.923 Y-.553 E3.20693
G1 X-19.956 Y-1.674 E3.28299
G1 X-20.116 Y-1.907 E3.29709
G1 X-20.205 Y-2.175 E3.31118
G1 X-20.217 Y-2.438 E3.32431
G1 X-20.164 Y-3.051 E3.35501
G1 X-20.101 Y-3.326 E3.36908
G1 X-19.963 Y-3.572 E3.38315
G1 X-19.709 Y-3.806 E3.40038
G1 X-18.369 Y-4.667 E3.47985
G1 X-18.249 Y-4.733 E3.48668
G1 X-17.278 Y-5.184 E3.54009
G1 X-17.149 Y-5.233 E3.54698
G1 X-15.509 Y-5.734 E3.63253
G1 X-15.326 Y-5.772 E3.64186
G1 X-14.156 Y-5.9 E3.70058
G1 X-13.97 Y-5.903 E3.70986
G1 X-13.246 Y-5.847 E3.74609
G1 X-13.01 Y-5.8 E3.75809
G1 X-12.308 Y-5.569 E3.79496
G1 X-12.079 Y-5.563 E3.80639
G1 X-11.904 Y-5.639 E3.81591
G1 X-11.857 Y-5.687 E3.81926
G1 X-11.785 Y-5.856 E3.82843
G1 X-11.792 Y-6.017 E3.83646
G1 X-11.857 Y-6.146 E3.84367
G1 X-12.624 Y-6.713 E3.89126
G1 X-12.769 Y-6.845 E3.90104
G1 X-13.265 Y-7.391 E3.93784
G1 X-13.376 Y-7.538 E3.94703
G1 X-13.985 Y-8.525 E4.00489
G1 X-14.068 Y-8.692 E4.0142
G1 X-14.685 Y-10.299 E4.10008
G1 X-14.725 Y-10.432 E4.10701
G1 X-14.965 Y-11.47 E4.16016
G1 X-14.987 Y-11.604 E4.16693
G1 X-15.132 Y-13.19 E4.24639
G1 X-15.118 Y-13.472 E4.26048
G1 X-15.025 Y-13.738 E4.27453
G1 X-14.816 Y-14.014 E4.29181
G1 X-14.368 Y-14.43 E4.32231
G1 X-14.137 Y-14.591 E4.33635
G1 X-13.869 Y-14.68 E4.35044
G1 X-13.606 Y-14.694 E4.36358
G1 X-12.079 Y-14.569 E4.44002
G1 X-11.925 Y-14.544 E4.4478
G1 X-9.986 Y-14.073 E4.54735
G1 X-9.807 Y-14.011 E4.5568
G1 X-8.495 Y-13.412 E4.62876
G1 X-8.333 Y-13.318 E4.6381
G1 X-7.554 Y-12.767 E4.68571
G1 X-7.352 Y-12.578 E4.69951
G1 X-6.636 Y-11.688 E4.7565
G1 X-6.451 Y-11.575 E4.76731
G1 X-6.343 Y-11.556 E4.77278
G1 X-6.242 Y-11.574 E4.7779
G1 X-6.094 Y-11.663 E4.78652
G1 X-6 Y-11.804 E4.79497
G1 X-5.977 Y-11.955 E4.80259
G1 X-6.323 Y-13.162 E4.86523
G1 X-6.362 Y-13.418 E4.87815
G1 X-6.381 Y-14.363 E4.92531
G1 X-6.367 Y-14.549 E4.93462
G1 X-6.127 Y-15.977 E5.00686
G1 X-6.079 Y-16.159 E5.01625
G1 X-5.392 Y-18.012 E5.11484
G1 X-5.316 Y-18.172 E5.12368
G1 X-4.497 Y-19.562 E5.20417
G1 X-4.32 Y-19.782 E5.21826
G1 X-4.09 Y-19.945 E5.23232
G1 X-3.753 Y-20.047 E5.24989
G1 X-3.141 Y-20.12 E5.28064
G1 X-2.859 Y-20.114 E5.29471
G1 X-2.59 Y-20.029 E5.30878
G1 X-2.371 Y-19.886 E5.32183
G1 X-1.209 Y-18.888 E5.39825
G1 X-1.099 Y-18.776 E5.40608
G1 X0.189 Y-17.259 E5.50537
G1 X0.297 Y-17.105 E5.51475
G1 X1.006 Y-15.853 E5.58653
G1 X1.082 Y-15.683 E5.59582
G1 X1.388 Y-14.786 E5.64311
G1 X1.44 Y-14.533 E5.65599
G1 X1.529 Y-13.276 E5.71886
G1 X1.603 Y-13.142 E5.7265
G1 X1.73 Y-13.049 E5.73435
G1 X1.893 Y-13.016 E5.74265
G1 X2.042 Y-13.054 E5.75032
G1 X2.174 Y-13.16 E5.75877
G1 X2.298 Y-13.414 E5.77287
G1 X2.472 Y-14.037 E5.80514
G1 X2.568 Y-14.267 E5.81758
G1 X2.934 Y-14.905 E5.85427
G1 X3.039 Y-15.054 E5.86336
G1 X3.783 Y-15.93 E5.9207
G1 X3.915 Y-16.06 E5.92995
G1 X5.257 Y-17.149 E6.01617
G1 X5.372 Y-17.229 E6.02316
G1 X6.273 Y-17.771 E6.07562
G1 X6.392 Y-17.832 E6.08229
G1 X7.863 Y-18.467 E6.16222
G1 X8.135 Y-18.541 E6.17629
G1 X8.417 Y-18.536 E6.19036
G1 X8.744 Y-18.423 E6.20762
G1 X9.283 Y-18.124 E6.23837
G1 X9.508 Y-17.954 E6.25244
G1 X9.676 Y-17.728 E6.26649
G1 X9.771 Y-17.48 E6.27974
G1 X10.12 Y-16.003 E6.35545
G1 X10.144 Y-15.85 E6.36318
G1 X10.298 Y-13.865 E6.46251
G1 X10.295 Y-13.677 E6.47189
G1 X10.134 Y-12.236 E6.54423
G1 X10.095 Y-12.051 E6.55366
G1 X9.813 Y-11.141 E6.60119
G1 X9.696 Y-10.891 E6.61496
G1 X9.045 Y-9.892 E6.67445
G1 X9.019 Y-9.8 E6.67922
G1 X9.037 Y-9.615 E6.6885
G1 X9.121 Y-9.47 E6.69686
G1 X9.274 Y-9.364 E6.70614
G1 X9.339 Y-9.35 E6.70946
G1 X9.528 Y-9.38 E6.71901
G1 X10.562 Y-10.079 E6.78127
G1 X10.794 Y-10.196 E6.79424
G1 X11.697 Y-10.51 E6.84193
G1 X11.878 Y-10.554 E6.85123
G1 X13.308 Y-10.766 E6.92335
G1 X13.497 Y-10.776 E6.93279
G1 X15.477 Y-10.693 E7.03166
G1 X15.631 Y-10.675 E7.0394
G1 X17.127 Y-10.376 E7.11551
G1 X17.393 Y-10.282 E7.12958
G1 X17.622 Y-10.117 E7.14367
G1 X17.786 Y-9.913 E7.15672
G1 X18.105 Y-9.386 E7.18746
G1 X18.216 Y-9.126 E7.20156
G1 X18.25 Y-8.846 E7.21563
G1 X18.182 Y-8.505 E7.23298
G1 X17.605 Y-7.024 E7.31228
G1 X17.525 Y-6.864 E7.3212
G1 X16.483 Y-5.166 E7.4206
G1 X16.37 Y-5.015 E7.43001
G1 X15.4 Y-3.952 E7.5018
G1 X15.262 Y-3.827 E7.51109
G1 X14.498 Y-3.252 E7.55879
G1 X14.254 Y-3.117 E7.57271
G1 X13.174 Y-2.704 E7.63039
G1 X13.015 Y-2.567 E7.64086
G1 X12.95 Y-2.425 E7.64866
G1 X12.952 Y-2.235 E7.65814
G1 X12.984 Y-2.156 E7.66239
G1 X13.056 Y-2.073 E7.66787
G1 X13.216 Y-1.991 E7.67684
G1 X14.473 Y-1.945 E7.73959
G1 X14.726 Y-1.903 E7.75239
G1 X15.635 Y-1.629 E7.79975
G1 X15.808 Y-1.559 E7.80906
G1 X17.083 Y-.895 E7.88078
G1 X17.241 Y-.793 E7.89017
G1 X18.806 Y0.444 E7.98969
G1 X18.921 Y0.551 E7.99753
G1 X19.956 Y1.674 E8.07372
G1 X20.116 Y1.907 E8.08782
G1 X20.205 Y2.174 E8.10186
G1 X20.217 Y2.438 E8.11505
G1 X20.164 Y3.051 E8.14574
G1 X20.101 Y3.326 E8.15982
G1 X19.963 Y3.572 E8.17389
G1 X19.708 Y3.806 E8.19116
G1 X18.369 Y4.666 E8.27055
G1 X18.21 Y4.75 E8.27952
G1 X16.361 Y5.512 E8.3793
G1 X16.18 Y5.567 E8.38873
G1 X14.776 Y5.854 E8.46023
G1 X14.593 Y5.874 E8.46941
G1 X13.64 Y5.89 E8.51696
G1 X13.363 Y5.856 E8.53089
G1 X12.241 Y5.555 E8.58884
G1 X12.044 Y5.572 E8.59871
G1 X11.871 Y5.671 E8.60865
G1 X11.834 Y5.718 E8.61164
G1 X11.78 Y5.898 E8.62101
G1 X11.802 Y6.054 E8.62887
G1 X11.908 Y6.214 E8.63845
G1 X12.594 Y6.691 E8.68013
G1 X12.798 Y6.879 E8.69397
G1 X13.591 Y7.85 E8.75652
G1 X13.712 Y8.039 E8.76772
G1 X14.35 Y9.327 E8.83943
G1 X14.417 Y9.502 E8.84877
G1 X14.954 Y11.426 E8.94843
G1 X14.987 Y11.604 E8.95746
G1 X15.132 Y13.19 E9.03692
G1 X15.118 Y13.472 E9.05101
G1 X15.025 Y13.738 E9.06506
G1 X14.816 Y14.014 E9.08234
G1 X14.368 Y14.43 E9.11284
G1 X14.137 Y14.591 E9.12689
G1 X13.869 Y14.68 E9.14097
G1 X13.606 Y14.694 E9.15411
G1 X12.079 Y14.569 E9.23055
G1 X11.925 Y14.544 E9.23833
G1 X9.987 Y14.074 E9.33782
G1 X9.846 Y14.028 E9.34522
G1 X9.13 Y13.737 E9.38378
G1 X9.012 Y13.68 E9.39032
G1 X7.992 Y13.099 E9.44888
G1 X7.839 Y12.991 E9.45823
G1 X7.281 Y12.516 E9.49479
G1 X7.117 Y12.339 E9.50683
G1 X6.664 Y11.709 E9.54554
G1 X6.545 Y11.611 E9.55323
G1 X6.453 Y11.574 E9.55818
G1 X6.241 Y11.573 E9.56875
G1 X6.176 Y11.6 E9.57227
G1 X6.041 Y11.727 E9.58151
G0 F3000 X5.701 Y11.497
G1 F1500 X5.577 Y11.811 E9.59835
G1 X5.599 Y12.192 E9.61739
G1 X5.873 Y12.928 E9.65658
G1 X5.907 Y13.07 E9.66386
G1 X5.989 Y13.791 E9.70006
G1 X5.991 Y13.903 E9.70565
G1 X5.904 Y15.078 E9.76443
G1 X5.886 Y15.188 E9.76999
G1 X5.444 Y16.849 E9.85575
G1 X5.416 Y16.929 E9.85997
G1 X5.002 Y17.905 E9.91287
G1 X4.967 Y17.976 E9.91682
G1 X4.152 Y19.359 E9.9969
G1 X4.009 Y19.523 E10.00776
G1 X3.816 Y19.626 E10.01867
G1 X3.706 Y19.65 E10.02429
G1 X3.094 Y19.723 E10.05504
G1 X2.876 Y19.709 E10.06594
G1 X2.632 Y19.582 E10.07966
G1 X1.47 Y18.584 E10.15608
G1 X1.404 Y18.517 E10.16077
G1 X0.116 Y17 E10.26006
G1 X0.051 Y16.908 E10.26568
G1 X-.659 Y15.655 E10.33753
G1 X-.705 Y15.552 E10.34315
G1 X-1.01 Y14.656 E10.39037
G1 X-1.04 Y14.505 E10.39806
G1 X-1.135 Y13.16 E10.46533
G1 X-1.298 Y12.869 E10.48197
G1 X-1.564 Y12.674 E10.49842
G1 X-1.906 Y12.607 E10.51581
G1 X-2.224 Y12.686 E10.53215
G1 X-2.493 Y12.904 E10.54943
G1 X-2.673 Y13.271 E10.56982
G1 X-2.854 Y13.925 E10.60368
G1 X-2.912 Y14.064 E10.61119
G1 X-3.279 Y14.703 E10.64795
G1 X-3.342 Y14.792 E10.65339
G1 X-4.088 Y15.671 E10.71091
G1 X-4.167 Y15.749 E10.71645
G1 X-5.509 Y16.838 E10.80267
G1 X-5.578 Y16.886 E10.80687
G1 X-6.479 Y17.428 E10.85933
G1 X-6.55 Y17.465 E10.86332
G1 X-8.021 Y18.1 E10.94325
G1 X-8.234 Y18.148 E10.95415
G1 X-8.55 Y18.074 E10.97034
G1 X-9.089 Y17.775 E11.00109
G1 X-9.257 Y17.636 E11.01197
G1 X-9.382 Y17.388 E11.02582
G1 X-9.731 Y15.907 E11.10174
G1 X-9.745 Y15.816 E11.10633
G1 X-9.899 Y13.835 E11.20546
G1 X-9.897 Y13.721 E11.21115
G1 X-9.736 Y12.28 E11.28349
G1 X-9.713 Y12.169 E11.28914
G1 X-9.431 Y11.259 E11.33667
G1 X-9.361 Y11.109 E11.34493
G1 X-8.677 Y10.058 E11.40749
G1 X-8.614 Y9.836 E11.41901
G1 X-8.646 Y9.492 E11.43624
G1 X-8.821 Y9.191 E11.45361
G1 X-9.109 Y8.992 E11.47108
G1 X-9.329 Y8.943 E11.48232
G1 X-9.678 Y8.999 E11.49996
G1 X-10.786 Y9.748 E11.56668
G1 X-10.925 Y9.818 E11.57444
G1 X-11.828 Y10.132 E11.62214
G1 X-11.937 Y10.158 E11.62773
G1 X-13.357 Y10.369 E11.69935
G1 X-13.47 Y10.375 E11.705
G1 X-15.451 Y10.294 E11.80391
G1 X-15.557 Y10.28 E11.80925
G1 X-17.13 Y9.927 E11.88968
G1 X-17.331 Y9.842 E11.90057
G1 X-17.488 Y9.69 E11.91147
G1 X-17.544 Y9.594 E11.91701
G1 X-17.802 Y9.036 E11.94768
G1 X-17.856 Y8.824 E11.9586
G1 X-17.81 Y8.552 E11.97236
G1 X-17.22 Y7.145 E12.04848
G1 X-17.178 Y7.063 E12.05307
G1 X-16.135 Y5.366 E12.15245
G1 X-16.066 Y5.275 E12.15815
G1 X-15.095 Y4.215 E12.22987
G1 X-15.013 Y4.14 E12.23541
G1 X-14.247 Y3.566 E12.28316
G1 X-14.112 Y3.49 E12.29089
G1 X-12.866 Y2.987 E12.35793
G1 X-12.64 Y2.742 E12.37456
G1 X-12.542 Y2.441 E12.39035
G1 X-12.63 Y1.957 E12.4149
G1 X-12.673 Y1.887 E12.41899
G1 X-12.955 Y1.655 E12.43721
G1 X-13.325 Y1.558 E12.4563
G1 X-14.122 Y1.588 E12.49609
G1 X-14.263 Y1.576 E12.50315
G1 X-14.973 Y1.432 E12.53929
G1 X-15.081 Y1.4 E12.54491
G1 X-16.169 Y0.956 E12.60354
G1 X-16.268 Y0.904 E12.60911
G1 X-17.705 Y-0.027 E12.69454
G1 X-17.772 Y-0.077 E12.69871
G1 X-18.581 Y-.777 E12.75208
G1 X-18.629 Y-.824 E12.75543
G1 X-19.662 Y-1.945 E12.83148
G1 X-19.778 Y-2.13 E12.84238
G1 X-19.819 Y-2.404 E12.8562
G1 X-19.766 Y-3.017 E12.8869
G1 X-19.708 Y-3.227 E12.89777
G1 X-19.492 Y-3.47 E12.91399
G1 X-18.152 Y-4.331 E12.99345
G1 X-18.081 Y-4.37 E12.99749
G1 X-17.11 Y-4.821 E13.05091
G1 X-17.032 Y-4.851 E13.05508
G1 X-15.392 Y-5.352 E13.14063
G1 X-15.282 Y-5.374 E13.14622
G1 X-14.112 Y-5.502 E13.20494
G1 X-14.001 Y-5.504 E13.21048
G1 X-13.277 Y-5.448 E13.24671
G1 X-13.135 Y-5.42 E13.25393
G1 X-12.377 Y-5.171 E13.29374
G1 X-12 Y-5.161 E13.31255
G1 X-11.674 Y-5.303 E13.33029
G1 X-11.519 Y-5.459 E13.34126
G1 X-11.383 Y-5.782 E13.35875
G1 X-11.396 Y-6.124 E13.37582
G1 X-11.543 Y-6.412 E13.39196
G1 X-12.386 Y-7.035 E13.44425
G1 X-12.473 Y-7.114 E13.45011
G1 X-12.969 Y-7.66 E13.48692
G1 X-13.036 Y-7.748 E13.49243
G1 X-13.645 Y-8.735 E13.5503
G1 X-13.694 Y-8.835 E13.55585
G1 X-14.311 Y-10.442 E13.64173
G1 X-14.336 Y-10.522 E13.64591
G1 X-14.576 Y-11.56 E13.69906
G1 X-14.589 Y-11.64 E13.70311
G1 X-14.734 Y-13.226 E13.78256
G1 X-14.714 Y-13.444 E13.79349
G1 X-14.544 Y-13.721 E13.8097
G1 X-14.096 Y-14.137 E13.8402
G1 X-13.912 Y-14.254 E13.85108
G1 X-13.639 Y-14.295 E13.86485
G1 X-12.112 Y-14.17 E13.94129
G1 X-12.019 Y-14.155 E13.94599
G1 X-10.08 Y-13.684 E14.04554
G1 X-9.973 Y-13.647 E14.05119
G1 X-8.661 Y-13.048 E14.12314
G1 X-8.564 Y-12.992 E14.12873
G1 X-7.785 Y-12.441 E14.17633
G1 X-7.664 Y-12.327 E14.18463
G1 X-6.905 Y-11.384 E14.24502
G1 X-6.592 Y-11.192 E14.26334
G1 X-6.348 Y-11.151 E14.27568
G1 X-6.096 Y-11.193 E14.28843
G1 X-5.812 Y-11.366 E14.30502
G1 X-5.618 Y-11.654 E14.32235
G1 X-5.568 Y-11.98 E14.3388
G1 X-5.939 Y-13.272 E14.40586
G1 X-5.962 Y-13.426 E14.41363
G1 X-5.981 Y-14.371 E14.46079
G1 X-5.973 Y-14.482 E14.46634
G1 X-5.733 Y-15.91 E14.53858
G1 X-5.704 Y-16.02 E14.54426
G1 X-5.017 Y-17.873 E14.64285
G1 X-4.971 Y-17.969 E14.64816
G1 X-4.152 Y-19.359 E14.72865
G1 X-4.009 Y-19.523 E14.73951
G1 X-3.816 Y-19.626 E14.75042
G1 X-3.706 Y-19.65 E14.75604
G1 X-3.094 Y-19.723 E14.78679
G1 X-2.876 Y-19.709 E14.79769
G1 X-2.632 Y-19.582 E14.81141
G1 X-1.47 Y-18.584 E14.88783
G1 X-1.404 Y-18.517 E14.89252
G1 X-.116 Y-17 E14.99181
G1 X-0.051 Y-16.908 E14.99743
G1 X0.658 Y-15.656 E15.06921
G1 X0.704 Y-15.554 E15.07479
G1 X1.01 Y-14.657 E15.12207
G1 X1.041 Y-14.505 E15.12981
G1 X1.136 Y-13.161 E15.19703
G1 X1.297 Y-12.871 E15.21358
G1 X1.564 Y-12.674 E15.23014
G1 X1.906 Y-12.607 E15.24752
G1 X2.224 Y-12.686 E15.26387
G1 X2.493 Y-12.904 E15.28114
G1 X2.674 Y-13.272 E15.3016
G1 X2.857 Y-13.93 E15.33568
G1 X2.915 Y-14.068 E15.34315
G1 X3.281 Y-14.706 E15.37984
G1 X3.344 Y-14.795 E15.38528
G1 X4.088 Y-15.671 E15.44262
G1 X4.167 Y-15.749 E15.44816
G1 X5.509 Y-16.838 E15.53438
G1 X5.578 Y-16.886 E15.53858
G1 X6.479 Y-17.428 E15.59103
G1 X6.55 Y-17.465 E15.59503
G1 X8.021 Y-18.1 E15.67496
G1 X8.234 Y-18.148 E15.68586
G1 X8.55 Y-18.074 E15.70205
G1 X9.089 Y-17.775 E15.7328
G1 X9.257 Y-17.636 E15.74368
G1 X9.382 Y-17.388 E15.75753
G1 X9.731 Y-15.911 E15.83325
G1 X9.745 Y-15.819 E15.83789
G1 X9.899 Y-13.834 E15.93722
G1 X9.897 Y-13.721 E15.94286
G1 X9.736 Y-12.28 E16.0152
G1 X9.713 Y-12.169 E16.02086
G1 X9.431 Y-11.259 E16.06839
G1 X9.361 Y-11.109 E16.07664
G1 X8.677 Y-10.058 E16.1392
G1 X8.614 Y-9.836 E16.15072
G1 X8.646 Y-9.492 E16.16795
G1 X8.82 Y-9.192 E16.18526
G1 X9.109 Y-8.991 E16.20282
G1 X9.329 Y-8.943 E16.21405
G1 X9.678 Y-8.999 E16.23169
G1 X10.786 Y-9.748 E16.29841
G1 X10.925 Y-9.818 E16.30618
G1 X11.828 Y-10.132 E16.35387
G1 X11.937 Y-10.159 E16.35947
G1 X13.367 Y-10.371 E16.4316
G1 X13.48 Y-10.376 E16.43724
G1 X15.46 Y-10.293 E16.53611
G1 X15.553 Y-10.282 E16.54078
G1 X17.049 Y-9.983 E16.61689
G1 X17.251 Y-9.902 E16.62775
